; G-Code generated by Simplify3D(TM) Version 2.2.0
; Jan 3, 2015 at 6:07:40 PM
; Settings Summary
;   processName,Nylon
;   applyToModels,Motor_Coupler
;   profileLabel,Nylon_EXP.fff
;   printMaterial,Nylon
;   printQuality,High
;   extruderName,Extruder 1
;   extruderToolheadNumber,0
;   extruderDiameter,0.4
;   extruderAutoWidth,0
;   extruderWidth,0.48
;   extrusionMultiplier,1
;   extruderUseRetract,1
;   extruderRetractionDistance,4
;   extruderExtraRestartDistance,0
;   extruderRetractionZLift,0
;   extruderRetractionSpeed,3000
;   extruderUseCoasting,1
;   extruderCoastingDistance,0.4
;   extruderUseWipe,1
;   extruderWipeDistance,5
;   primaryExtruder,0
;   layerHeight,0.2
;   topSolidLayers,3
;   bottomSolidLayers,3
;   perimeterOutlines,2
;   printPerimetersInsideOut,1
;   startPointOption,2
;   startPointOriginX,0
;   startPointOriginY,0
;   startPointOriginZ,300
;   sequentialIslands,0
;   spiralVaseMode,0
;   firstLayerHeightPercentage,100
;   firstLayerWidthPercentage,110
;   firstLayerUnderspeed,0.5
;   useRaft,0
;   raftExtruder,0
;   raftLayers,3
;   raftOffset,3
;   raftSeparationDistance,0.14
;   raftInfill,85
;   disableRaftBaseLayers,0
;   useSkirt,1
;   skirtExtruder,0
;   skirtLayers,1
;   skirtOutlines,4
;   skirtOffset,10
;   infillExtruder,0
;   externalInfillPattern,Rectilinear
;   infillPercentage,20
;   outlineOverlapPercentage,15
;   infillExtrusionWidthPercentage,100
;   minInfillLength,5
;   infillLayerInterval,1
;   randomInfillStartPoint,0
;   infillAngles,45,-45
;   generateSupport,0
;   supportExtruder,0
;   supportInfill,40
;   supportExtraInflation,0
;   denseSupportLayers,0
;   denseSupportInfill,70
;   supportLayerInterval,1
;   supportHorizontalPartOffset,0.3
;   supportUpperSeparationLayers,1
;   supportLowerSeparationLayers,1
;   supportGridSpacing,4
;   maxOverhangAngle,45
;   supportAngles,0
;   temperatureName,Extruder 1 Temperature,Heated Bed
;   temperatureNumber,0,0
;   temperatureSetpointCount,1,1
;   temperatureSetpointLayers,1,1
;   temperatureSetpointTemperatures,245,58
;   temperatureStabilizeAtStartup,1,1
;   temperatureHeatedBed,0,1
;   temperatureRelayBetweenLayers,0,0
;   temperatureRelayBetweenLoops,0,0
;   fanLayers,1
;   fanSpeeds,0
;   blipFanToFullPower,0
;   adjustSpeedForCooling,1
;   minSpeedLayerTime,15
;   minCoolingSpeedSlowdown,20
;   increaseFanForCooling,0
;   minFanLayerTime,45
;   maxCoolingFanSpeed,100
;   increaseFanForBridging,0
;   bridgingFanSpeed,100
;   use5D,1
;   relativeEdistances,0
;   allowEaxisZeroing,1
;   independentExtruderAxes,0
;   includeM10123,0
;   stickySupport,1
;   detectArcs,0
;   arcReplaceG2G3,0
;   arcRadialCompensation,1
;   gcodeXoffset,0
;   gcodeYoffset,0
;   gcodeZoffset,0
;   overrideMachineDefinition,0
;   machineTypeOverride,0
;   strokeXoverride,250
;   strokeYoverride,250
;   strokeZoverride,250
;   originOffsetXoverride,0
;   originOffsetYoverride,0
;   originOffsetZoverride,0
;   homeXdirOverride,-1
;   homeYdirOverride,-1
;   homeZdirOverride,-1
;   flipXoverride,1
;   flipYoverride,-1
;   flipZoverride,1
;   startingGcode,G28 ; home all axes
;   layerChangeGcode,
;   toolChangeGcode,
;   endingGcode,M104 S0 ; turn off extruder,M140 S0 ; turn off bed,M84 ; disable motors,G28 ; home all axes
;   createX3G,0
;   celebration,0
;   celebrationSong,Random Song
;   createMB5G,0
;   postProcessing,
;   defaultSpeed,6000
;   outlineUnderspeed,0.25
;   solidInfillUnderspeed,0.7
;   supportUnderspeed,0.8
;   rapidXYspeed,10000
;   rapidZspeed,1000
;   minBridgingArea,50
;   bridgingExtrusionMultiplier,1
;   bridgingSpeedMultiplier,1
;   filamentDiameter,2.9
;   filamentPricePerKg,46
;   useMinPrintHeight,0
;   minPrintHeight,0
;   useMaxPrintHeight,0
;   maxPrintHeight,0
;   useDiaphragm,0
;   diaphragmLayerInterval,20
;   robustSlicing,1
;   mergeAllIntoSolid,0
;   onlyRetractWhenCrossingOutline,1
;   retractBetweenLayers,1
;   useRetractionMinTravel,0
;   retractionMinTravel,3
;   useRetractionOozeRate,0
;   retractionOozeRate,100
;   onlyWipeOutlines,1
;   toolChangeRetractionDistance,12
;   toolChangeExtraRestartDistance,-0.5
;   toolChangeRetractionSpeed,600
;   allowThinWallGapFill,1
;   thinWallAllowedOverlapPercentage,10
G90
M82
M106 S0
M140 S58
M190 S58
M104 S245 T0
M109 S245 T0
G28 ; home all axes
G92 E0
G1 E-4 F3000
; layer 1, Z = 0.2
T0
; tool H0.2 W0.528
G1 X110.931 Y111.238 F10000
G1 Z0.2 F1000
G1 E0 F900
G92 E0
G1 X111.435 Y110.741 E0.0113 F2567
G1 X111.451 Y110.726 E0.0117
G1 X111.66 Y110.53 E0.0162
G1 X111.677 Y110.515 E0.0166
G1 X112.207 Y110.045 E0.0279
G1 X112.224 Y110.03 E0.0283
G1 X112.443 Y109.846 E0.0329
G1 X112.461 Y109.832 E0.0332
G1 X113.015 Y109.39 E0.0446
G1 X113.032 Y109.376 E0.0449
G1 X113.26 Y109.204 E0.0495
G1 X113.278 Y109.191 E0.0498
G1 X113.855 Y108.779 E0.0612
G1 X113.873 Y108.767 E0.0615
G1 X114.111 Y108.606 E0.0661
G1 X114.129 Y108.594 E0.0665
G1 X114.727 Y108.214 E0.0778
G1 X114.746 Y108.202 E0.0781
G1 X114.991 Y108.055 E0.0827
G1 X115.01 Y108.044 E0.0831
G1 X115.627 Y107.695 E0.0944
G1 X115.646 Y107.684 E0.0947
G1 X115.9 Y107.55 E0.0993
G1 X115.92 Y107.539 E0.0997
G1 X116.554 Y107.224 E0.111
G1 X116.574 Y107.215 E0.1114
G1 X116.832 Y107.094 E0.1159
G1 X116.852 Y107.085 E0.1163
G1 X117.503 Y106.804 E0.1276
G1 X117.523 Y106.795 E0.128
G1 X117.79 Y106.688 E0.1326
G1 X117.811 Y106.68 E0.1329
G1 X118.475 Y106.433 E0.1442
G1 X118.496 Y106.426 E0.1446
G1 X118.765 Y106.333 E0.1492
G1 X118.786 Y106.326 E0.1495
G1 X119.462 Y106.115 E0.1608
G1 X119.483 Y106.109 E0.1612
G1 X119.76 Y106.03 E0.1658
G1 X119.781 Y106.024 E0.1661
G1 X120.467 Y105.849 E0.1775
G1 X120.489 Y105.844 E0.1778
G1 X120.767 Y105.78 E0.1824
G1 X120.789 Y105.775 E0.1827
G1 X121.484 Y105.636 E0.1941
G1 X121.506 Y105.632 E0.1944
G1 X121.788 Y105.583 E0.199
G1 X121.81 Y105.58 E0.1993
G1 X122.511 Y105.478 E0.2107
G1 X122.533 Y105.475 E0.211
G1 X122.817 Y105.441 E0.2156
G1 X122.839 Y105.439 E0.216
G1 X123.544 Y105.374 E0.2273
G1 X123.567 Y105.372 E0.2276
G1 X123.853 Y105.353 E0.2322
G1 X123.875 Y105.352 E0.2326
G1 X124.584 Y105.324 E0.2439
G1 X124.606 Y105.323 E0.2443
G1 X124.892 Y105.32 E0.2488
G1 X124.914 Y105.32 E0.2492
G1 X125.622 Y105.329 E0.2605
G1 X125.644 Y105.33 E0.2609
G1 X125.929 Y105.341 E0.2654
G1 X125.951 Y105.343 E0.2658
G1 X126.658 Y105.39 E0.2771
G1 X126.68 Y105.391 E0.2775
G1 X126.966 Y105.418 E0.2821
G1 X126.988 Y105.42 E0.2824
G1 X127.692 Y105.505 E0.2937
G1 X127.714 Y105.508 E0.2941
G1 X127.997 Y105.549 E0.2987
G1 X128.018 Y105.552 E0.299
G1 X128.717 Y105.674 E0.3103
G1 X128.738 Y105.678 E0.3107
G1 X129.02 Y105.734 E0.3153
G1 X129.042 Y105.739 E0.3156
G1 X129.732 Y105.897 E0.327
G1 X129.754 Y105.902 E0.3273
G1 X130.031 Y105.973 E0.3319
G1 X130.052 Y105.979 E0.3323
G1 X130.733 Y106.173 E0.3436
G1 X130.754 Y106.18 E0.3439
G1 X131.027 Y106.265 E0.3485
G1 X131.048 Y106.272 E0.3488
G1 X131.718 Y106.502 E0.3602
G1 X131.739 Y106.509 E0.3605
G1 X132.008 Y106.61 E0.3651
G1 X132.029 Y106.618 E0.3655
G1 X132.686 Y106.883 E0.3768
G1 X132.707 Y106.891 E0.3772
G1 X132.969 Y107.005 E0.3817
G1 X132.989 Y107.014 E0.3821
G1 X133.631 Y107.313 E0.3934
G1 X133.651 Y107.323 E0.3938
G1 X133.907 Y107.451 E0.3983
G1 X133.927 Y107.461 E0.3987
G1 X134.552 Y107.793 E0.41
G1 X134.572 Y107.804 E0.4104
G1 X134.82 Y107.944 E0.4149
G1 X134.839 Y107.955 E0.4153
G1 X135.446 Y108.321 E0.4266
G1 X135.465 Y108.332 E0.427
G1 X135.708 Y108.487 E0.4316
G1 X135.726 Y108.499 E0.4319
G1 X136.313 Y108.897 E0.4433
G1 X136.332 Y108.909 E0.4436
G1 X136.564 Y109.075 E0.4482
G1 X136.582 Y109.088 E0.4485
G1 X137.147 Y109.515 E0.4599
G1 X137.164 Y109.529 E0.4602
G1 X137.388 Y109.708 E0.4648
G1 X137.405 Y109.722 E0.4651
G1 X137.947 Y110.178 E0.4765
G1 X137.964 Y110.193 E0.4768
G1 X138.178 Y110.383 E0.4814
G1 X138.194 Y110.398 E0.4818
G1 X138.711 Y110.882 E0.4931
G1 X138.727 Y110.897 E0.4934
G1 X138.931 Y111.098 E0.498
G1 X138.946 Y111.114 E0.4984
G1 X139.437 Y111.626 E0.5097
G1 X139.453 Y111.642 E0.5101
G1 X139.646 Y111.854 E0.5146
G1 X139.661 Y111.87 E0.515
G1 X140.124 Y112.407 E0.5263
G1 X140.138 Y112.424 E0.5267
G1 X140.319 Y112.645 E0.5312
G1 X140.333 Y112.662 E0.5316
G1 X140.767 Y113.222 E0.5429
G1 X140.78 Y113.24 E0.5433
G1 X140.95 Y113.47 E0.5479
G1 X140.962 Y113.488 E0.5482
G1 X141.367 Y114.071 E0.5595
G1 X141.379 Y114.089 E0.5599
G1 X141.536 Y114.329 E0.5645
G1 X141.548 Y114.347 E0.5648
G1 X141.921 Y114.95 E0.5762
G1 X141.932 Y114.969 E0.5765
G1 X142.076 Y115.215 E0.5811
G1 X142.086 Y115.234 E0.5814
G1 X142.427 Y115.855 E0.5927
G1 X142.437 Y115.875 E0.5931
G1 X142.568 Y116.129 E0.5977
G1 X142.578 Y116.149 E0.598
G1 X142.885 Y116.788 E0.6094
G1 X142.895 Y116.808 E0.6097
G1 X143.012 Y117.07 E0.6143
G1 X143.021 Y117.091 E0.6147
G1 X143.294 Y117.745 E0.626
G1 X143.303 Y117.765 E0.6264
G1 X143.406 Y118.032 E0.6309
G1 X143.413 Y118.053 E0.6313
G1 X143.651 Y118.72 E0.6426
G1 X143.659 Y118.741 E0.643
G1 X143.748 Y119.013 E0.6475
G1 X143.754 Y119.035 E0.6479
G1 X143.957 Y119.713 E0.6592
G1 X143.963 Y119.735 E0.6596
G1 X144.037 Y120.01 E0.6641
G1 X144.043 Y120.032 E0.6645
G1 X144.209 Y120.72 E0.6758
G1 X144.214 Y120.742 E0.6762
G1 X144.274 Y121.022 E0.6808
G1 X144.279 Y121.044 E0.6811
G1 X144.409 Y121.741 E0.6924
G1 X144.412 Y121.762 E0.6928
G1 X144.457 Y122.045 E0.6974
G1 X144.46 Y122.066 E0.6977
G1 X144.553 Y122.768 E0.709
G1 X144.556 Y122.79 E0.7094
G1 X144.586 Y123.074 E0.7139
G1 X144.588 Y123.096 E0.7143
G1 X144.644 Y123.803 E0.7256
G1 X144.645 Y123.825 E0.726
G1 X144.661 Y124.113 E0.7306
G1 X144.661 Y124.135 E0.731
G1 X144.68 Y124.843 E0.7423
G1 X144.68 Y124.865 E0.7426
G1 X144.68 Y125.15 E0.7472
G1 X144.68 Y125.172 E0.7475
G1 X144.661 Y125.881 E0.7589
G1 X144.66 Y125.903 E0.7592
G1 X144.644 Y126.191 E0.7638
G1 X144.643 Y126.213 E0.7642
G1 X144.586 Y126.92 E0.7755
G1 X144.584 Y126.942 E0.7759
G1 X144.554 Y127.225 E0.7804
G1 X144.552 Y127.247 E0.7808
G1 X144.458 Y127.948 E0.7921
G1 X144.455 Y127.97 E0.7925
G1 X144.41 Y128.253 E0.797
G1 X144.406 Y128.275 E0.7974
G1 X144.275 Y128.971 E0.8087
G1 X144.271 Y128.993 E0.8091
G1 X144.211 Y129.273 E0.8137
G1 X144.206 Y129.295 E0.814
G1 X144.039 Y129.983 E0.8253
G1 X144.033 Y130.005 E0.8257
G1 X143.959 Y130.28 E0.8302
G1 X143.953 Y130.302 E0.8306
G1 X143.75 Y130.98 E0.8419
G1 X143.743 Y131.001 E0.8423
G1 X143.654 Y131.274 E0.8469
G1 X143.646 Y131.295 E0.8472
G1 X143.408 Y131.962 E0.8586
G1 X143.4 Y131.983 E0.8589
G1 X143.297 Y132.249 E0.8635
G1 X143.289 Y132.269 E0.8638
G1 X143.015 Y132.923 E0.8752
G1 X143.006 Y132.944 E0.8755
G1 X142.888 Y133.206 E0.8801
G1 X142.879 Y133.226 E0.8805
G1 X142.571 Y133.865 E0.8918
G1 X142.561 Y133.885 E0.8922
G1 X142.43 Y134.139 E0.8967
G1 X142.42 Y134.158 E0.8971
G1 X142.079 Y134.779 E0.9084
G1 X142.068 Y134.798 E0.9087
G1 X141.924 Y135.045 E0.9133
G1 X141.913 Y135.064 E0.9137
G1 X141.54 Y135.666 E0.925
G1 X141.528 Y135.684 E0.9253
G1 X141.37 Y135.924 E0.9299
G1 X141.358 Y135.942 E0.9303
G1 X140.953 Y136.524 E0.9416
G1 X140.94 Y136.542 E0.942
G1 X140.771 Y136.773 E0.9465
G1 X140.757 Y136.791 E0.9469
G1 X140.323 Y137.35 E0.9582
G1 X140.309 Y137.367 E0.9586
G1 X140.128 Y137.588 E0.9631
G1 X140.114 Y137.605 E0.9635
G1 X139.65 Y138.141 E0.9748
G1 X139.635 Y138.158 E0.9752
G1 X139.442 Y138.37 E0.9798
G1 X139.427 Y138.386 E0.9801
G1 X138.935 Y138.897 E0.9915
G1 X138.92 Y138.913 E0.9918
G1 X138.716 Y139.114 E0.9964
G1 X138.7 Y139.129 E0.9967
G1 X138.183 Y139.613 E1.0081
G1 X138.166 Y139.628 E1.0084
G1 X137.952 Y139.818 E1.013
G1 X137.936 Y139.832 E1.0133
G1 X137.393 Y140.288 E1.0247
G1 X137.376 Y140.302 E1.025
G1 X137.152 Y140.48 E1.0296
G1 X137.135 Y140.494 E1.03
G1 X136.569 Y140.921 E1.0413
G1 X136.551 Y140.934 E1.0416
G1 X136.319 Y141.1 E1.0462
G1 X136.3 Y141.113 E1.0466
G1 X135.713 Y141.509 E1.0579
G1 X135.694 Y141.521 E1.0583
G1 X135.452 Y141.676 E1.0629
G1 X135.433 Y141.688 E1.0632
G1 X134.825 Y142.052 E1.0745
G1 X134.806 Y142.063 E1.0749
G1 X134.558 Y142.204 E1.0794
G1 X134.539 Y142.214 E1.0798
G1 X133.913 Y142.546 E1.0911
G1 X133.893 Y142.556 E1.0915
G1 X133.637 Y142.684 E1.0961
G1 X133.617 Y142.694 E1.0964
G1 X132.974 Y142.992 E1.1077
G1 X132.954 Y143.001 E1.1081
G1 X132.692 Y143.115 E1.1127
G1 X132.672 Y143.123 E1.113
G1 X132.014 Y143.388 E1.1243
G1 X131.994 Y143.396 E1.1247
G1 X131.724 Y143.496 E1.1293
G1 X131.703 Y143.504 E1.1296
G1 X131.033 Y143.733 E1.141
G1 X131.012 Y143.74 E1.1413
G1 X130.739 Y143.825 E1.1459
G1 X130.718 Y143.831 E1.1462
G1 X130.037 Y144.025 E1.1576
G1 X130.015 Y144.031 E1.1579
G1 X129.739 Y144.101 E1.1625
G1 X129.717 Y144.107 E1.1628
G1 X129.026 Y144.264 E1.1742
G1 X129.004 Y144.269 E1.1745
G1 X128.723 Y144.325 E1.1791
G1 X128.701 Y144.329 E1.1795
G1 X128.003 Y144.45 E1.1908
G1 X127.981 Y144.453 E1.1912
G1 X127.699 Y144.495 E1.1957
G1 X127.677 Y144.497 E1.1961
G1 X126.974 Y144.581 E1.2074
G1 X126.952 Y144.583 E1.2077
G1 X126.668 Y144.61 E1.2123
G1 X126.646 Y144.611 E1.2127
G1 X125.947 Y144.658 E1.2239
G1 X125.924 Y144.659 E1.2242
G1 X125.639 Y144.67 E1.2288
G1 X125.617 Y144.671 E1.2291
G1 X124.902 Y144.68 E1.2406
G1 X124.88 Y144.68 E1.2409
G1 X124.591 Y144.676 E1.2455
G1 X124.569 Y144.676 E1.2459
G1 X123.86 Y144.647 E1.2572
G1 X123.837 Y144.646 E1.2576
G1 X123.551 Y144.627 E1.2622
G1 X123.529 Y144.625 E1.2625
G1 X122.823 Y144.56 E1.2739
G1 X122.801 Y144.557 E1.2742
G1 X122.518 Y144.523 E1.2788
G1 X122.496 Y144.52 E1.2791
G1 X121.795 Y144.418 E1.2905
G1 X121.773 Y144.414 E1.2908
G1 X121.49 Y144.365 E1.2954
G1 X121.468 Y144.361 E1.2958
G1 X120.774 Y144.221 E1.3071
G1 X120.752 Y144.217 E1.3075
G1 X120.474 Y144.153 E1.312
G1 X120.452 Y144.148 E1.3124
G1 X119.766 Y143.972 E1.3237
G1 X119.744 Y143.966 E1.3241
G1 X119.469 Y143.887 E1.3286
G1 X119.447 Y143.881 E1.329
G1 X118.772 Y143.669 E1.3403
G1 X118.751 Y143.662 E1.3407
G1 X118.481 Y143.569 E1.3452
G1 X118.46 Y143.562 E1.3456
G1 X117.796 Y143.314 E1.3569
G1 X117.775 Y143.306 E1.3573
G1 X117.507 Y143.198 E1.3619
G1 X117.487 Y143.19 E1.3622
G1 X116.834 Y142.906 E1.3736
G1 X116.813 Y142.897 E1.374
G1 X116.555 Y142.776 E1.3785
G1 X116.535 Y142.767 E1.3789
G1 X115.9 Y142.45 E1.3902
G1 X115.88 Y142.44 E1.3906
G1 X115.626 Y142.304 E1.3952
G1 X115.606 Y142.294 E1.3956
G1 X114.989 Y141.944 E1.4069
G1 X114.97 Y141.933 E1.4073
G1 X114.725 Y141.785 E1.4118
G1 X114.706 Y141.773 E1.4122
G1 X114.108 Y141.391 E1.4235
G1 X114.089 Y141.379 E1.4239
G1 X113.851 Y141.218 E1.4285
G1 X113.833 Y141.205 E1.4288
G1 X113.257 Y140.793 E1.4402
G1 X113.239 Y140.78 E1.4405
G1 X113.013 Y140.608 E1.4451
G1 X112.995 Y140.595 E1.4454
G1 X112.445 Y140.155 E1.4567
G1 X112.428 Y140.141 E1.457
G1 X112.21 Y139.957 E1.4616
G1 X112.193 Y139.943 E1.4619
G1 X111.666 Y139.475 E1.4732
G1 X111.65 Y139.46 E1.4736
G1 X111.441 Y139.265 E1.4781
G1 X111.425 Y139.249 E1.4785
G1 X110.921 Y138.751 E1.4898
G1 X110.905 Y138.735 E1.4902
G1 X110.708 Y138.53 E1.4947
G1 X110.693 Y138.513 E1.4951
G1 X110.215 Y137.989 E1.5064
G1 X110.2 Y137.973 E1.5068
G1 X110.012 Y137.755 E1.5114
G1 X109.998 Y137.738 E1.5117
G1 X109.549 Y137.19 E1.5231
G1 X109.536 Y137.173 E1.5234
G1 X109.361 Y136.948 E1.5279
G1 X109.348 Y136.93 E1.5283
G1 X108.929 Y136.359 E1.5396
G1 X108.916 Y136.341 E1.54
G1 X108.751 Y136.104 E1.5446
G1 X108.739 Y136.086 E1.545
G1 X108.35 Y135.493 E1.5563
G1 X108.338 Y135.474 E1.5566
G1 X108.188 Y135.231 E1.5612
G1 X108.177 Y135.212 E1.5616
G1 X107.82 Y134.601 E1.5729
G1 X107.81 Y134.582 E1.5732
G1 X107.673 Y134.332 E1.5778
G1 X107.662 Y134.312 E1.5781
G1 X107.338 Y133.682 E1.5895
G1 X107.328 Y133.662 E1.5898
G1 X107.203 Y133.402 E1.5944
G1 X107.194 Y133.382 E1.5948
G1 X106.904 Y132.735 E1.6061
G1 X106.895 Y132.715 E1.6065
G1 X106.785 Y132.452 E1.611
G1 X106.777 Y132.431 E1.6114
G1 X106.521 Y131.771 E1.6227
G1 X106.513 Y131.75 E1.6231
G1 X106.417 Y131.479 E1.6277
G1 X106.409 Y131.458 E1.628
G1 X106.189 Y130.785 E1.6393
G1 X106.182 Y130.764 E1.6397
G1 X106.101 Y130.49 E1.6443
G1 X106.095 Y130.469 E1.6446
G1 X105.91 Y129.786 E1.6559
G1 X105.905 Y129.764 E1.6563
G1 X105.838 Y129.486 E1.6609
G1 X105.833 Y129.465 E1.6612
G1 X105.684 Y128.772 E1.6725
G1 X105.68 Y128.75 E1.6729
G1 X105.627 Y128.468 E1.6775
G1 X105.624 Y128.446 E1.6778
