; G-Code generated by Simplify3D(TM) Version 2.2.0
; Jan 3, 2015 at 8:08:49 PM
; Settings Summary
;   processName,Nylon
;   applyToModels,Motor_Coupler
;   profileLabel,Nylon_EXP.fff
;   printMaterial,Nylon
;   printQuality,High
;   extruderName,Extruder 1
;   extruderToolheadNumber,0
;   extruderDiameter,0.4
;   extruderAutoWidth,0
;   extruderWidth,0.48
;   extrusionMultiplier,1
;   extruderUseRetract,1
;   extruderRetractionDistance,4
;   extruderExtraRestartDistance,0
;   extruderRetractionZLift,0
;   extruderRetractionSpeed,3000
;   extruderUseCoasting,1
;   extruderCoastingDistance,0.4
;   extruderUseWipe,1
;   extruderWipeDistance,5
;   primaryExtruder,0
;   layerHeight,0.2
;   topSolidLayers,3
;   bottomSolidLayers,3
;   perimeterOutlines,2
;   printPerimetersInsideOut,1
;   startPointOption,2
;   startPointOriginX,0
;   startPointOriginY,0
;   startPointOriginZ,300
;   sequentialIslands,0
;   spiralVaseMode,0
;   firstLayerHeightPercentage,100
;   firstLayerWidthPercentage,110
;   firstLayerUnderspeed,0.5
;   useRaft,0
;   raftExtruder,0
;   raftLayers,3
;   raftOffset,3
;   raftSeparationDistance,0.14
;   raftInfill,85
;   disableRaftBaseLayers,0
;   useSkirt,1
;   skirtExtruder,0
;   skirtLayers,1
;   skirtOutlines,4
;   skirtOffset,10
;   infillExtruder,0
;   externalInfillPattern,Rectilinear
;   infillPercentage,20
;   outlineOverlapPercentage,15
;   infillExtrusionWidthPercentage,100
;   minInfillLength,5
;   infillLayerInterval,1
;   randomInfillStartPoint,0
;   infillAngles,45,-45
;   generateSupport,0
;   supportExtruder,0
;   supportInfill,40
;   supportExtraInflation,0
;   denseSupportLayers,0
;   denseSupportInfill,70
;   supportLayerInterval,1
;   supportHorizontalPartOffset,0.3
;   supportUpperSeparationLayers,1
;   supportLowerSeparationLayers,1
;   supportGridSpacing,4
;   maxOverhangAngle,45
;   supportAngles,0
;   temperatureName,Extruder 1 Temperature,Heated Bed
;   temperatureNumber,0,0
;   temperatureSetpointCount,1,1
;   temperatureSetpointLayers,1,1
;   temperatureSetpointTemperatures,245,58
;   temperatureStabilizeAtStartup,1,1
;   temperatureHeatedBed,0,1
;   temperatureRelayBetweenLayers,0,0
;   temperatureRelayBetweenLoops,0,0
;   fanLayers,1
;   fanSpeeds,0
;   blipFanToFullPower,0
;   adjustSpeedForCooling,1
;   minSpeedLayerTime,15
;   minCoolingSpeedSlowdown,20
;   increaseFanForCooling,0
;   minFanLayerTime,45
;   maxCoolingFanSpeed,100
;   increaseFanForBridging,0
;   bridgingFanSpeed,100
;   use5D,1
;   relativeEdistances,0
;   allowEaxisZeroing,1
;   independentExtruderAxes,0
;   includeM10123,0
;   stickySupport,1
;   detectArcs,0
;   arcReplaceG2G3,0
;   arcRadialCompensation,1
;   gcodeXoffset,0
;   gcodeYoffset,0
;   gcodeZoffset,0
;   overrideMachineDefinition,0
;   machineTypeOverride,0
;   strokeXoverride,250
;   strokeYoverride,250
;   strokeZoverride,250
;   originOffsetXoverride,0
;   originOffsetYoverride,0
;   originOffsetZoverride,0
;   homeXdirOverride,-1
;   homeYdirOverride,-1
;   homeZdirOverride,-1
;   flipXoverride,1
;   flipYoverride,-1
;   flipZoverride,1
;   startingGcode,G28 ; home all axes
;   layerChangeGcode,
;   toolChangeGcode,
;   endingGcode,M104 S0 ; turn off extruder,M140 S0 ; turn off bed,M84 ; disable motors,G28 ; home all axes
;   createX3G,0
;   celebration,0
;   celebrationSong,Random Song
;   createMB5G,0
;   postProcessing,
;   defaultSpeed,6000
;   outlineUnderspeed,0.25
;   solidInfillUnderspeed,0.7
;   supportUnderspeed,0.8
;   rapidXYspeed,10000
;   rapidZspeed,1000
;   minBridgingArea,50
;   bridgingExtrusionMultiplier,1
;   bridgingSpeedMultiplier,1
;   filamentDiameter,2.9
;   filamentPricePerKg,46
;   useMinPrintHeight,0
;   minPrintHeight,0
;   useMaxPrintHeight,0
;   maxPrintHeight,0
;   useDiaphragm,0
;   diaphragmLayerInterval,20
;   robustSlicing,1
;   mergeAllIntoSolid,0
;   onlyRetractWhenCrossingOutline,1
;   retractBetweenLayers,1
;   useRetractionMinTravel,0
;   retractionMinTravel,3
;   useRetractionOozeRate,0
;   retractionOozeRate,100
;   onlyWipeOutlines,1
;   toolChangeRetractionDistance,12
;   toolChangeExtraRestartDistance,-0.5
;   toolChangeRetractionSpeed,600
;   allowThinWallGapFill,1
;   thinWallAllowedOverlapPercentage,10
G90
M82
M106 S0
M140 S58
M190 S58
M104 S245 T0
M109 S245 T0
G28 ; home all axes
G92 E0
G1 E-4 F3000
; layer 1, Z = 0.2
T0
; tool H0.2 W0.528
G1 X111.063 Y111.105 F10000
G1 Z0.2 F1000
G1 E0 F900
G92 E0
G1 X111.572 Y110.612 E0.0113 F2477
G1 X111.589 Y110.597 E0.0117
G1 X111.8 Y110.402 E0.0163
G1 X111.817 Y110.388 E0.0166
G1 X112.351 Y109.923 E0.028
G1 X112.368 Y109.908 E0.0283
G1 X112.588 Y109.727 E0.0329
G1 X112.605 Y109.713 E0.0332
G1 X113.164 Y109.277 E0.0446
G1 X113.181 Y109.263 E0.0449
G1 X113.413 Y109.092 E0.0495
G1 X113.431 Y109.079 E0.0499
G1 X114.011 Y108.673 E0.0612
G1 X114.029 Y108.661 E0.0615
G1 X114.266 Y108.504 E0.0661
G1 X114.285 Y108.492 E0.0664
G1 X114.886 Y108.117 E0.0778
G1 X114.905 Y108.106 E0.0781
G1 X115.153 Y107.96 E0.0827
G1 X115.173 Y107.949 E0.0831
G1 X115.793 Y107.606 E0.0944
G1 X115.813 Y107.596 E0.0948
G1 X116.066 Y107.464 E0.0993
G1 X116.085 Y107.454 E0.0997
G1 X116.722 Y107.145 E0.111
G1 X116.743 Y107.135 E0.1114
G1 X117.004 Y107.017 E0.1159
G1 X117.024 Y107.008 E0.1163
G1 X117.677 Y106.733 E0.1276
G1 X117.698 Y106.724 E0.128
G1 X117.964 Y106.62 E0.1325
G1 X117.984 Y106.613 E0.1329
G1 X118.651 Y106.372 E0.1442
G1 X118.672 Y106.365 E0.1446
G1 X118.944 Y106.274 E0.1492
G1 X118.966 Y106.268 E0.1495
G1 X119.644 Y106.062 E0.1609
G1 X119.665 Y106.056 E0.1612
G1 X119.941 Y105.981 E0.1658
G1 X119.962 Y105.975 E0.1661
G1 X120.65 Y105.806 E0.1775
G1 X120.672 Y105.801 E0.1778
G1 X120.951 Y105.74 E0.1824
G1 X120.973 Y105.736 E0.1827
G1 X121.669 Y105.604 E0.1941
G1 X121.691 Y105.6 E0.1944
G1 X121.972 Y105.554 E0.199
G1 X121.994 Y105.551 E0.1993
G1 X122.696 Y105.455 E0.2107
G1 X122.719 Y105.452 E0.211
G1 X123.004 Y105.421 E0.2156
G1 X123.027 Y105.419 E0.216
G1 X123.733 Y105.36 E0.2273
G1 X123.755 Y105.359 E0.2277
G1 X124.04 Y105.343 E0.2322
G1 X124.062 Y105.342 E0.2326
G1 X124.77 Y105.321 E0.2439
G1 X124.792 Y105.321 E0.2443
G1 X125.079 Y105.32 E0.2488
G1 X125.101 Y105.32 E0.2492
G1 X125.809 Y105.336 E0.2605
G1 X125.831 Y105.337 E0.2609
G1 X126.116 Y105.351 E0.2654
G1 X126.138 Y105.353 E0.2658
G1 X126.844 Y105.406 E0.2771
G1 X126.867 Y105.408 E0.2775
G1 X127.153 Y105.438 E0.2821
G1 X127.175 Y105.44 E0.2824
G1 X127.879 Y105.531 E0.2938
G1 X127.9 Y105.534 E0.2941
G1 X128.182 Y105.579 E0.2987
G1 X128.204 Y105.582 E0.299
G1 X128.901 Y105.71 E0.3104
G1 X128.923 Y105.714 E0.3107
G1 X129.203 Y105.774 E0.3153
G1 X129.225 Y105.778 E0.3156
G1 X129.913 Y105.943 E0.327
G1 X129.935 Y105.948 E0.3273
G1 X130.211 Y106.022 E0.3319
G1 X130.232 Y106.028 E0.3322
G1 X130.911 Y106.228 E0.3436
G1 X130.933 Y106.235 E0.3439
G1 X131.206 Y106.323 E0.3485
G1 X131.227 Y106.331 E0.3489
G1 X131.895 Y106.567 E0.3602
G1 X131.916 Y106.575 E0.3606
G1 X132.184 Y106.677 E0.3651
G1 X132.204 Y106.686 E0.3655
G1 X132.858 Y106.957 E0.3768
G1 X132.879 Y106.965 E0.3772
G1 X133.139 Y107.081 E0.3817
G1 X133.159 Y107.091 E0.3821
G1 X133.799 Y107.396 E0.3934
G1 X133.819 Y107.406 E0.3938
G1 X134.075 Y107.537 E0.3984
G1 X134.094 Y107.547 E0.3987
G1 X134.717 Y107.886 E0.41
G1 X134.736 Y107.897 E0.4104
G1 X134.983 Y108.039 E0.415
G1 X135.002 Y108.051 E0.4153
G1 X135.605 Y108.422 E0.4266
G1 X135.624 Y108.434 E0.427
G1 X135.864 Y108.59 E0.4316
G1 X135.883 Y108.602 E0.4319
G1 X136.466 Y109.005 E0.4433
G1 X136.484 Y109.018 E0.4436
G1 X136.715 Y109.186 E0.4482
G1 X136.732 Y109.199 E0.4485
G1 X137.293 Y109.631 E0.4598
G1 X137.311 Y109.645 E0.4602
G1 X137.532 Y109.826 E0.4648
G1 X137.549 Y109.84 E0.4651
G1 X138.087 Y110.302 E0.4765
G1 X138.104 Y110.317 E0.4768
G1 X138.317 Y110.51 E0.4814
G1 X138.334 Y110.525 E0.4818
G1 X138.846 Y111.015 E0.4931
G1 X138.862 Y111.03 E0.4935
G1 X139.063 Y111.232 E0.498
G1 X139.078 Y111.248 E0.4984
G1 X139.564 Y111.764 E0.5097
G1 X139.579 Y111.78 E0.5101
G1 X139.77 Y111.994 E0.5146
G1 X139.785 Y112.01 E0.515
G1 X140.242 Y112.551 E0.5263
G1 X140.256 Y112.568 E0.5267
G1 X140.435 Y112.79 E0.5312
G1 X140.449 Y112.808 E0.5316
G1 X140.878 Y113.372 E0.5429
G1 X140.891 Y113.39 E0.5433
G1 X141.059 Y113.623 E0.5479
G1 X141.071 Y113.641 E0.5482
G1 X141.47 Y114.227 E0.5595
G1 X141.482 Y114.246 E0.5599
G1 X141.637 Y114.486 E0.5645
G1 X141.648 Y114.505 E0.5648
G1 X142.015 Y115.111 E0.5761
G1 X142.026 Y115.13 E0.5765
G1 X142.168 Y115.378 E0.5811
G1 X142.179 Y115.398 E0.5814
G1 X142.513 Y116.022 E0.5928
G1 X142.523 Y116.042 E0.5931
G1 X142.652 Y116.298 E0.5977
G1 X142.662 Y116.318 E0.598
G1 X142.963 Y116.959 E0.6094
G1 X142.972 Y116.979 E0.6097
G1 X143.087 Y117.241 E0.6143
G1 X143.095 Y117.262 E0.6147
G1 X143.362 Y117.919 E0.626
G1 X143.37 Y117.939 E0.6263
G1 X143.471 Y118.208 E0.6309
G1 X143.479 Y118.229 E0.6313
G1 X143.71 Y118.898 E0.6426
G1 X143.717 Y118.919 E0.643
G1 X143.804 Y119.191 E0.6475
G1 X143.81 Y119.212 E0.6479
G1 X144.006 Y119.893 E0.6592
G1 X144.012 Y119.914 E0.6596
G1 X144.084 Y120.192 E0.6641
G1 X144.089 Y120.213 E0.6645
G1 X144.249 Y120.904 E0.6758
G1 X144.254 Y120.926 E0.6762
G1 X144.312 Y121.208 E0.6808
G1 X144.316 Y121.23 E0.6812
G1 X144.44 Y121.933 E0.6926
G1 X144.443 Y121.955 E0.6929
G1 X144.486 Y122.24 E0.6975
G1 X144.489 Y122.262 E0.6979
G1 X144.575 Y122.969 E0.7093
G1 X144.577 Y122.991 E0.7096
G1 X144.604 Y123.274 E0.7142
G1 X144.606 Y123.296 E0.7145
G1 X144.655 Y124.001 E0.7258
G1 X144.656 Y124.023 E0.7262
G1 X144.668 Y124.311 E0.7308
G1 X144.669 Y124.333 E0.7311
G1 X144.68 Y125.043 E0.7425
G1 X144.68 Y125.065 E0.7428
G1 X144.677 Y125.348 E0.7473
G1 X144.677 Y125.37 E0.7477
G1 X144.651 Y126.074 E0.759
G1 X144.65 Y126.096 E0.7593
G1 X144.632 Y126.384 E0.7639
G1 X144.63 Y126.406 E0.7643
G1 X144.567 Y127.111 E0.7756
G1 X144.564 Y127.133 E0.776
G1 X144.532 Y127.414 E0.7805
G1 X144.529 Y127.436 E0.7808
G1 X144.429 Y128.134 E0.7921
G1 X144.426 Y128.156 E0.7925
G1 X144.378 Y128.439 E0.797
G1 X144.374 Y128.461 E0.7974
G1 X144.236 Y129.156 E0.8087
G1 X144.232 Y129.178 E0.8091
G1 X144.169 Y129.456 E0.8137
G1 X144.164 Y129.478 E0.814
G1 X143.991 Y130.164 E0.8253
G1 X143.985 Y130.186 E0.8257
G1 X143.907 Y130.462 E0.8303
G1 X143.901 Y130.483 E0.8306
G1 X143.691 Y131.16 E0.842
G1 X143.685 Y131.181 E0.8423
G1 X143.593 Y131.452 E0.8469
G1 X143.585 Y131.473 E0.8472
G1 X143.34 Y132.137 E0.8586
G1 X143.332 Y132.158 E0.8589
G1 X143.227 Y132.424 E0.8635
G1 X143.218 Y132.444 E0.8638
G1 X142.938 Y133.095 E0.8752
G1 X142.929 Y133.115 E0.8755
G1 X142.809 Y133.376 E0.8801
G1 X142.8 Y133.396 E0.8805
G1 X142.486 Y134.031 E0.8918
G1 X142.476 Y134.051 E0.8921
G1 X142.342 Y134.304 E0.8967
G1 X142.332 Y134.323 E0.8971
G1 X141.985 Y134.941 E0.9084
G1 X141.974 Y134.96 E0.9088
G1 X141.827 Y135.207 E0.9133
G1 X141.815 Y135.226 E0.9137
G1 X141.436 Y135.824 E0.925
G1 X141.424 Y135.843 E0.9254
G1 X141.266 Y136.079 E0.9299
G1 X141.253 Y136.097 E0.9303
G1 X140.844 Y136.675 E0.9416
G1 X140.83 Y136.693 E0.9419
G1 X140.658 Y136.923 E0.9465
G1 X140.644 Y136.94 E0.9469
G1 X140.204 Y137.496 E0.9582
G1 X140.19 Y137.514 E0.9586
G1 X140.006 Y137.733 E0.9632
G1 X139.992 Y137.75 E0.9635
G1 X139.523 Y138.281 E0.9749
G1 X139.508 Y138.298 E0.9752
G1 X139.314 Y138.506 E0.9798
G1 X139.299 Y138.522 E0.9801
G1 X138.803 Y139.028 E0.9914
G1 X138.787 Y139.044 E0.9918
G1 X138.581 Y139.243 E0.9964
G1 X138.565 Y139.258 E0.9967
G1 X138.043 Y139.738 E1.0081
G1 X138.026 Y139.752 E1.0084
G1 X137.81 Y139.941 E1.013
G1 X137.793 Y139.955 E1.0134
G1 X137.246 Y140.406 E1.0247
G1 X137.229 Y140.42 E1.025
G1 X137.003 Y140.596 E1.0296
G1 X136.986 Y140.609 E1.03
G1 X136.417 Y141.03 E1.0413
G1 X136.399 Y141.043 E1.0416
G1 X136.165 Y141.207 E1.0462
G1 X136.147 Y141.219 E1.0466
G1 X135.556 Y141.61 E1.0579
G1 X135.537 Y141.622 E1.0582
G1 X135.293 Y141.774 E1.0628
G1 X135.274 Y141.786 E1.0632
G1 X134.663 Y142.145 E1.0745
G1 X134.644 Y142.156 E1.0749
G1 X134.394 Y142.294 E1.0794
G1 X134.374 Y142.304 E1.0798
G1 X133.745 Y142.63 E1.0911
G1 X133.726 Y142.64 E1.0915
G1 X133.467 Y142.766 E1.0961
G1 X133.447 Y142.775 E1.0964
G1 X132.802 Y143.068 E1.1078
G1 X132.782 Y143.077 E1.1081
G1 X132.519 Y143.187 E1.1127
G1 X132.499 Y143.196 E1.113
G1 X131.839 Y143.454 E1.1243
G1 X131.818 Y143.462 E1.1247
G1 X131.548 Y143.559 E1.1293
G1 X131.527 Y143.566 E1.1296
G1 X130.855 Y143.789 E1.141
G1 X130.833 Y143.796 E1.1413
G1 X130.56 Y143.879 E1.1459
G1 X130.538 Y143.885 E1.1463
G1 X129.855 Y144.072 E1.1576
G1 X129.834 Y144.078 E1.1579
G1 X129.556 Y144.146 E1.1625
G1 X129.535 Y144.151 E1.1628
G1 X128.842 Y144.302 E1.1742
G1 X128.82 Y144.306 E1.1745
G1 X128.538 Y144.36 E1.1791
G1 X128.516 Y144.364 E1.1795
G1 X127.817 Y144.478 E1.1908
G1 X127.795 Y144.481 E1.1912
G1 X127.513 Y144.519 E1.1957
G1 X127.491 Y144.522 E1.1961
G1 X126.786 Y144.599 E1.2074
G1 X126.764 Y144.601 E1.2078
G1 X126.478 Y144.625 E1.2123
G1 X126.456 Y144.626 E1.2127
G1 X125.749 Y144.666 E1.224
G1 X125.727 Y144.667 E1.2244
G1 X125.442 Y144.675 E1.2289
G1 X125.42 Y144.676 E1.2293
G1 X124.711 Y144.678 E1.2406
G1 X124.689 Y144.678 E1.241
G1 X124.401 Y144.671 E1.2456
G1 X124.379 Y144.671 E1.2459
G1 X123.67 Y144.635 E1.2573
G1 X123.648 Y144.634 E1.2576
G1 X123.363 Y144.612 E1.2622
G1 X123.341 Y144.61 E1.2626
G1 X122.637 Y144.538 E1.2739
G1 X122.615 Y144.535 E1.2742
G1 X122.331 Y144.499 E1.2788
G1 X122.309 Y144.495 E1.2792
G1 X121.609 Y144.386 E1.2905
G1 X121.588 Y144.382 E1.2908
G1 X121.306 Y144.331 E1.2954
G1 X121.285 Y144.326 E1.2958
G1 X120.592 Y144.18 E1.3071
G1 X120.57 Y144.175 E1.3074
G1 X120.292 Y144.109 E1.312
G1 X120.271 Y144.104 E1.3124
G1 X119.586 Y143.921 E1.3237
G1 X119.564 Y143.915 E1.324
G1 X119.289 Y143.834 E1.3286
G1 X119.268 Y143.827 E1.329
G1 X118.594 Y143.608 E1.3403
G1 X118.573 Y143.601 E1.3407
G1 X118.304 Y143.506 E1.3452
G1 X118.283 Y143.499 E1.3456
G1 X117.622 Y143.245 E1.3569
G1 X117.601 Y143.237 E1.3573
G1 X117.335 Y143.126 E1.3619
G1 X117.314 Y143.118 E1.3622
G1 X116.667 Y142.829 E1.3736
G1 X116.647 Y142.82 E1.3739
G1 X116.39 Y142.697 E1.3785
G1 X116.371 Y142.688 E1.3788
G1 X115.74 Y142.366 E1.3901
G1 X115.721 Y142.356 E1.3905
G1 X115.469 Y142.219 E1.3951
G1 X115.45 Y142.208 E1.3954
G1 X114.836 Y141.853 E1.4068
G1 X114.817 Y141.841 E1.4071
G1 X114.572 Y141.691 E1.4117
G1 X114.553 Y141.679 E1.4121
G1 X113.959 Y141.292 E1.4234
G1 X113.941 Y141.279 E1.4238
G1 X113.706 Y141.117 E1.4283
G1 X113.688 Y141.104 E1.4287
G1 X113.116 Y140.687 E1.44
G1 X113.098 Y140.674 E1.4403
G1 X112.871 Y140.499 E1.4449
G1 X112.854 Y140.485 E1.4453
G1 X112.305 Y140.038 E1.4566
G1 X112.288 Y140.024 E1.4569
G1 X112.072 Y139.839 E1.4615
G1 X112.055 Y139.824 E1.4619
G1 X111.529 Y139.348 E1.4732
G1 X111.513 Y139.333 E1.4735
G1 X111.304 Y139.133 E1.4782
G1 X111.288 Y139.118 E1.4785
G1 X110.789 Y138.615 E1.4899
G1 X110.774 Y138.599 E1.4902
G1 X110.579 Y138.392 E1.4947
G1 X110.564 Y138.376 E1.4951
G1 X110.092 Y137.848 E1.5064
G1 X110.077 Y137.831 E1.5068
G1 X109.892 Y137.612 E1.5114
G1 X109.878 Y137.595 E1.5117
G1 X109.435 Y137.043 E1.523
G1 X109.421 Y137.026 E1.5234
G1 X109.249 Y136.799 E1.5279
G1 X109.236 Y136.782 E1.5283
G1 X108.826 Y136.213 E1.5395
G1 X108.813 Y136.195 E1.5398
G1 X108.653 Y135.958 E1.5444
G1 X108.64 Y135.94 E1.5448
G1 X108.254 Y135.338 E1.5562
G1 X108.242 Y135.319 E1.5566
G1 X108.092 Y135.073 E1.5612
G1 X108.081 Y135.053 E1.5615
G1 X107.73 Y134.437 E1.5729
G1 X107.719 Y134.417 E1.5732
G1 X107.583 Y134.164 E1.5778
G1 X107.573 Y134.145 E1.5782
G1 X107.255 Y133.511 E1.5895
G1 X107.246 Y133.492 E1.5899
G1 X107.125 Y133.233 E1.5944
G1 X107.115 Y133.213 E1.5948
G1 X106.831 Y132.564 E1.6061
G1 X106.823 Y132.544 E1.6064
G1 X106.715 Y132.278 E1.611
G1 X106.706 Y132.257 E1.6114
G1 X106.457 Y131.593 E1.6227
G1 X106.449 Y131.572 E1.6231
G1 X106.356 Y131.302 E1.6277
G1 X106.349 Y131.281 E1.628
G1 X106.135 Y130.605 E1.6394
G1 X106.128 Y130.584 E1.6397
G1 X106.049 Y130.309 E1.6443
G1 X106.043 Y130.288 E1.6446
G1 X105.865 Y129.603 E1.6559
G1 X105.86 Y129.581 E1.6563
G1 X105.796 Y129.303 E1.6609
G1 X105.791 Y129.281 E1.6612
G1 X105.649 Y128.587 E1.6725
G1 X105.645 Y128.565 E1.6729
G1 X105.595 Y128.284 E1.6775
