; G-Code generated by Simplify3D(TM) Version 2.2.0
; Dec 28, 2014 at 9:13:40 PM
; Settings Summary
;   processName,PLA
;   applyToModels,Motor_Coupler
;   profileLabel,-- Select Printer Profile --
;   printMaterial,PLA
;   printQuality,High
;   extruderName,Extruder 1
;   extruderToolheadNumber,0
;   extruderDiameter,0.4
;   extruderAutoWidth,1
;   extruderWidth,0.48
;   extrusionMultiplier,1
;   extruderUseRetract,1
;   extruderRetractionDistance,1
;   extruderExtraRestartDistance,0
;   extruderRetractionZLift,0
;   extruderRetractionSpeed,1800
;   extruderUseCoasting,0
;   extruderCoastingDistance,0.2
;   extruderUseWipe,0
;   extruderWipeDistance,5
;   primaryExtruder,0
;   layerHeight,0.1
;   topSolidLayers,4
;   bottomSolidLayers,4
;   perimeterOutlines,3
;   printPerimetersInsideOut,1
;   startPointOption,2
;   startPointOriginX,0
;   startPointOriginY,0
;   startPointOriginZ,300
;   sequentialIslands,0
;   spiralVaseMode,0
;   firstLayerHeightPercentage,90
;   firstLayerWidthPercentage,100
;   firstLayerUnderspeed,0.5
;   useRaft,0
;   raftExtruder,0
;   raftLayers,3
;   raftOffset,3
;   raftSeparationDistance,0.14
;   raftInfill,85
;   disableRaftBaseLayers,0
;   useSkirt,1
;   skirtExtruder,0
;   skirtLayers,2
;   skirtOutlines,4
;   skirtOffset,8
;   infillExtruder,0
;   externalInfillPattern,Rectilinear
;   infillPercentage,40
;   outlineOverlapPercentage,15
;   infillExtrusionWidthPercentage,100
;   minInfillLength,5
;   infillLayerInterval,1
;   randomInfillStartPoint,0
;   infillAngles,45,-45
;   generateSupport,1
;   supportExtruder,0
;   supportInfill,40
;   supportExtraInflation,0
;   denseSupportLayers,0
;   denseSupportInfill,70
;   supportLayerInterval,1
;   supportHorizontalPartOffset,0.3
;   supportUpperSeparationLayers,1
;   supportLowerSeparationLayers,1
;   supportGridSpacing,3
;   maxOverhangAngle,45
;   supportAngles,0
;   temperatureName,Extruder 1 Temperature,Heated Bed
;   temperatureNumber,0,0
;   temperatureSetpointCount,1,1
;   temperatureSetpointLayers,1,1
;   temperatureSetpointTemperatures,195,60
;   temperatureStabilizeAtStartup,1,1
;   temperatureHeatedBed,0,1
;   temperatureRelayBetweenLayers,0,0
;   temperatureRelayBetweenLoops,0,0
;   fanLayers,1,2
;   fanSpeeds,0,100
;   blipFanToFullPower,0
;   adjustSpeedForCooling,1
;   minSpeedLayerTime,15
;   minCoolingSpeedSlowdown,20
;   increaseFanForCooling,0
;   minFanLayerTime,45
;   maxCoolingFanSpeed,100
;   increaseFanForBridging,0
;   bridgingFanSpeed,100
;   use5D,1
;   relativeEdistances,0
;   allowEaxisZeroing,1
;   independentExtruderAxes,0
;   includeM10123,0
;   stickySupport,1
;   detectArcs,0
;   arcReplaceG2G3,0
;   arcRadialCompensation,1
;   gcodeXoffset,0
;   gcodeYoffset,0
;   gcodeZoffset,0
;   overrideMachineDefinition,0
;   machineTypeOverride,0
;   strokeXoverride,250
;   strokeYoverride,250
;   strokeZoverride,250
;   originOffsetXoverride,0
;   originOffsetYoverride,0
;   originOffsetZoverride,0
;   homeXdirOverride,-1
;   homeYdirOverride,-1
;   homeZdirOverride,-1
;   flipXoverride,1
;   flipYoverride,-1
;   flipZoverride,1
;   startingGcode,G28 ; home all axes
;   layerChangeGcode,
;   toolChangeGcode,
;   endingGcode,M104 S0 ; turn off extruder,M140 S0 ; turn off bed,M84 ; disable motors,G28 ; home all axes
;   createX3G,0
;   celebration,0
;   celebrationSong,Random Song
;   createMB5G,0
;   postProcessing,
;   defaultSpeed,6000
;   outlineUnderspeed,0.5
;   solidInfillUnderspeed,0.8
;   supportUnderspeed,0.8
;   rapidXYspeed,10000
;   rapidZspeed,1000
;   minBridgingArea,50
;   bridgingExtrusionMultiplier,1
;   bridgingSpeedMultiplier,1
;   filamentDiameter,3
;   filamentPricePerKg,46
;   useMinPrintHeight,0
;   minPrintHeight,0
;   useMaxPrintHeight,0
;   maxPrintHeight,0
;   useDiaphragm,0
;   diaphragmLayerInterval,20
;   robustSlicing,1
;   mergeAllIntoSolid,0
;   onlyRetractWhenCrossingOutline,1
;   retractBetweenLayers,1
;   useRetractionMinTravel,0
;   retractionMinTravel,3
;   useRetractionOozeRate,0
;   retractionOozeRate,100
;   onlyWipeOutlines,1
;   toolChangeRetractionDistance,12
;   toolChangeExtraRestartDistance,-0.5
;   toolChangeRetractionSpeed,600
;   allowThinWallGapFill,1
;   thinWallAllowedOverlapPercentage,10
G90
M82
M106 S0
M140 S60
M190 S60
M104 S195 T0
M109 S195 T0
G28 ; home all axes
G92 E0
G1 E-1 F1800
; layer 1, Z = 0.09
T0
; tool H0.1 W0.48
G1 X110.755 Y111.422 F10000
G1 Z0.09 F1000
G1 E0 F540
G92 E0
G1 X110.769 Y111.408 E0.0001 F3000
G1 X111.248 Y110.923 E0.0048
G1 X111.262 Y110.909 E0.0049
G1 X111.412 Y110.764 E0.0063
G1 X111.427 Y110.751 E0.0064
G1 X111.928 Y110.29 E0.0111
G1 X111.943 Y110.276 E0.0112
G1 X112.1 Y110.139 E0.0126
G1 X112.115 Y110.126 E0.0128
G1 X112.638 Y109.688 E0.0174
G1 X112.654 Y109.675 E0.0175
G1 X112.818 Y109.544 E0.019
G1 X112.834 Y109.532 E0.0191
G1 X113.381 Y109.117 E0.0238
G1 X113.396 Y109.106 E0.0239
G1 X113.564 Y108.984 E0.0253
G1 X113.58 Y108.973 E0.0254
G1 X114.137 Y108.59 E0.03
G1 X114.154 Y108.579 E0.0301
G1 X114.328 Y108.465 E0.0316
G1 X114.345 Y108.455 E0.0317
G1 X114.924 Y108.096 E0.0363
G1 X114.941 Y108.085 E0.0365
G1 X115.121 Y107.98 E0.0379
G1 X115.138 Y107.97 E0.038
G1 X115.734 Y107.639 E0.0426
G1 X115.751 Y107.629 E0.0428
G1 X115.936 Y107.532 E0.0442
G1 X115.954 Y107.523 E0.0443
G1 X116.564 Y107.22 E0.049
G1 X116.582 Y107.212 E0.0491
G1 X116.771 Y107.123 E0.0505
G1 X116.789 Y107.115 E0.0506
G1 X117.413 Y106.842 E0.0553
G1 X117.431 Y106.834 E0.0554
G1 X117.624 Y106.755 E0.0568
G1 X117.643 Y106.747 E0.057
G1 X118.279 Y106.504 E0.0616
G1 X118.297 Y106.497 E0.0617
G1 X118.494 Y106.427 E0.0631
G1 X118.513 Y106.42 E0.0633
G1 X119.16 Y106.207 E0.0679
G1 X119.179 Y106.201 E0.068
G1 X119.379 Y106.14 E0.0694
G1 X119.398 Y106.135 E0.0696
G1 X120.054 Y105.952 E0.0742
G1 X120.073 Y105.947 E0.0743
G1 X120.276 Y105.896 E0.0758
G1 X120.295 Y105.891 E0.0759
G1 X120.959 Y105.74 E0.0805
G1 X120.978 Y105.735 E0.0807
G1 X121.183 Y105.694 E0.0821
G1 X121.203 Y105.69 E0.0822
G1 X121.873 Y105.57 E0.0868
G1 X121.893 Y105.567 E0.087
G1 X122.099 Y105.535 E0.0884
G1 X122.119 Y105.532 E0.0885
G1 X122.794 Y105.444 E0.0931
G1 X122.814 Y105.442 E0.0933
G1 X123.021 Y105.42 E0.0947
G1 X123.041 Y105.418 E0.0948
G1 X123.72 Y105.362 E0.0995
G1 X123.74 Y105.36 E0.0996
G1 X123.948 Y105.348 E0.101
G1 X123.968 Y105.347 E0.1011
G1 X124.648 Y105.323 E0.1058
G1 X124.667 Y105.323 E0.1059
G1 X124.873 Y105.32 E0.1073
G1 X124.892 Y105.32 E0.1074
G1 X125.001 Y105.321 E0.1082
G1 X125.004 Y105.321 E0.1082
G1 X125.005 Y105.321 E0.1082
G1 X125.579 Y105.328 E0.1121
G1 X125.598 Y105.329 E0.1122
G1 X125.807 Y105.336 E0.1136
G1 X125.827 Y105.337 E0.1138
G1 X126.507 Y105.378 E0.1184
G1 X126.527 Y105.379 E0.1185
G1 X126.735 Y105.396 E0.12
G1 X126.754 Y105.398 E0.1201
G1 X127.432 Y105.471 E0.1247
G1 X127.451 Y105.473 E0.1248
G1 X127.659 Y105.5 E0.1263
G1 X127.678 Y105.503 E0.1264
G1 X128.351 Y105.607 E0.131
G1 X128.371 Y105.61 E0.1312
G1 X128.576 Y105.647 E0.1326
G1 X128.596 Y105.651 E0.1327
G1 X129.263 Y105.787 E0.1373
G1 X129.283 Y105.791 E0.1375
G1 X129.486 Y105.838 E0.1389
G1 X129.506 Y105.842 E0.139
G1 X130.166 Y106.01 E0.1437
G1 X130.185 Y106.015 E0.1438
G1 X130.386 Y106.071 E0.1452
G1 X130.405 Y106.076 E0.1453
G1 X131.057 Y106.275 E0.15
G1 X131.076 Y106.281 E0.1501
G1 X131.274 Y106.346 E0.1515
G1 X131.293 Y106.353 E0.1517
G1 X131.935 Y106.582 E0.1563
G1 X131.953 Y106.589 E0.1564
G1 X132.148 Y106.663 E0.1578
G1 X132.167 Y106.671 E0.158
G1 X132.797 Y106.93 E0.1626
G1 X132.815 Y106.937 E0.1627
G1 X133.006 Y107.021 E0.1641
G1 X133.024 Y107.029 E0.1643
G1 X133.641 Y107.318 E0.1689
G1 X133.659 Y107.327 E0.169
G1 X133.846 Y107.419 E0.1705
G1 X133.864 Y107.428 E0.1706
G1 X134.467 Y107.746 E0.1752
G1 X134.484 Y107.755 E0.1754
G1 X134.667 Y107.857 E0.1768
G1 X134.684 Y107.867 E0.1769
G1 X135.271 Y108.212 E0.1815
G1 X135.288 Y108.222 E0.1817
G1 X135.465 Y108.332 E0.1831
G1 X135.482 Y108.343 E0.1832
G1 X136.052 Y108.716 E0.1878
G1 X136.069 Y108.727 E0.188
G1 X136.241 Y108.845 E0.1894
G1 X136.257 Y108.856 E0.1895
G1 X136.809 Y109.256 E0.1942
G1 X136.825 Y109.268 E0.1943
G1 X136.991 Y109.394 E0.1957
G1 X137.007 Y109.406 E0.1958
G1 X137.539 Y109.831 E0.2005
G1 X137.555 Y109.843 E0.2006
G1 X137.715 Y109.977 E0.202
G1 X137.73 Y109.99 E0.2022
G1 X138.242 Y110.44 E0.2068
G1 X138.256 Y110.453 E0.2069
G1 X138.41 Y110.595 E0.2083
G1 X138.425 Y110.608 E0.2085
G1 X138.915 Y111.081 E0.2131
G1 X138.929 Y111.095 E0.2132
G1 X139.076 Y111.244 E0.2146
G1 X139.089 Y111.258 E0.2148
G1 X139.556 Y111.754 E0.2194
G1 X139.57 Y111.769 E0.2195
G1 X139.709 Y111.924 E0.221
G1 X139.723 Y111.939 E0.2211
G1 X140.166 Y112.456 E0.2257
G1 X140.178 Y112.471 E0.2259
G1 X140.31 Y112.633 E0.2273
G1 X140.323 Y112.648 E0.2274
G1 X140.741 Y113.186 E0.232
G1 X140.753 Y113.202 E0.2322
G1 X140.877 Y113.37 E0.2336
G1 X140.889 Y113.386 E0.2337
G1 X141.282 Y113.943 E0.2383
G1 X141.293 Y113.959 E0.2385
G1 X141.409 Y114.133 E0.2399
G1 X141.42 Y114.149 E0.24
G1 X141.786 Y114.724 E0.2447
G1 X141.796 Y114.741 E0.2448
G1 X141.904 Y114.919 E0.2462
G1 X141.914 Y114.936 E0.2463
G1 X142.252 Y115.528 E0.251
G1 X142.262 Y115.545 E0.2511
G1 X142.361 Y115.729 E0.2525
G1 X142.37 Y115.746 E0.2527
G1 X142.681 Y116.354 E0.2573
G1 X142.689 Y116.372 E0.2574
G1 X142.781 Y116.562 E0.2589
G1 X142.789 Y116.58 E0.259
G1 X143.072 Y117.205 E0.2637
G1 X143.08 Y117.223 E0.2638
G1 X143.16 Y117.413 E0.2652
G1 X143.168 Y117.432 E0.2653
G1 X143.417 Y118.059 E0.2699
G1 X143.424 Y118.078 E0.27
G1 X143.496 Y118.273 E0.2715
G1 X143.503 Y118.291 E0.2716
G1 X143.723 Y118.933 E0.2762
G1 X143.729 Y118.952 E0.2763
G1 X143.793 Y119.152 E0.2778
G1 X143.799 Y119.171 E0.2779
G1 X143.99 Y119.828 E0.2825
G1 X143.995 Y119.847 E0.2827
G1 X144.049 Y120.049 E0.2841
G1 X144.053 Y120.068 E0.2842
G1 X144.213 Y120.73 E0.2889
G1 X144.217 Y120.75 E0.289
G1 X144.261 Y120.954 E0.2904
G1 X144.265 Y120.974 E0.2905
G1 X144.393 Y121.643 E0.2952
G1 X144.396 Y121.662 E0.2953
G1 X144.431 Y121.868 E0.2967
G1 X144.434 Y121.887 E0.2969
G1 X144.53 Y122.562 E0.3015
G1 X144.532 Y122.581 E0.3016
G1 X144.557 Y122.789 E0.303
G1 X144.559 Y122.809 E0.3032
G1 X144.623 Y123.487 E0.3078
G1 X144.625 Y123.507 E0.3079
G1 X144.64 Y123.715 E0.3093
G1 X144.641 Y123.734 E0.3095
G1 X144.673 Y124.415 E0.3141
G1 X144.674 Y124.435 E0.3142
G1 X144.678 Y124.644 E0.3157
G1 X144.679 Y124.663 E0.3158
G1 X144.678 Y125.345 E0.3204
G1 X144.678 Y125.365 E0.3206
G1 X144.673 Y125.574 E0.322
G1 X144.673 Y125.594 E0.3221
G1 X144.64 Y126.274 E0.3267
G1 X144.639 Y126.294 E0.3269
G1 X144.624 Y126.502 E0.3283
G1 X144.623 Y126.521 E0.3284
G1 X144.558 Y127.199 E0.333
G1 X144.556 Y127.219 E0.3332
G1 X144.531 Y127.427 E0.3346
G1 X144.529 Y127.446 E0.3347
G1 X144.432 Y128.121 E0.3394
G1 X144.429 Y128.141 E0.3395
G1 X144.395 Y128.346 E0.3409
G1 X144.392 Y128.366 E0.341
G1 X144.263 Y129.035 E0.3457
G1 X144.259 Y129.054 E0.3458
G1 X144.215 Y129.258 E0.3472
G1 X144.211 Y129.278 E0.3474
G1 X144.051 Y129.94 E0.352
G1 X144.047 Y129.959 E0.3521
G1 X143.993 Y130.161 E0.3535
G1 X143.987 Y130.18 E0.3537
G1 X143.797 Y130.834 E0.3583
G1 X143.791 Y130.853 E0.3584
G1 X143.728 Y131.052 E0.3599
G1 X143.722 Y131.071 E0.36
G1 X143.5 Y131.715 E0.3646
G1 X143.494 Y131.734 E0.3647
G1 X143.421 Y131.929 E0.3662
G1 X143.414 Y131.948 E0.3663
G1 X143.163 Y132.581 E0.3709
G1 X143.155 Y132.599 E0.3711
G1 X143.073 Y132.792 E0.3725
G1 X143.065 Y132.81 E0.3726
G1 X142.784 Y133.431 E0.3772
G1 X142.776 Y133.449 E0.3774
G1 X142.685 Y133.637 E0.3788
G1 X142.676 Y133.654 E0.3789
G1 X142.366 Y134.261 E0.3836
G1 X142.357 Y134.279 E0.3837
G1 X142.258 Y134.462 E0.3851
G1 X142.248 Y134.48 E0.3852
G1 X141.91 Y135.071 E0.3899
G1 X141.899 Y135.088 E0.39
G1 X141.792 Y135.266 E0.3914
G1 X141.781 Y135.283 E0.3916
G1 X141.415 Y135.858 E0.3962
G1 X141.405 Y135.874 E0.3963
G1 X141.288 Y136.048 E0.3977
G1 X141.277 Y136.064 E0.3979
G1 X140.884 Y136.621 E0.4025
G1 X140.873 Y136.637 E0.4026
G1 X140.748 Y136.805 E0.404
G1 X140.736 Y136.821 E0.4042
G1 X140.317 Y137.358 E0.4088
G1 X140.305 Y137.374 E0.4089
G1 X140.173 Y137.535 E0.4104
G1 X140.16 Y137.55 E0.4105
G1 X139.717 Y138.067 E0.4151
G1 X139.704 Y138.082 E0.4153
G1 X139.564 Y138.238 E0.4167
G1 X139.551 Y138.252 E0.4168
G1 X139.083 Y138.748 E0.4214
G1 X139.07 Y138.762 E0.4216
G1 X138.923 Y138.911 E0.423
G1 X138.909 Y138.925 E0.4231
G1 X138.418 Y139.398 E0.4277
G1 X138.404 Y139.411 E0.4279
G1 X138.25 Y139.553 E0.4293
G1 X138.236 Y139.566 E0.4294
G1 X137.724 Y140.015 E0.4341
G1 X137.708 Y140.028 E0.4342
G1 X137.548 Y140.162 E0.4356
G1 X137.533 Y140.175 E0.4357
G1 X137 Y140.599 E0.4404
G1 X136.985 Y140.611 E0.4405
G1 X136.818 Y140.738 E0.4419
G1 X136.802 Y140.749 E0.4421
G1 X136.25 Y141.148 E0.4467
G1 X136.234 Y141.16 E0.4468
G1 X136.062 Y141.278 E0.4482
G1 X136.045 Y141.289 E0.4484
G1 X135.475 Y141.662 E0.453
G1 X135.458 Y141.672 E0.4531
G1 X135.281 Y141.782 E0.4546
G1 X135.264 Y141.792 E0.4547
G1 X134.677 Y142.138 E0.4593
G1 X134.659 Y142.147 E0.4594
G1 X134.477 Y142.249 E0.4609
G1 X134.46 Y142.258 E0.461
G1 X133.857 Y142.575 E0.4656
G1 X133.839 Y142.584 E0.4658
G1 X133.652 Y142.677 E0.4672
G1 X133.634 Y142.686 E0.4673
G1 X133.016 Y142.974 E0.4719
G1 X132.998 Y142.982 E0.4721
G1 X132.807 Y143.066 E0.4735
G1 X132.789 Y143.074 E0.4736
G1 X132.159 Y143.332 E0.4782
G1 X132.14 Y143.34 E0.4784
G1 X131.945 Y143.414 E0.4798
G1 X131.927 Y143.421 E0.4799
G1 X131.285 Y143.65 E0.4846
G1 X131.266 Y143.656 E0.4847
G1 X131.068 Y143.722 E0.4861
G1 X131.049 Y143.728 E0.4862
G1 X130.398 Y143.926 E0.4909
G1 X130.378 Y143.931 E0.491
G1 X130.177 Y143.988 E0.4924
G1 X130.158 Y143.993 E0.4926
G1 X129.497 Y144.16 E0.4972
G1 X129.478 Y144.164 E0.4973
G1 X129.274 Y144.211 E0.4987
G1 X129.255 Y144.215 E0.4989
G1 X128.588 Y144.351 E0.5035
G1 X128.568 Y144.354 E0.5036
G1 X128.363 Y144.391 E0.5051
G1 X128.344 Y144.394 E0.5052
G1 X127.67 Y144.498 E0.5098
G1 X127.651 Y144.501 E0.5099
G1 X127.443 Y144.528 E0.5114
G1 X127.424 Y144.53 E0.5115
G1 X126.746 Y144.603 E0.5161
G1 X126.726 Y144.604 E0.5163
G1 X126.518 Y144.622 E0.5177
G1 X126.498 Y144.623 E0.5178
G1 X125.818 Y144.663 E0.5224
G1 X125.798 Y144.664 E0.5226
G1 X125.59 Y144.671 E0.524
G1 X125.57 Y144.672 E0.5241
G1 X124.889 Y144.68 E0.5288
G1 X124.869 Y144.68 E0.5289
G1 X124.661 Y144.677 E0.5303
G1 X124.641 Y144.677 E0.5304
G1 X123.96 Y144.653 E0.5351
G1 X123.94 Y144.652 E0.5352
G1 X123.731 Y144.639 E0.5366
G1 X123.712 Y144.638 E0.5368
G1 X123.033 Y144.581 E0.5414
G1 X123.013 Y144.579 E0.5415
G1 X122.806 Y144.557 E0.5429
G1 X122.786 Y144.555 E0.5431
G1 X122.11 Y144.467 E0.5477
G1 X122.091 Y144.464 E0.5478
G1 X121.884 Y144.432 E0.5492
G1 X121.865 Y144.429 E0.5494
G1 X121.194 Y144.308 E0.554
G1 X121.175 Y144.305 E0.5541
G1 X120.97 Y144.263 E0.5556
G1 X120.951 Y144.259 E0.5557
G1 X120.287 Y144.107 E0.5603
G1 X120.267 Y144.102 E0.5605
G1 X120.065 Y144.051 E0.5619
G1 X120.046 Y144.046 E0.562
G1 X119.39 Y143.863 E0.5666
G1 X119.371 Y143.858 E0.5668
G1 X119.171 Y143.797 E0.5682
G1 X119.152 Y143.791 E0.5683
G1 X118.505 Y143.577 E0.5729
G1 X118.486 Y143.57 E0.5731
G1 X118.29 Y143.5 E0.5745
G1 X118.271 Y143.494 E0.5746
G1 X117.635 Y143.25 E0.5793
G1 X117.617 Y143.242 E0.5794
G1 X117.424 Y143.163 E0.5808
G1 X117.405 Y143.155 E0.5809
G1 X116.781 Y142.881 E0.5856
G1 X116.763 Y142.873 E0.5857
G1 X116.574 Y142.785 E0.5871
G1 X116.556 Y142.776 E0.5873
G1 X115.946 Y142.473 E0.5919
G1 X115.929 Y142.464 E0.592
G1 X115.744 Y142.367 E0.5934
G1 X115.726 Y142.357 E0.5936
G1 X115.131 Y142.026 E0.5982
G1 X115.114 Y142.016 E0.5983
G1 X114.934 Y141.91 E0.5998
G1 X114.917 Y141.9 E0.5999
G1 X114.338 Y141.541 E0.6045
G1 X114.321 Y141.53 E0.6046
G1 X114.147 Y141.416 E0.6061
G1 X114.13 Y141.405 E0.6062
G1 X113.569 Y141.019 E0.6108
G1 X113.553 Y141.007 E0.611
G1 X113.383 Y140.885 E0.6124
G1 X113.367 Y140.873 E0.6125
G1 X112.825 Y140.461 E0.6171
G1 X112.809 Y140.449 E0.6173
G1 X112.646 Y140.319 E0.6187
G1 X112.631 Y140.306 E0.6188
G1 X112.109 Y139.869 E0.6235
G1 X112.094 Y139.856 E0.6236
G1 X111.937 Y139.718 E0.625
G1 X111.922 Y139.705 E0.6251
G1 X111.421 Y139.243 E0.6298
G1 X111.406 Y139.23 E0.6299
G1 X111.256 Y139.085 E0.6313
