; G-Code generated by Simplify3D(TM) Version 2.2.0
; Jan 24, 2015 at 8:13:32 PM
; Settings Summary
;   processName,PLA
;   applyToModels,Multi_Motor_Housing
;   profileLabel,-- Select Printer Profile --
;   printMaterial,PLA
;   printQuality,Medium
;   extruderName,Extruder 1
;   extruderToolheadNumber,0
;   extruderDiameter,0.4
;   extruderAutoWidth,1
;   extruderWidth,0.48
;   extrusionMultiplier,0.9
;   extruderUseRetract,1
;   extruderRetractionDistance,1
;   extruderExtraRestartDistance,0
;   extruderRetractionZLift,0
;   extruderRetractionSpeed,1800
;   extruderUseCoasting,0
;   extruderCoastingDistance,0.2
;   extruderUseWipe,0
;   extruderWipeDistance,5
;   primaryExtruder,0
;   layerHeight,0.2
;   topSolidLayers,3
;   bottomSolidLayers,3
;   perimeterOutlines,2
;   printPerimetersInsideOut,1
;   startPointOption,2
;   startPointOriginX,0
;   startPointOriginY,0
;   startPointOriginZ,300
;   sequentialIslands,0
;   spiralVaseMode,0
;   firstLayerHeightPercentage,100
;   firstLayerWidthPercentage,100
;   firstLayerUnderspeed,0.5
;   useRaft,0
;   raftExtruder,0
;   raftLayers,3
;   raftOffset,3
;   raftSeparationDistance,0.14
;   raftInfill,85
;   disableRaftBaseLayers,0
;   useSkirt,1
;   skirtExtruder,0
;   skirtLayers,1
;   skirtOutlines,4
;   skirtOffset,4
;   infillExtruder,0
;   externalInfillPattern,Rectilinear
;   infillPercentage,20
;   outlineOverlapPercentage,15
;   infillExtrusionWidthPercentage,100
;   minInfillLength,5
;   infillLayerInterval,1
;   randomInfillStartPoint,0
;   infillAngles,45,-45
;   generateSupport,1
;   supportExtruder,0
;   supportInfill,30
;   supportExtraInflation,0
;   denseSupportLayers,0
;   denseSupportInfill,70
;   supportLayerInterval,1
;   supportHorizontalPartOffset,0.3
;   supportUpperSeparationLayers,1
;   supportLowerSeparationLayers,1
;   supportGridSpacing,4.5
;   maxOverhangAngle,45
;   supportAngles,0
;   temperatureName,Extruder 1 Temperature,Heated Bed
;   temperatureNumber,0,0
;   temperatureSetpointCount,1,1
;   temperatureSetpointLayers,1,1
;   temperatureSetpointTemperatures,190,60
;   temperatureStabilizeAtStartup,1,1
;   temperatureHeatedBed,0,1
;   temperatureRelayBetweenLayers,0,0
;   temperatureRelayBetweenLoops,0,0
;   fanLayers,1,2
;   fanSpeeds,0,100
;   blipFanToFullPower,0
;   adjustSpeedForCooling,1
;   minSpeedLayerTime,15
;   minCoolingSpeedSlowdown,20
;   increaseFanForCooling,0
;   minFanLayerTime,45
;   maxCoolingFanSpeed,100
;   increaseFanForBridging,0
;   bridgingFanSpeed,100
;   use5D,1
;   relativeEdistances,0
;   allowEaxisZeroing,1
;   independentExtruderAxes,0
;   includeM10123,0
;   stickySupport,1
;   detectArcs,0
;   arcReplaceG2G3,0
;   arcRadialCompensation,1
;   gcodeXoffset,0
;   gcodeYoffset,0
;   gcodeZoffset,0
;   overrideMachineDefinition,0
;   machineTypeOverride,0
;   strokeXoverride,250
;   strokeYoverride,250
;   strokeZoverride,250
;   originOffsetXoverride,0
;   originOffsetYoverride,0
;   originOffsetZoverride,0
;   homeXdirOverride,-1
;   homeYdirOverride,-1
;   homeZdirOverride,-1
;   flipXoverride,1
;   flipYoverride,-1
;   flipZoverride,1
;   startingGcode,G28 ; home all axes
;   layerChangeGcode,
;   toolChangeGcode,
;   endingGcode,M104 S0 ; turn off extruder,M140 S0 ; turn off bed,G28 ; home all axes,M84 ; disable motors
;   createX3G,0
;   celebration,0
;   celebrationSong,Random Song
;   createMB5G,0
;   postProcessing,
;   defaultSpeed,3000
;   outlineUnderspeed,0.5
;   solidInfillUnderspeed,0.8
;   supportUnderspeed,0.8
;   rapidXYspeed,4800
;   rapidZspeed,1002
;   minBridgingArea,50
;   bridgingExtrusionMultiplier,1
;   bridgingSpeedMultiplier,1
;   filamentDiameter,2.9
;   filamentPricePerKg,46
;   useMinPrintHeight,0
;   minPrintHeight,0
;   useMaxPrintHeight,0
;   maxPrintHeight,0
;   useDiaphragm,0
;   diaphragmLayerInterval,20
;   robustSlicing,1
;   mergeAllIntoSolid,0
;   onlyRetractWhenCrossingOutline,1
;   retractBetweenLayers,1
;   useRetractionMinTravel,0
;   retractionMinTravel,3
;   useRetractionOozeRate,0
;   retractionOozeRate,6000
;   onlyWipeOutlines,1
;   toolChangeRetractionDistance,12
;   toolChangeExtraRestartDistance,-0.5
;   toolChangeRetractionSpeed,600
;   allowThinWallGapFill,1
;   thinWallAllowedOverlapPercentage,10
G90
M82
M106 S0
M140 S60
M190 S60
M104 S190 T0
M109 S190 T0
G28 ; home all axes
G92 E0
G1 E-1 F1800
; layer 1, Z = 0.2
T0
; tool H0.2 W0.48
G1 X56.39 Y70.025 F4800
G1 Z0.2 F1002
G1 E0 F540
G92 E0
G1 X57.007 Y69.77 E0.0087 F1500
G1 X192.989 Y69.77 E1.7875
G1 X193.607 Y70.025 E1.7962
G1 X196.423 Y72.841 E1.8483
G1 X196.678 Y73.459 E1.857
G1 X196.678 Y112.441 E2.367
G1 X196.423 Y113.058 E2.3757
G1 X193.607 Y115.874 E2.4278
G1 X192.989 Y116.13 E2.4365
G1 X57.007 Y116.13 E4.2153
G1 X56.39 Y115.874 E4.224
G1 X53.574 Y113.058 E4.2761
G1 X53.318 Y112.441 E4.2848
G1 X53.318 Y73.459 E4.7947
G1 X53.574 Y72.841 E4.8035
G1 X56.39 Y70.025 E4.8556
G92 E0
G1 E-1 F1800
G1 X128.855 Y141.13 F4800
G1 E0 F1800
G92 E0
G1 X131.67 Y138.314 E0.0521 F1500
G1 X132.288 Y138.058 E0.0608
G1 X165.993 Y138.058 E0.5017
G1 X166.61 Y138.314 E0.5105
G1 X169.426 Y141.13 E0.5625
G1 X169.682 Y141.747 E0.5713
G1 X169.682 Y176.541 E1.0264
G1 X169.426 Y177.159 E1.0352
G1 X166.61 Y179.975 E1.0872
G1 X165.993 Y180.23 E1.096
G1 X132.288 Y180.23 E1.5369
G1 X131.67 Y179.975 E1.5456
G1 X128.855 Y177.159 E1.5977
G1 X128.599 Y176.541 E1.6064
G1 X128.599 Y141.747 E2.0616
G1 X128.855 Y141.13 E2.0703
G1 X129.261 Y141.402 F4800
G92 E0
G1 X131.942 Y138.721 E0.0496 F1500
G1 X132.383 Y138.538 E0.0558
G1 X165.897 Y138.538 E0.4942
G1 X166.338 Y138.721 E0.5005
G1 X169.019 Y141.402 E0.5501
G1 X169.202 Y141.843 E0.5563
G1 X169.202 Y176.446 E1.0089
G1 X169.019 Y176.887 E1.0152
G1 X166.338 Y179.568 E1.0648
G1 X165.897 Y179.75 E1.071
G1 X132.383 Y179.75 E1.5094
G1 X131.942 Y179.568 E1.5156
G1 X129.261 Y176.887 E1.5652
G1 X129.079 Y176.446 E1.5715
G1 X129.079 Y141.843 E2.0241
G1 X129.261 Y141.402 E2.0303
G1 X192.894 Y115.65 F4800
G92 E0
G1 X57.103 Y115.65 E1.7762 F1500
G1 X56.662 Y115.467 E1.7825
G1 X53.981 Y112.786 E1.8321
G1 X53.798 Y112.345 E1.8383
G1 X53.798 Y73.554 E2.3457
G1 X53.981 Y73.113 E2.352
G1 X56.662 Y70.432 E2.4016
G1 X57.103 Y70.25 E2.4078
G1 X192.894 Y70.25 E4.184
G1 X193.335 Y70.432 E4.1903
G1 X196.016 Y73.113 E4.2399
G1 X196.198 Y73.554 E4.2461
G1 X196.198 Y112.345 E4.7535
G1 X196.016 Y112.786 E4.7598
G1 X193.335 Y115.467 E4.8094
G1 X192.894 Y115.65 E4.8156
G1 X192.798 Y115.17 F4800
G92 E0
G1 X57.198 Y115.17 E1.7737 F1500
G1 X56.934 Y115.06 E1.7775
G1 X54.388 Y112.514 E1.8246
G1 X54.278 Y112.25 E1.8283
G1 X54.278 Y73.65 E2.3332
G1 X54.388 Y73.385 E2.337
G1 X56.934 Y70.839 E2.3841
G1 X57.198 Y70.73 E2.3878
G1 X192.798 Y70.73 E4.1615
G1 X193.063 Y70.839 E4.1653
G1 X195.609 Y73.385 E4.2124
G1 X195.718 Y73.65 E4.2161
G1 X195.718 Y112.25 E4.721
G1 X195.609 Y112.514 E4.7248
G1 X193.063 Y115.06 E4.7719
G1 X192.798 Y115.17 E4.7756
G1 X168.612 Y141.674 F4800
G92 E0
G1 X168.722 Y141.938 E0.0037 F1500
G1 X168.722 Y176.35 E0.4539
G1 X168.612 Y176.615 E0.4576
G1 X166.066 Y179.161 E0.5047
G1 X165.802 Y179.27 E0.5085
G1 X132.479 Y179.27 E0.9444
G1 X132.214 Y179.161 E0.9481
G1 X129.668 Y176.615 E0.9952
G1 X129.559 Y176.35 E0.9989
G1 X129.559 Y141.938 E1.4491
G1 X129.668 Y141.674 E1.4528
G1 X132.214 Y139.128 E1.4999
G1 X132.479 Y139.018 E1.5037
G1 X165.802 Y139.018 E1.9395
G1 X166.066 Y139.128 E1.9433
G1 X168.612 Y141.674 E1.9904
G1 X168.205 Y141.945 F4800
G92 E0
G1 X168.242 Y142.034 E0.0012 F1500
G1 X168.242 Y176.255 E0.4489
G1 X168.205 Y176.343 E0.4501
G1 X165.794 Y178.754 E0.4947
G1 X165.706 Y178.79 E0.496
G1 X132.574 Y178.79 E0.9294
G1 X132.486 Y178.754 E0.9306
G1 X130.075 Y176.343 E0.9752
G1 X130.039 Y176.255 E0.9765
G1 X130.039 Y142.034 E1.4241
G1 X130.075 Y141.945 E1.4253
G1 X132.486 Y139.535 E1.4699
G1 X132.574 Y139.498 E1.4712
G1 X165.706 Y139.498 E1.9046
G1 X165.794 Y139.535 E1.9058
G1 X168.205 Y141.945 E1.9504
G1 X192.703 Y114.69 F4800
G92 E0
G1 X57.294 Y114.69 E1.7712 F1500
G1 X57.205 Y114.653 E1.7725
G1 X54.795 Y112.242 E1.8171
G1 X54.758 Y112.154 E1.8183
G1 X54.758 Y73.745 E2.3207
G1 X54.795 Y73.657 E2.322
G1 X57.205 Y71.246 E2.3666
G1 X57.294 Y71.21 E2.3678
G1 X192.703 Y71.21 E4.1391
G1 X192.791 Y71.246 E4.1403
G1 X195.202 Y73.657 E4.1849
G1 X195.238 Y73.745 E4.1862
G1 X195.238 Y112.154 E4.6886
G1 X195.202 Y112.242 E4.6898
G1 X192.791 Y114.653 E4.7344
G1 X192.703 Y114.69 E4.7357
G92 E0
G1 E-1 F1800
G1 X190.278 Y109.73 F4800
G1 E0 F1800
G92 E0
G1 X59.718 Y109.73 E1.7078 F1125
G1 X59.718 Y76.17 E2.1468
G1 X190.278 Y76.17 E3.8546
G1 X190.278 Y109.73 E4.2936
G1 X190.758 Y110.21 F4800
G92 E0
G1 X59.238 Y110.21 E1.7204 F750
G1 X59.238 Y75.69 E2.1719
G1 X190.758 Y75.69 E3.8923
G1 X190.758 Y110.21 E4.3438
G1 X189.427 Y109.322 F4800
G92 E0
G1 X189.87 Y109.322 E0.0058 F1200
G1 X189.87 Y108.878 E0.0116
G1 X189.427 Y109.322 E0.0198
G1 X188.748 Y109.322 E0.0287
G1 X189.87 Y108.199 E0.0495
G1 X189.87 Y107.52 E0.0583
G1 X188.069 Y109.322 E0.0917
G1 X187.39 Y109.322 E0.1005
G1 X189.87 Y106.841 E0.1464
G1 X189.87 Y106.163 E0.1553
G1 X186.711 Y109.322 E0.2137
G1 X186.032 Y109.322 E0.2226
G1 X189.87 Y105.484 E0.2936
G1 X189.87 Y104.805 E0.3025
G1 X185.354 Y109.322 E0.386
G1 X184.675 Y109.322 E0.3949
G1 X189.87 Y104.126 E0.491
G1 X189.87 Y103.447 E0.4999
G1 X183.996 Y109.322 E0.6086
G1 X183.317 Y109.322 E0.6175
G1 X189.87 Y102.769 E0.7387
G1 X189.87 Y102.09 E0.7476
G1 X182.638 Y109.322 E0.8813
G1 X181.96 Y109.322 E0.8902
G1 X189.87 Y101.411 E1.0366
G1 X189.87 Y100.732 E1.0454
G1 X181.281 Y109.322 E1.2043
G1 X180.602 Y109.322 E1.2132
G1 X189.87 Y100.053 E1.3847
G1 X189.87 Y99.374 E1.3935
G1 X179.923 Y109.322 E1.5776
G1 X179.244 Y109.322 E1.5864
G1 X189.87 Y98.696 E1.783
G1 X189.87 Y98.017 E1.7919
G1 X178.565 Y109.322 E2.001
G1 X177.887 Y109.322 E2.0099
G1 X189.87 Y97.338 E2.2316
G1 X189.87 Y96.659 E2.2405
G1 X177.208 Y109.322 E2.4747
G1 X176.529 Y109.322 E2.4836
G1 X189.87 Y95.98 E2.7304
G1 X189.87 Y95.302 E2.7393
G1 X175.85 Y109.322 E2.9986
G1 X175.171 Y109.322 E3.0075
G1 X189.87 Y94.623 E3.2794
G1 X189.87 Y93.944 E3.2883
G1 X174.493 Y109.322 E3.5727
G1 X173.814 Y109.322 E3.5816
G1 X189.87 Y93.265 E3.8787
G1 X189.87 Y92.586 E3.8875
G1 X173.135 Y109.322 E4.1971
G1 X172.456 Y109.322 E4.206
G1 X189.87 Y91.907 E4.5281
G1 X189.87 Y91.229 E4.537
G1 X171.777 Y109.322 E4.8717
G1 X171.098 Y109.322 E4.8806
G1 X189.87 Y90.55 E5.2279
G1 X189.87 Y89.871 E5.2367
G1 X170.42 Y109.322 E5.5965
G1 X169.741 Y109.322 E5.6054
G1 X189.87 Y89.192 E5.9778
G1 X189.87 Y88.513 E5.9867
G1 X169.062 Y109.322 E6.3716
G1 X168.383 Y109.322 E6.3805
G1 X189.87 Y87.834 E6.778
G1 X189.87 Y87.156 E6.7869
G1 X167.704 Y109.322 E7.1969
G1 X167.025 Y109.322 E7.2058
G1 X189.87 Y86.477 E7.6284
G1 X189.87 Y85.798 E7.6373
G1 X166.347 Y109.322 E8.0724
G1 X165.668 Y109.322 E8.0813
G1 X189.87 Y85.119 E8.529
G1 X189.87 Y84.44 E8.5379
G1 X164.989 Y109.322 E8.9982
G1 X164.31 Y109.322 E9.007
G1 X189.87 Y83.762 E9.4799
G1 X189.87 Y83.083 E9.4888
G1 X163.631 Y109.322 E9.9741
G1 X162.953 Y109.322 E9.983
G1 X189.87 Y82.404 E10.481
G1 X189.87 Y81.725 E10.4898
G1 X162.274 Y109.322 E11.0003
G1 X161.595 Y109.322 E11.0092
G1 X189.87 Y81.046 E11.5323
G1 X189.87 Y80.367 E11.5412
G1 X160.916 Y109.322 E12.0768
G1 X160.237 Y109.322 E12.0857
G1 X189.87 Y79.689 E12.6338
G1 X189.87 Y79.01 E12.6427
G1 X159.558 Y109.322 E13.2035
G1 X158.88 Y109.322 E13.2123
G1 X189.87 Y78.331 E13.7856
G1 X189.87 Y77.652 E13.7945
G1 X158.201 Y109.322 E14.3803
G1 X157.522 Y109.322 E14.3892
G1 X189.87 Y76.973 E14.9876
G1 X189.87 Y76.578 E14.9928
G1 X189.587 Y76.578 E14.9965
G1 X156.843 Y109.322 E15.6022
G1 X156.164 Y109.322 E15.6111
G1 X188.908 Y76.578 E16.2168
G1 X188.229 Y76.578 E16.2257
G1 X155.485 Y109.322 E16.8314
G1 X154.807 Y109.322 E16.8403
G1 X187.551 Y76.578 E17.446
G1 X186.872 Y76.578 E17.4549
G1 X154.128 Y109.322 E18.0606
G1 X153.449 Y109.322 E18.0695
G1 X186.193 Y76.578 E18.6753
G1 X185.514 Y76.578 E18.6841
G1 X152.77 Y109.322 E19.2899
G1 X152.091 Y109.322 E19.2987
G1 X184.835 Y76.578 E19.9045
G1 X184.157 Y76.578 E19.9133
G1 X151.413 Y109.322 E20.5191
G1 X150.734 Y109.322 E20.5279
G1 X183.478 Y76.578 E21.1337
G1 X182.799 Y76.578 E21.1425
G1 X150.055 Y109.322 E21.7483
G1 X149.376 Y109.322 E21.7571
G1 X182.12 Y76.578 E22.3629
G1 X181.441 Y76.578 E22.3717
G1 X148.697 Y109.322 E22.9775
G1 X148.018 Y109.322 E22.9864
G1 X180.762 Y76.578 E23.5921
G1 X180.084 Y76.578 E23.601
G1 X147.34 Y109.322 E24.2067
G1 X146.661 Y109.322 E24.2156
G1 X179.405 Y76.578 E24.8213
G1 X178.726 Y76.578 E24.8302
G1 X145.982 Y109.322 E25.4359
G1 X145.303 Y109.322 E25.4448
G1 X178.047 Y76.578 E26.0505
G1 X177.368 Y76.578 E26.0594
G1 X144.624 Y109.322 E26.6651
G1 X143.945 Y109.322 E26.674
G1 X176.689 Y76.578 E27.2797
G1 X176.011 Y76.578 E27.2886
G1 X143.267 Y109.322 E27.8943
G1 X142.588 Y109.322 E27.9032
G1 X175.332 Y76.578 E28.5089
G1 X174.653 Y76.578 E28.5178
G1 X141.909 Y109.322 E29.1235
G1 X141.23 Y109.322 E29.1324
G1 X173.974 Y76.578 E29.7381
G1 X173.295 Y76.578 E29.747
G1 X140.551 Y109.322 E30.3527
G1 X139.873 Y109.322 E30.3616
G1 X172.617 Y76.578 E30.9673
G1 X171.938 Y76.578 E30.9762
G1 X139.194 Y109.322 E31.5819
G1 X138.515 Y109.322 E31.5908
G1 X171.259 Y76.578 E32.1965
G1 X170.58 Y76.578 E32.2054
G1 X137.836 Y109.322 E32.8111
G1 X137.157 Y109.322 E32.82
G1 X169.901 Y76.578 E33.4257
G1 X169.222 Y76.578 E33.4346
G1 X136.478 Y109.322 E34.0403
G1 X135.8 Y109.322 E34.0492
G1 X168.544 Y76.578 E34.6549
G1 X167.865 Y76.578 E34.6638
G1 X135.121 Y109.322 E35.2695
G1 X134.442 Y109.322 E35.2784
G1 X167.186 Y76.578 E35.8841
G1 X166.507 Y76.578 E35.893
G1 X133.763 Y109.322 E36.4987
G1 X133.084 Y109.322 E36.5076
G1 X165.828 Y76.578 E37.1133
G1 X165.15 Y76.578 E37.1222
G1 X132.406 Y109.322 E37.7279
G1 X131.727 Y109.322 E37.7368
G1 X164.471 Y76.578 E38.3426
G1 X163.792 Y76.578 E38.3514
G1 X131.048 Y109.322 E38.9572
G1 X130.369 Y109.322 E38.966
G1 X163.113 Y76.578 E39.5718
G1 X162.434 Y76.578 E39.5806
G1 X129.69 Y109.322 E40.1864
G1 X129.011 Y109.322 E40.1952
G1 X161.755 Y76.578 E40.801
G1 X161.077 Y76.578 E40.8098
G1 X128.333 Y109.322 E41.4156
G1 X127.654 Y109.322 E41.4244
G1 X160.398 Y76.578 E42.0302
G1 X159.719 Y76.578 E42.0391
G1 X126.975 Y109.322 E42.6448
G1 X126.296 Y109.322 E42.6537
G1 X159.04 Y76.578 E43.2594
G1 X158.361 Y76.578 E43.2683
G1 X125.617 Y109.322 E43.874
G1 X124.938 Y109.322 E43.8829
G1 X157.682 Y76.578 E44.4886
G1 X157.004 Y76.578 E44.4975
G1 X124.26 Y109.322 E45.1032
G1 X123.581 Y109.322 E45.1121
G1 X156.325 Y76.578 E45.7178
G1 X155.646 Y76.578 E45.7267
G1 X122.902 Y109.322 E46.3324
G1 X122.223 Y109.322 E46.3413
G1 X154.967 Y76.578 E46.947
G1 X154.288 Y76.578 E46.9559
G1 X121.544 Y109.322 E47.5616
G1 X120.866 Y109.322 E47.5705
G1 X153.61 Y76.578 E48.1762
G1 X152.931 Y76.578 E48.1851
G1 X120.187 Y109.322 E48.7908
G1 X119.508 Y109.322 E48.7997
G1 X152.252 Y76.578 E49.4054
G1 X151.573 Y76.578 E49.4143
G1 X118.829 Y109.322 E50.02
G1 X118.15 Y109.322 E50.0289
G1 X150.894 Y76.578 E50.6346
G1 X150.215 Y76.578 E50.6435
G1 X117.471 Y109.322 E51.2492
G1 X116.793 Y109.322 E51.2581
G1 X149.537 Y76.578 E51.8638
G1 X148.858 Y76.578 E51.8727
G1 X116.114 Y109.322 E52.4784
G1 X115.435 Y109.322 E52.4873
G1 X148.179 Y76.578 E53.093
G1 X147.5 Y76.578 E53.1019
G1 X114.756 Y109.322 E53.7076
G1 X114.077 Y109.322 E53.7165
G1 X146.821 Y76.578 E54.3222
G1 X146.142 Y76.578 E54.3311
G1 X113.398 Y109.322 E54.9368
G1 X112.72 Y109.322 E54.9457
G1 X145.464 Y76.578 E55.5514
G1 X144.785 Y76.578 E55.5603
G1 X112.041 Y109.322 E56.166
G1 X111.362 Y109.322 E56.1749
G1 X144.106 Y76.578 E56.7806
G1 X143.427 Y76.578 E56.7895
G1 X110.683 Y109.322 E57.3953
G1 X110.004 Y109.322 E57.4041
G1 X142.748 Y76.578 E58.0099
G1 X142.07 Y76.578 E58.0187
G1 X109.326 Y109.322 E58.6245
G1 X108.647 Y109.322 E58.6333
G1 X141.391 Y76.578 E59.2391
G1 X140.712 Y76.578 E59.2479
G1 X107.968 Y109.322 E59.8537
G1 X107.289 Y109.322 E59.8625
G1 X140.033 Y76.578 E60.4683
G1 X139.354 Y76.578 E60.4771
G1 X106.61 Y109.322 E61.0829
G1 X105.931 Y109.322 E61.0917
G1 X138.675 Y76.578 E61.6975
G1 X137.997 Y76.578 E61.7064
G1 X105.253 Y109.322 E62.3121
