; G-Code generated by Simplify3D(TM) Version 2.2.0
; Mar 10, 2015 at 1:29:55 PM
; Settings Summary
;   processName,PETG
;   applyToModels,Multi_Motor_Housing
;   profileLabel,Prusa Mendel
;   printMaterial,PLA
;   printQuality,Fast
;   extruderName,Primary Extruder
;   extruderToolheadNumber,0
;   extruderDiameter,0.4
;   extruderAutoWidth,1
;   extruderWidth,0.48
;   extrusionMultiplier,0.9
;   extruderUseRetract,1
;   extruderRetractionDistance,2
;   extruderExtraRestartDistance,0
;   extruderRetractionZLift,0
;   extruderRetractionSpeed,1800
;   extruderUseCoasting,1
;   extruderCoastingDistance,0.2
;   extruderUseWipe,0
;   extruderWipeDistance,5
;   primaryExtruder,0
;   layerHeight,0.2
;   topSolidLayers,3
;   bottomSolidLayers,3
;   perimeterOutlines,2
;   printPerimetersInsideOut,1
;   startPointOption,2
;   startPointOriginX,0
;   startPointOriginY,0
;   startPointOriginZ,300
;   sequentialIslands,0
;   spiralVaseMode,0
;   firstLayerHeightPercentage,100
;   firstLayerWidthPercentage,100
;   firstLayerUnderspeed,0.5
;   useRaft,0
;   raftExtruder,0
;   raftLayers,3
;   raftOffset,3
;   raftSeparationDistance,0.14
;   raftInfill,85
;   disableRaftBaseLayers,0
;   useSkirt,1
;   skirtExtruder,0
;   skirtLayers,1
;   skirtOutlines,2
;   skirtOffset,4
;   infillExtruder,0
;   externalInfillPattern,Rectilinear
;   infillPercentage,15
;   outlineOverlapPercentage,15
;   infillExtrusionWidthPercentage,100
;   minInfillLength,5
;   infillLayerInterval,1
;   randomInfillStartPoint,0
;   infillAngles,45,-45
;   generateSupport,0
;   supportExtruder,0
;   supportInfill,25
;   supportExtraInflation,0
;   denseSupportLayers,0
;   denseSupportInfill,70
;   supportLayerInterval,1
;   supportHorizontalPartOffset,0.3
;   supportUpperSeparationLayers,1
;   supportLowerSeparationLayers,1
;   supportGridSpacing,2
;   maxOverhangAngle,45
;   supportAngles,0
;   temperatureName,Primary Extruder,Heated Bed
;   temperatureNumber,0,1
;   temperatureSetpointCount,1,1
;   temperatureSetpointLayers,1,1
;   temperatureSetpointTemperatures,250,70
;   temperatureStabilizeAtStartup,1,1
;   temperatureHeatedBed,0,1
;   temperatureRelayBetweenLayers,0,0
;   temperatureRelayBetweenLoops,0,0
;   fanLayers,1,2
;   fanSpeeds,0,100
;   blipFanToFullPower,1
;   adjustSpeedForCooling,1
;   minSpeedLayerTime,15
;   minCoolingSpeedSlowdown,20
;   increaseFanForCooling,0
;   minFanLayerTime,45
;   maxCoolingFanSpeed,100
;   increaseFanForBridging,0
;   bridgingFanSpeed,100
;   use5D,1
;   relativeEdistances,0
;   allowEaxisZeroing,1
;   independentExtruderAxes,0
;   includeM10123,0
;   stickySupport,1
;   detectArcs,0
;   arcReplaceG2G3,0
;   arcRadialCompensation,1
;   gcodeXoffset,0
;   gcodeYoffset,0
;   gcodeZoffset,0
;   overrideMachineDefinition,0
;   machineTypeOverride,0
;   strokeXoverride,200
;   strokeYoverride,200
;   strokeZoverride,100
;   originOffsetXoverride,0
;   originOffsetYoverride,0
;   originOffsetZoverride,0
;   homeXdirOverride,-1
;   homeYdirOverride,-1
;   homeZdirOverride,-1
;   flipXoverride,1
;   flipYoverride,-1
;   flipZoverride,1
;   startingGcode,G28 ;,G29 ; ABL
;   layerChangeGcode,
;   toolChangeGcode,
;   endingGcode,M104 S0 ; turn off extruder,M140 S0 ; turn off bed,G28 X ;,G28 Y ; h,M84 ; disable motors
;   createX3G,0
;   celebration,0
;   celebrationSong,Random Song
;   createMB5G,0
;   postProcessing,
;   defaultSpeed,2400
;   outlineUnderspeed,0.5
;   solidInfillUnderspeed,0.8
;   supportUnderspeed,0.8
;   rapidXYspeed,4800
;   rapidZspeed,1002
;   minBridgingArea,50
;   bridgingExtrusionMultiplier,1
;   bridgingSpeedMultiplier,1
;   filamentDiameter,1.75
;   filamentPricePerKg,46
;   useMinPrintHeight,0
;   minPrintHeight,0
;   useMaxPrintHeight,0
;   maxPrintHeight,0
;   useDiaphragm,0
;   diaphragmLayerInterval,20
;   robustSlicing,1
;   mergeAllIntoSolid,0
;   onlyRetractWhenCrossingOutline,1
;   retractBetweenLayers,1
;   useRetractionMinTravel,0
;   retractionMinTravel,3
;   useRetractionOozeRate,0
;   retractionOozeRate,6000
;   onlyWipeOutlines,1
;   toolChangeRetractionDistance,12
;   toolChangeExtraRestartDistance,-0.5
;   toolChangeRetractionSpeed,600
;   allowThinWallGapFill,1
;   thinWallAllowedOverlapPercentage,10
G90
M82
M106 S0
M140 S70
M190 S70
M104 S250 T0
M109 S250 T0
G28 ;
G29 ; ABL
G92 E0
G1 E-2 F1800
; layer 1, Z = 0.2
T0
; tool H0.2 W0.48
G1 X56.934 Y58.339 F4800
G1 Z0.2 F1002
G1 E0 F540
G92 E0
G1 X57.198 Y58.23 E0.0103 F1200
G1 X167.798 Y58.23 E3.9832
G1 X168.063 Y58.339 E3.9934
G1 X170.609 Y60.885 E4.1228
G1 X170.718 Y61.15 E4.133
G1 X170.718 Y99.75 E5.5196
G1 X170.609 Y100.014 E5.5299
G1 X168.063 Y102.56 E5.6592
G1 X167.798 Y102.67 E5.6695
G1 X57.198 Y102.67 E9.6424
G1 X56.934 Y102.56 E9.6527
G1 X54.388 Y100.014 E9.782
G1 X54.278 Y99.75 E9.7923
G1 X54.278 Y61.15 E11.1788
G1 X54.388 Y60.885 E11.1891
G1 X56.792 Y58.481 E11.3112
G1 X56.934 Y58.339 F1200
G92 E0
G1 E-2 F1800
G1 X107.214 Y126.628 F4800
G1 E0 F1800
G92 E0
G1 X107.479 Y126.518 E0.0103 F1200
G1 X137.802 Y126.518 E1.0995
G1 X138.066 Y126.628 E1.1098
G1 X140.612 Y129.174 E1.2391
G1 X140.722 Y129.438 E1.2494
G1 X140.722 Y163.85 E2.4855
G1 X140.612 Y164.115 E2.4958
G1 X138.066 Y166.661 E2.6251
G1 X137.802 Y166.77 E2.6354
G1 X107.479 Y166.77 E3.7247
G1 X107.214 Y166.661 E3.735
G1 X104.668 Y164.115 E3.8643
G1 X104.559 Y163.85 E3.8746
G1 X104.559 Y129.438 E5.1107
G1 X104.668 Y129.174 E5.121
G1 X107.073 Y126.769 E5.2431
G1 X107.214 Y126.628 F1200
G1 X107.486 Y127.035 F4800
G92 E0
G1 X107.574 Y126.998 E0.0034 F1200
G1 X137.706 Y126.998 E1.0858
G1 X137.794 Y127.035 E1.0892
G1 X140.205 Y129.445 E1.2117
G1 X140.242 Y129.534 E1.2151
G1 X140.242 Y163.755 E2.4444
G1 X140.205 Y163.843 E2.4478
G1 X137.794 Y166.254 E2.5703
G1 X137.706 Y166.29 E2.5737
G1 X107.574 Y166.29 E3.6561
G1 X107.486 Y166.254 E3.6595
G1 X105.075 Y163.843 E3.782
G1 X105.039 Y163.755 E3.7854
G1 X105.039 Y129.534 E5.0147
G1 X105.075 Y129.445 E5.0181
G1 X107.345 Y127.176 E5.1334
G1 X107.486 Y127.035 F1200
G1 X57.294 Y102.19 F4800
G92 E0
G1 X57.205 Y102.153 E0.0034 F1200
G1 X54.795 Y99.742 E0.1259
G1 X54.758 Y99.654 E0.1293
G1 X54.758 Y61.245 E1.509
G1 X54.795 Y61.157 E1.5124
G1 X57.205 Y58.746 E1.6349
G1 X57.294 Y58.71 E1.6383
G1 X167.703 Y58.71 E5.6043
G1 X167.791 Y58.746 E5.6078
G1 X170.202 Y61.157 E5.7302
G1 X170.238 Y61.245 E5.7337
G1 X170.238 Y99.654 E7.1134
G1 X170.202 Y99.742 E7.1168
G1 X167.791 Y102.153 E7.2392
G1 X167.703 Y102.19 E7.2427
G1 X57.494 Y102.19 E11.2015
G1 X57.294 Y102.19 F1200
G92 E0
G1 E-2 F1800
G1 X59.718 Y97.23 F4800
G1 E0 F1800
G92 E0
G1 X59.718 Y63.67 E1.2055 F900
G1 X165.278 Y63.67 E4.9973
G1 X165.278 Y97.23 E6.2028
G1 X59.918 Y97.23 E9.9875
G1 X59.718 Y97.23 F900
G1 X59.238 Y97.71 F4800
G92 E0
G1 X59.238 Y63.19 E1.24 F600
G1 X165.758 Y63.19 E5.0663
G1 X165.758 Y97.71 E6.3063
G1 X59.438 Y97.71 E10.1254
G1 X59.238 Y97.71 F600
G1 X60.126 Y64.562 F4800
G92 E0
G1 X60.611 Y64.078 E0.0246 F960
G1 X61.29 Y64.078 E0.049
G1 X60.126 Y65.241 E0.1081
G1 X60.126 Y65.92 E0.1325
G1 X61.968 Y64.078 E0.2261
G1 X62.647 Y64.078 E0.2505
G1 X60.126 Y66.599 E0.3785
G1 X60.126 Y67.277 E0.4029
G1 X63.326 Y64.078 E0.5655
G1 X64.005 Y64.078 E0.5898
G1 X60.126 Y67.956 E0.7869
G1 X60.126 Y68.635 E0.8113
G1 X64.684 Y64.078 E1.0428
G1 X65.363 Y64.078 E1.0672
G1 X60.126 Y69.314 E1.3332
G1 X60.126 Y69.993 E1.3576
G1 X66.041 Y64.078 E1.658
G1 X66.72 Y64.078 E1.6824
G1 X60.126 Y70.672 E2.0174
G1 X60.126 Y71.35 E2.0418
G1 X67.399 Y64.078 E2.4112
G1 X68.078 Y64.078 E2.4356
G1 X60.126 Y72.029 E2.8396
G1 X60.126 Y72.708 E2.8639
G1 X68.757 Y64.078 E3.3024
G1 X69.436 Y64.078 E3.3268
G1 X60.126 Y73.387 E3.7997
G1 X60.126 Y74.066 E3.824
G1 X70.114 Y64.078 E4.3314
G1 X70.793 Y64.078 E4.3558
G1 X60.126 Y74.745 E4.8977
G1 X60.126 Y75.423 E4.9221
G1 X71.472 Y64.078 E5.4984
G1 X72.151 Y64.078 E5.5228
G1 X60.126 Y76.102 E6.1337
G1 X60.126 Y76.781 E6.1581
G1 X72.83 Y64.078 E6.8034
G1 X73.508 Y64.078 E6.8278
G1 X60.126 Y77.46 E7.5076
G1 X60.126 Y78.139 E7.532
G1 X74.187 Y64.078 E8.2463
G1 X74.866 Y64.078 E8.2707
G1 X60.126 Y78.817 E9.0194
G1 X60.126 Y79.496 E9.0438
G1 X75.545 Y64.078 E9.8271
G1 X76.224 Y64.078 E9.8515
G1 X60.126 Y80.175 E10.6692
G1 X60.126 Y80.854 E10.6936
G1 X76.903 Y64.078 E11.5458
G1 X77.581 Y64.078 E11.5702
G1 X60.126 Y81.533 E12.4569
G1 X60.126 Y82.212 E12.4813
G1 X78.26 Y64.078 E13.4025
G1 X78.939 Y64.078 E13.4269
G1 X60.126 Y82.89 E14.3826
G1 X60.126 Y83.569 E14.407
G1 X79.618 Y64.078 E15.3971
G1 X80.297 Y64.078 E15.4215
G1 X60.126 Y84.248 E16.4462
G1 X60.126 Y84.927 E16.4706
G1 X80.976 Y64.078 E17.5297
G1 X81.654 Y64.078 E17.5541
G1 X60.126 Y85.606 E18.6477
G1 X60.126 Y86.285 E18.6721
G1 X82.333 Y64.078 E19.8002
G1 X83.012 Y64.078 E19.8246
G1 X60.126 Y86.963 E20.9872
G1 X60.126 Y87.642 E21.0116
G1 X83.691 Y64.078 E22.2086
G1 X84.37 Y64.078 E22.233
G1 X60.126 Y88.321 E23.4646
G1 X60.126 Y89 E23.489
G1 X85.048 Y64.078 E24.755
G1 X85.727 Y64.078 E24.7794
G1 X60.126 Y89.679 E26.0799
G1 X60.126 Y90.357 E26.1043
G1 X86.406 Y64.078 E27.4393
G1 X87.085 Y64.078 E27.4637
G1 X60.126 Y91.036 E28.8332
G1 X60.126 Y91.715 E28.8576
G1 X87.764 Y64.078 E30.2616
G1 X88.443 Y64.078 E30.2859
G1 X60.126 Y92.394 E31.7244
G1 X60.126 Y93.073 E31.7488
G1 X89.121 Y64.078 E33.2217
G1 X89.8 Y64.078 E33.2461
G1 X60.126 Y93.752 E34.7536
G1 X60.126 Y94.43 E34.7779
G1 X90.479 Y64.078 E36.3199
G1 X91.158 Y64.078 E36.3442
G1 X60.126 Y95.109 E37.9206
G1 X60.126 Y95.788 E37.945
G1 X91.837 Y64.078 E39.5559
G1 X92.516 Y64.078 E39.5803
G1 X60.126 Y96.467 E41.2257
G1 X60.126 Y96.822 E41.2384
G1 X60.45 Y96.822 E41.25
G1 X93.194 Y64.078 E42.9134
G1 X93.873 Y64.078 E42.9378
G1 X61.129 Y96.822 E44.6012
G1 X61.808 Y96.822 E44.6256
G1 X94.552 Y64.078 E46.289
G1 X95.231 Y64.078 E46.3134
G1 X62.487 Y96.822 E47.9768
G1 X63.166 Y96.822 E48.0012
G1 X95.91 Y64.078 E49.6645
G1 X96.588 Y64.078 E49.6889
G1 X63.844 Y96.822 E51.3523
G1 X64.523 Y96.822 E51.3767
G1 X97.267 Y64.078 E53.0401
G1 X97.946 Y64.078 E53.0645
G1 X65.202 Y96.822 E54.7279
G1 X65.881 Y96.822 E54.7523
G1 X98.625 Y64.078 E56.4156
G1 X99.304 Y64.078 E56.44
G1 X66.56 Y96.822 E58.1034
G1 X67.239 Y96.822 E58.1278
G1 X99.983 Y64.078 E59.7912
G1 X100.661 Y64.078 E59.8156
G1 X67.917 Y96.822 E61.479
G1 X68.596 Y96.822 E61.5034
G1 X101.34 Y64.078 E63.1667
G1 X102.019 Y64.078 E63.1911
G1 X69.275 Y96.822 E64.8545
G1 X69.954 Y96.822 E64.8789
G1 X102.698 Y64.078 E66.5423
G1 X103.377 Y64.078 E66.5667
G1 X70.633 Y96.822 E68.2301
G1 X71.311 Y96.822 E68.2545
G1 X104.055 Y64.078 E69.9178
G1 X104.734 Y64.078 E69.9422
G1 X71.99 Y96.822 E71.6056
G1 X72.669 Y96.822 E71.63
G1 X105.413 Y64.078 E73.2934
G1 X106.092 Y64.078 E73.3178
G1 X73.348 Y96.822 E74.9812
G1 X74.027 Y96.822 E75.0056
G1 X106.771 Y64.078 E76.669
G1 X107.45 Y64.078 E76.6933
G1 X74.706 Y96.822 E78.3567
G1 X75.384 Y96.822 E78.3811
G1 X108.128 Y64.078 E80.0445
G1 X108.807 Y64.078 E80.0689
G1 X76.063 Y96.822 E81.7323
G1 X76.742 Y96.822 E81.7567
G1 X109.486 Y64.078 E83.4201
G1 X110.165 Y64.078 E83.4444
G1 X77.421 Y96.822 E85.1078
G1 X78.1 Y96.822 E85.1322
G1 X110.844 Y64.078 E86.7956
G1 X111.523 Y64.078 E86.82
G1 X78.779 Y96.822 E88.4834
G1 X79.457 Y96.822 E88.5078
G1 X112.201 Y64.078 E90.1712
G1 X112.88 Y64.078 E90.1955
G1 X80.136 Y96.822 E91.8589
G1 X80.815 Y96.822 E91.8833
G1 X113.559 Y64.078 E93.5467
G1 X114.238 Y64.078 E93.5711
G1 X81.494 Y96.822 E95.2345
G1 X82.173 Y96.822 E95.2589
G1 X114.917 Y64.078 E96.9223
G1 X115.595 Y64.078 E96.9466
G1 X82.851 Y96.822 E98.61
G1 X83.53 Y96.822 E98.6344
G1 X116.274 Y64.078 E100.2978
G1 X116.953 Y64.078 E100.3222
G1 X84.209 Y96.822 E101.9856
G1 X84.888 Y96.822 E102.01
G1 X117.632 Y64.078 E103.6734
G1 X118.311 Y64.078 E103.6977
G1 X85.567 Y96.822 E105.3611
G1 X86.246 Y96.822 E105.3855
G1 X118.99 Y64.078 E107.0489
G1 X119.668 Y64.078 E107.0733
G1 X86.924 Y96.822 E108.7367
G1 X87.603 Y96.822 E108.7611
G1 X120.347 Y64.078 E110.4245
G1 X121.026 Y64.078 E110.4488
G1 X88.282 Y96.822 E112.1122
G1 X88.961 Y96.822 E112.1366
G1 X121.705 Y64.078 E113.8
G1 X122.384 Y64.078 E113.8244
G1 X89.64 Y96.822 E115.4878
G1 X90.319 Y96.822 E115.5122
G1 X123.063 Y64.078 E117.1756
G1 X123.741 Y64.078 E117.1999
G1 X90.997 Y96.822 E118.8633
G1 X91.676 Y96.822 E118.8877
G1 X124.42 Y64.078 E120.5511
G1 X125.099 Y64.078 E120.5755
G1 X92.355 Y96.822 E122.2389
G1 X93.034 Y96.822 E122.2633
G1 X125.778 Y64.078 E123.9267
G1 X126.457 Y64.078 E123.9511
G1 X93.713 Y96.822 E125.6144
G1 X94.391 Y96.822 E125.6388
G1 X127.135 Y64.078 E127.3022
G1 X127.814 Y64.078 E127.3266
G1 X95.07 Y96.822 E128.99
G1 X95.749 Y96.822 E129.0144
G1 X128.493 Y64.078 E130.6778
G1 X129.172 Y64.078 E130.7022
G1 X96.428 Y96.822 E132.3655
G1 X97.107 Y96.822 E132.3899
G1 X129.851 Y64.078 E134.0533
G1 X130.53 Y64.078 E134.0777
G1 X97.786 Y96.822 E135.7411
G1 X98.464 Y96.822 E135.7655
G1 X131.208 Y64.078 E137.4289
G1 X131.887 Y64.078 E137.4533
G1 X99.143 Y96.822 E139.1166
G1 X99.822 Y96.822 E139.141
G1 X132.566 Y64.078 E140.8044
G1 X133.245 Y64.078 E140.8288
G1 X100.501 Y96.822 E142.4922
G1 X101.18 Y96.822 E142.5166
G1 X133.924 Y64.078 E144.18
G1 X134.603 Y64.078 E144.2044
G1 X101.859 Y96.822 E145.8678
G1 X102.537 Y96.822 E145.8921
G1 X135.281 Y64.078 E147.5555
G1 X135.96 Y64.078 E147.5799
G1 X103.216 Y96.822 E149.2433
G1 X103.895 Y96.822 E149.2677
G1 X136.639 Y64.078 E150.9311
G1 X137.318 Y64.078 E150.9555
G1 X104.574 Y96.822 E152.6189
G1 X105.253 Y96.822 E152.6432
G1 X137.997 Y64.078 E154.3066
G1 X138.675 Y64.078 E154.331
G1 X105.931 Y96.822 E155.9944
G1 X106.61 Y96.822 E156.0188
G1 X139.354 Y64.078 E157.6822
G1 X140.033 Y64.078 E157.7066
G1 X107.289 Y96.822 E159.37
G1 X107.968 Y96.822 E159.3943
G1 X140.712 Y64.078 E161.0577
G1 X141.391 Y64.078 E161.0821
G1 X108.647 Y96.822 E162.7455
G1 X109.326 Y96.822 E162.7699
G1 X142.07 Y64.078 E164.4333
G1 X142.748 Y64.078 E164.4577
G1 X110.004 Y96.822 E166.1211
G1 X110.683 Y96.822 E166.1454
G1 X143.427 Y64.078 E167.8088
G1 X144.106 Y64.078 E167.8332
G1 X111.362 Y96.822 E169.4966
G1 X112.041 Y96.822 E169.521
G1 X144.785 Y64.078 E171.1844
G1 X145.464 Y64.078 E171.2088
G1 X112.72 Y96.822 E172.8722
G1 X113.398 Y96.822 E172.8965
G1 X146.142 Y64.078 E174.5599
G1 X146.821 Y64.078 E174.5843
G1 X114.077 Y96.822 E176.2477
G1 X114.756 Y96.822 E176.2721
G1 X147.5 Y64.078 E177.9355
G1 X148.179 Y64.078 E177.9599
G1 X115.435 Y96.822 E179.6233
G1 X116.114 Y96.822 E179.6476
G1 X148.858 Y64.078 E181.311
G1 X149.537 Y64.078 E181.3354
G1 X116.793 Y96.822 E182.9988
G1 X117.471 Y96.822 E183.0232
G1 X150.215 Y64.078 E184.6866
G1 X150.894 Y64.078 E184.711
G1 X118.15 Y96.822 E186.3744
G1 X118.829 Y96.822 E186.3987
G1 X151.573 Y64.078 E188.0621
G1 X152.252 Y64.078 E188.0865
G1 X119.508 Y96.822 E189.7499
G1 X120.187 Y96.822 E189.7743
G1 X152.931 Y64.078 E191.4377
G1 X153.61 Y64.078 E191.4621
G1 X120.866 Y96.822 E193.1255
G1 X121.544 Y96.822 E193.1499
G1 X154.288 Y64.078 E194.8132
G1 X154.967 Y64.078 E194.8376
G1 X122.223 Y96.822 E196.501
G1 X122.902 Y96.822 E196.5254
G1 X155.646 Y64.078 E198.1888
G1 X156.325 Y64.078 E198.2132
G1 X123.581 Y96.822 E199.8766
G1 X124.26 Y96.822 E199.901
G1 X157.004 Y64.078 E201.5643
G1 X157.682 Y64.078 E201.5887
G1 X124.938 Y96.822 E203.2521
G1 X125.617 Y96.822 E203.2765
G1 X158.361 Y64.078 E204.9399
G1 X159.04 Y64.078 E204.9643
G1 X126.296 Y96.822 E206.6277
G1 X126.975 Y96.822 E206.6521
G1 X159.719 Y64.078 E208.3154
G1 X160.398 Y64.078 E208.3398
G1 X127.654 Y96.822 E210.0032
G1 X128.333 Y96.822 E210.0276
G1 X161.077 Y64.078 E211.691
G1 X161.755 Y64.078 E211.7154
G1 X129.011 Y96.822 E213.3788
G1 X129.69 Y96.822 E213.4032
G1 X162.434 Y64.078 E215.0665
G1 X163.113 Y64.078 E215.0909
G1 X130.369 Y96.822 E216.7543
G1 X131.048 Y96.822 E216.7787
G1 X163.792 Y64.078 E218.4421
G1 X164.471 Y64.078 E218.4665
G1 X131.727 Y96.822 E220.1299
G1 X132.406 Y96.822 E220.1543
G1 X164.87 Y64.357 E221.8035
G1 X164.87 Y65.036 E221.8279
G1 X133.084 Y96.822 E223.4426
G1 X133.763 Y96.822 E223.467
G1 X164.87 Y65.715 E225.0472
G1 X164.87 Y66.393 E225.0716
G1 X134.442 Y96.822 E226.6173
G1 X135.121 Y96.822 E226.6417
G1 X164.87 Y67.072 E228.153
G1 X164.87 Y67.751 E228.1774
G1 X135.8 Y96.822 E229.6542
