; G-Code generated by Simplify3D(TM) Version 2.2.0
; Jan 22, 2015 at 8:54:13 PM
; Settings Summary
;   processName,PLA
;   applyToModels,Multi_Motor_Housing
;   profileLabel,-- Select Printer Profile --
;   printMaterial,PLA
;   printQuality,High
;   extruderName,Extruder 1
;   extruderToolheadNumber,0
;   extruderDiameter,0.4
;   extruderAutoWidth,1
;   extruderWidth,0.48
;   extrusionMultiplier,0.9
;   extruderUseRetract,1
;   extruderRetractionDistance,1
;   extruderExtraRestartDistance,0
;   extruderRetractionZLift,0
;   extruderRetractionSpeed,1800
;   extruderUseCoasting,0
;   extruderCoastingDistance,0.2
;   extruderUseWipe,0
;   extruderWipeDistance,5
;   primaryExtruder,0
;   layerHeight,0.1
;   topSolidLayers,4
;   bottomSolidLayers,4
;   perimeterOutlines,2
;   printPerimetersInsideOut,1
;   startPointOption,2
;   startPointOriginX,0
;   startPointOriginY,0
;   startPointOriginZ,300
;   sequentialIslands,0
;   spiralVaseMode,0
;   firstLayerHeightPercentage,90
;   firstLayerWidthPercentage,100
;   firstLayerUnderspeed,0.5
;   useRaft,0
;   raftExtruder,0
;   raftLayers,3
;   raftOffset,3
;   raftSeparationDistance,0.14
;   raftInfill,85
;   disableRaftBaseLayers,0
;   useSkirt,1
;   skirtExtruder,0
;   skirtLayers,2
;   skirtOutlines,2
;   skirtOffset,4
;   infillExtruder,0
;   externalInfillPattern,Rectilinear
;   infillPercentage,30
;   outlineOverlapPercentage,15
;   infillExtrusionWidthPercentage,100
;   minInfillLength,5
;   infillLayerInterval,1
;   randomInfillStartPoint,0
;   infillAngles,45,-45
;   generateSupport,0
;   supportExtruder,0
;   supportInfill,40
;   supportExtraInflation,0
;   denseSupportLayers,0
;   denseSupportInfill,70
;   supportLayerInterval,1
;   supportHorizontalPartOffset,0.3
;   supportUpperSeparationLayers,1
;   supportLowerSeparationLayers,1
;   supportGridSpacing,4
;   maxOverhangAngle,45
;   supportAngles,0
;   temperatureName,Extruder 1 Temperature,Heated Bed
;   temperatureNumber,0,0
;   temperatureSetpointCount,1,1
;   temperatureSetpointLayers,1,1
;   temperatureSetpointTemperatures,190,60
;   temperatureStabilizeAtStartup,1,1
;   temperatureHeatedBed,0,1
;   temperatureRelayBetweenLayers,0,0
;   temperatureRelayBetweenLoops,0,0
;   fanLayers,1,2
;   fanSpeeds,0,100
;   blipFanToFullPower,0
;   adjustSpeedForCooling,1
;   minSpeedLayerTime,15
;   minCoolingSpeedSlowdown,20
;   increaseFanForCooling,0
;   minFanLayerTime,45
;   maxCoolingFanSpeed,100
;   increaseFanForBridging,0
;   bridgingFanSpeed,100
;   use5D,1
;   relativeEdistances,0
;   allowEaxisZeroing,1
;   independentExtruderAxes,0
;   includeM10123,0
;   stickySupport,1
;   detectArcs,0
;   arcReplaceG2G3,0
;   arcRadialCompensation,1
;   gcodeXoffset,0
;   gcodeYoffset,0
;   gcodeZoffset,0
;   overrideMachineDefinition,0
;   machineTypeOverride,0
;   strokeXoverride,250
;   strokeYoverride,250
;   strokeZoverride,250
;   originOffsetXoverride,0
;   originOffsetYoverride,0
;   originOffsetZoverride,0
;   homeXdirOverride,-1
;   homeYdirOverride,-1
;   homeZdirOverride,-1
;   flipXoverride,1
;   flipYoverride,-1
;   flipZoverride,1
;   startingGcode,G28 ; home all axes
;   layerChangeGcode,
;   toolChangeGcode,
;   endingGcode,M104 S0 ; turn off extruder,M140 S0 ; turn off bed,M84 ; disable motors
;   createX3G,0
;   celebration,0
;   celebrationSong,Random Song
;   createMB5G,0
;   postProcessing,
;   defaultSpeed,3600
;   outlineUnderspeed,0.5
;   solidInfillUnderspeed,0.8
;   supportUnderspeed,0.8
;   rapidXYspeed,4800
;   rapidZspeed,1002
;   minBridgingArea,50
;   bridgingExtrusionMultiplier,1
;   bridgingSpeedMultiplier,1
;   filamentDiameter,2.9
;   filamentPricePerKg,46
;   useMinPrintHeight,0
;   minPrintHeight,0
;   useMaxPrintHeight,0
;   maxPrintHeight,0
;   useDiaphragm,0
;   diaphragmLayerInterval,20
;   robustSlicing,1
;   mergeAllIntoSolid,0
;   onlyRetractWhenCrossingOutline,1
;   retractBetweenLayers,1
;   useRetractionMinTravel,0
;   retractionMinTravel,3
;   useRetractionOozeRate,0
;   retractionOozeRate,6000
;   onlyWipeOutlines,1
;   toolChangeRetractionDistance,12
;   toolChangeExtraRestartDistance,-0.5
;   toolChangeRetractionSpeed,600
;   allowThinWallGapFill,1
;   thinWallAllowedOverlapPercentage,10
G90
M82
M106 S0
M140 S60
M190 S60
M104 S190 T0
M109 S190 T0
G28 ; home all axes
G92 E0
G1 E-1 F1800
; layer 1, Z = 0.09
T0
; tool H0.1 W0.48
G1 X60.435 Y102.89 F4800
G1 Z0.09 F1002
G1 E0 F540
G92 E0
G1 X60.7 Y102.78 E0.0019 F1800
G1 X189.3 Y102.78 E0.843
G1 X189.565 Y102.89 E0.8448
G1 X192.11 Y105.435 E0.8684
G1 X192.22 Y105.7 E0.8703
G1 X192.22 Y144.3 E1.1227
G1 X192.11 Y144.565 E1.1246
G1 X189.565 Y147.11 E1.1481
G1 X189.3 Y147.22 E1.15
G1 X60.7 Y147.22 E1.9911
G1 X60.435 Y147.11 E1.993
G1 X57.89 Y144.565 E2.0165
G1 X57.78 Y144.3 E2.0184
G1 X57.78 Y105.7 E2.2708
G1 X57.89 Y105.435 E2.2727
G1 X60.435 Y102.89 E2.2963
G1 X60.707 Y103.297 F4800
G92 E0
G1 X60.795 Y103.26 E0.0006 F1800
G1 X189.205 Y103.26 E0.8405
G1 X189.293 Y103.297 E0.8411
G1 X191.703 Y105.707 E0.8634
G1 X191.74 Y105.795 E0.864
G1 X191.74 Y144.205 E1.1152
G1 X191.703 Y144.293 E1.1158
G1 X189.293 Y146.703 E1.1381
G1 X189.205 Y146.74 E1.1388
G1 X60.795 Y146.74 E1.9786
G1 X60.707 Y146.703 E1.9792
G1 X58.297 Y144.293 E2.0015
G1 X58.26 Y144.205 E2.0021
G1 X58.26 Y105.795 E2.2533
G1 X58.297 Y105.707 E2.254
G1 X60.707 Y103.297 E2.2763
G92 E0
G1 E-1 F1800
G1 X63.22 Y108.22 F4800
G1 E0 F1800
G92 E0
G1 X186.78 Y108.22 E0.8081 F1350
G1 X186.78 Y141.78 E1.0276
G1 X63.22 Y141.78 E1.8357
G1 X63.22 Y108.22 E2.0552
G1 X62.74 Y107.74 F4800
G92 E0
G1 X187.26 Y107.74 E0.8144 F900
G1 X187.26 Y142.26 E1.0402
G1 X62.74 Y142.26 E1.8546
G1 X62.74 Y107.74 E2.0803
G1 X63.628 Y109.113 F4800
G92 E0
G1 X64.113 Y108.628 E0.0045 F1440
G1 X64.791 Y108.628 E0.0089
G1 X63.628 Y109.791 E0.0197
G1 X63.628 Y110.47 E0.0241
G1 X65.47 Y108.628 E0.0412
G1 X66.149 Y108.628 E0.0456
G1 X63.628 Y111.149 E0.0689
G1 X63.628 Y111.828 E0.0734
G1 X66.828 Y108.628 E0.103
G1 X67.507 Y108.628 E0.1074
G1 X63.628 Y112.507 E0.1433
G1 X63.628 Y113.185 E0.1477
G1 X68.185 Y108.628 E0.1899
G1 X68.864 Y108.628 E0.1943
G1 X63.628 Y113.864 E0.2427
G1 X63.628 Y114.543 E0.2472
G1 X69.543 Y108.628 E0.3019
G1 X70.222 Y108.628 E0.3063
G1 X63.628 Y115.222 E0.3673
G1 X63.628 Y115.901 E0.3718
G1 X70.901 Y108.628 E0.439
G1 X71.58 Y108.628 E0.4435
G1 X63.628 Y116.58 E0.517
G1 X63.628 Y117.258 E0.5215
G1 X72.258 Y108.628 E0.6013
G1 X72.937 Y108.628 E0.6057
G1 X63.628 Y117.937 E0.6918
G1 X63.628 Y118.616 E0.6963
G1 X73.616 Y108.628 E0.7886
G1 X74.295 Y108.628 E0.7931
G1 X63.628 Y119.295 E0.8917
G1 X63.628 Y119.974 E0.8962
G1 X74.974 Y108.628 E1.0011
G1 X75.653 Y108.628 E1.0056
G1 X63.628 Y120.653 E1.1168
G1 X63.628 Y121.331 E1.1212
G1 X76.331 Y108.628 E1.2387
G1 X77.01 Y108.628 E1.2432
G1 X63.628 Y122.01 E1.3669
G1 X63.628 Y122.689 E1.3714
G1 X77.689 Y108.628 E1.5014
G1 X78.368 Y108.628 E1.5059
G1 X63.628 Y123.368 E1.6422
G1 X63.628 Y124.047 E1.6467
G1 X79.047 Y108.628 E1.7893
G1 X79.725 Y108.628 E1.7937
G1 X63.628 Y124.725 E1.9426
G1 X63.628 Y125.404 E1.947
G1 X80.404 Y108.628 E2.1022
G1 X81.083 Y108.628 E2.1066
G1 X63.628 Y126.083 E2.2681
G1 X63.628 Y126.762 E2.2725
G1 X81.762 Y108.628 E2.4403
G1 X82.441 Y108.628 E2.4447
G1 X63.628 Y127.441 E2.6187
G1 X63.628 Y128.12 E2.6231
G1 X83.12 Y108.628 E2.8034
G1 X83.798 Y108.628 E2.8079
G1 X63.628 Y128.798 E2.9944
G1 X63.628 Y129.477 E2.9989
G1 X84.477 Y108.628 E3.1917
G1 X85.156 Y108.628 E3.1962
G1 X63.628 Y130.156 E3.3953
G1 X63.628 Y130.835 E3.3997
G1 X85.835 Y108.628 E3.6051
G1 X86.514 Y108.628 E3.6096
G1 X63.628 Y131.514 E3.8212
G1 X63.628 Y132.193 E3.8257
G1 X87.193 Y108.628 E4.0436
G1 X87.871 Y108.628 E4.0481
G1 X63.628 Y132.871 E4.2723
G1 X63.628 Y133.55 E4.2768
G1 X88.55 Y108.628 E4.5073
G1 X89.229 Y108.628 E4.5117
G1 X63.628 Y134.229 E4.7485
G1 X63.628 Y134.908 E4.7529
G1 X89.908 Y108.628 E4.996
G1 X90.587 Y108.628 E5.0004
G1 X63.628 Y135.587 E5.2498
G1 X63.628 Y136.265 E5.2542
G1 X91.265 Y108.628 E5.5099
G1 X91.944 Y108.628 E5.5143
G1 X63.628 Y136.944 E5.7762
G1 X63.628 Y137.623 E5.7807
G1 X92.623 Y108.628 E6.0488
G1 X93.302 Y108.628 E6.0533
G1 X63.628 Y138.302 E6.3277
G1 X63.628 Y138.981 E6.3322
G1 X93.981 Y108.628 E6.6129
G1 X94.66 Y108.628 E6.6174
G1 X63.628 Y139.66 E6.9044
G1 X63.628 Y140.338 E6.9088
G1 X95.338 Y108.628 E7.2021
G1 X96.017 Y108.628 E7.2066
G1 X63.628 Y141.017 E7.5062
G1 X63.628 Y141.372 E7.5085
G1 X63.952 Y141.372 E7.5106
G1 X96.696 Y108.628 E7.8135
G1 X97.375 Y108.628 E7.8179
G1 X64.631 Y141.372 E8.1208
G1 X65.31 Y141.372 E8.1252
G1 X98.054 Y108.628 E8.4281
G1 X98.733 Y108.628 E8.4325
G1 X65.989 Y141.372 E8.7354
G1 X66.667 Y141.372 E8.7398
G1 X99.411 Y108.628 E9.0427
G1 X100.09 Y108.628 E9.0471
G1 X67.346 Y141.372 E9.35
G1 X68.025 Y141.372 E9.3544
G1 X100.769 Y108.628 E9.6573
G1 X101.448 Y108.628 E9.6617
G1 X68.704 Y141.372 E9.9646
G1 X69.383 Y141.372 E9.969
G1 X102.127 Y108.628 E10.2719
G1 X102.805 Y108.628 E10.2763
G1 X70.061 Y141.372 E10.5792
G1 X70.74 Y141.372 E10.5836
G1 X103.484 Y108.628 E10.8865
G1 X104.163 Y108.628 E10.8909
G1 X71.419 Y141.372 E11.1938
G1 X72.098 Y141.372 E11.1982
G1 X104.842 Y108.628 E11.5011
G1 X105.521 Y108.628 E11.5055
G1 X72.777 Y141.372 E11.8084
G1 X73.456 Y141.372 E11.8128
G1 X106.2 Y108.628 E12.1157
G1 X106.878 Y108.628 E12.1201
G1 X74.134 Y141.372 E12.423
G1 X74.813 Y141.372 E12.4274
G1 X107.557 Y108.628 E12.7303
G1 X108.236 Y108.628 E12.7347
G1 X75.492 Y141.372 E13.0376
G1 X76.171 Y141.372 E13.042
G1 X108.915 Y108.628 E13.3449
G1 X109.594 Y108.628 E13.3493
G1 X76.85 Y141.372 E13.6522
G1 X77.528 Y141.372 E13.6566
G1 X110.272 Y108.628 E13.9595
G1 X110.951 Y108.628 E13.9639
G1 X78.207 Y141.372 E14.2668
G1 X78.886 Y141.372 E14.2712
G1 X111.63 Y108.628 E14.5741
G1 X112.309 Y108.628 E14.5785
G1 X79.565 Y141.372 E14.8814
G1 X80.244 Y141.372 E14.8858
G1 X112.988 Y108.628 E15.1887
G1 X113.667 Y108.628 E15.1931
G1 X80.923 Y141.372 E15.496
G1 X81.601 Y141.372 E15.5004
G1 X114.345 Y108.628 E15.8033
G1 X115.024 Y108.628 E15.8077
G1 X82.28 Y141.372 E16.1106
G1 X82.959 Y141.372 E16.115
G1 X115.703 Y108.628 E16.4179
G1 X116.382 Y108.628 E16.4223
G1 X83.638 Y141.372 E16.7252
G1 X84.317 Y141.372 E16.7296
G1 X117.061 Y108.628 E17.0325
G1 X117.74 Y108.628 E17.0369
G1 X84.996 Y141.372 E17.3398
G1 X85.674 Y141.372 E17.3442
G1 X118.418 Y108.628 E17.6471
G1 X119.097 Y108.628 E17.6515
G1 X86.353 Y141.372 E17.9544
G1 X87.032 Y141.372 E17.9589
G1 X119.776 Y108.628 E18.2617
G1 X120.455 Y108.628 E18.2662
G1 X87.711 Y141.372 E18.569
G1 X88.39 Y141.372 E18.5735
G1 X121.134 Y108.628 E18.8763
G1 X121.812 Y108.628 E18.8808
G1 X89.068 Y141.372 E19.1836
G1 X89.747 Y141.372 E19.1881
G1 X122.491 Y108.628 E19.4909
G1 X123.17 Y108.628 E19.4954
G1 X90.426 Y141.372 E19.7982
G1 X91.105 Y141.372 E19.8027
G1 X123.849 Y108.628 E20.1055
G1 X124.528 Y108.628 E20.11
G1 X91.784 Y141.372 E20.4128
G1 X92.463 Y141.372 E20.4173
G1 X125.207 Y108.628 E20.7201
G1 X125.885 Y108.628 E20.7246
G1 X93.141 Y141.372 E21.0274
G1 X93.82 Y141.372 E21.0319
G1 X126.564 Y108.628 E21.3347
G1 X127.243 Y108.628 E21.3392
G1 X94.499 Y141.372 E21.642
G1 X95.178 Y141.372 E21.6465
G1 X127.922 Y108.628 E21.9493
G1 X128.601 Y108.628 E21.9538
G1 X95.857 Y141.372 E22.2566
G1 X96.536 Y141.372 E22.2611
G1 X129.28 Y108.628 E22.5639
G1 X129.958 Y108.628 E22.5684
G1 X97.214 Y141.372 E22.8712
G1 X97.893 Y141.372 E22.8757
G1 X130.637 Y108.628 E23.1785
G1 X131.316 Y108.628 E23.183
G1 X98.572 Y141.372 E23.4858
G1 X99.251 Y141.372 E23.4903
G1 X131.995 Y108.628 E23.7931
G1 X132.674 Y108.628 E23.7976
G1 X99.93 Y141.372 E24.1004
G1 X100.608 Y141.372 E24.1049
G1 X133.352 Y108.628 E24.4077
G1 X134.031 Y108.628 E24.4122
G1 X101.287 Y141.372 E24.715
G1 X101.966 Y141.372 E24.7195
G1 X134.71 Y108.628 E25.0223
G1 X135.389 Y108.628 E25.0268
G1 X102.645 Y141.372 E25.3296
G1 X103.324 Y141.372 E25.3341
G1 X136.068 Y108.628 E25.637
G1 X136.747 Y108.628 E25.6414
G1 X104.003 Y141.372 E25.9443
G1 X104.681 Y141.372 E25.9487
G1 X137.425 Y108.628 E26.2516
G1 X138.104 Y108.628 E26.256
G1 X105.36 Y141.372 E26.5589
G1 X106.039 Y141.372 E26.5633
G1 X138.783 Y108.628 E26.8662
G1 X139.462 Y108.628 E26.8706
G1 X106.718 Y141.372 E27.1735
G1 X107.397 Y141.372 E27.1779
G1 X140.141 Y108.628 E27.4808
G1 X140.819 Y108.628 E27.4852
G1 X108.075 Y141.372 E27.7881
G1 X108.754 Y141.372 E27.7925
G1 X141.498 Y108.628 E28.0954
G1 X142.177 Y108.628 E28.0998
G1 X109.433 Y141.372 E28.4027
G1 X110.112 Y141.372 E28.4071
G1 X142.856 Y108.628 E28.71
G1 X143.535 Y108.628 E28.7144
G1 X110.791 Y141.372 E29.0173
G1 X111.47 Y141.372 E29.0217
G1 X144.214 Y108.628 E29.3246
G1 X144.892 Y108.628 E29.329
G1 X112.148 Y141.372 E29.6319
G1 X112.827 Y141.372 E29.6363
G1 X145.571 Y108.628 E29.9392
G1 X146.25 Y108.628 E29.9436
G1 X113.506 Y141.372 E30.2465
G1 X114.185 Y141.372 E30.2509
G1 X146.929 Y108.628 E30.5538
G1 X147.608 Y108.628 E30.5582
G1 X114.864 Y141.372 E30.8611
G1 X115.543 Y141.372 E30.8655
G1 X148.287 Y108.628 E31.1684
G1 X148.965 Y108.628 E31.1728
G1 X116.221 Y141.372 E31.4757
G1 X116.9 Y141.372 E31.4801
G1 X149.644 Y108.628 E31.783
G1 X150.323 Y108.628 E31.7874
G1 X117.579 Y141.372 E32.0903
G1 X118.258 Y141.372 E32.0947
G1 X151.002 Y108.628 E32.3976
G1 X151.681 Y108.628 E32.402
G1 X118.937 Y141.372 E32.7049
G1 X119.615 Y141.372 E32.7093
G1 X152.359 Y108.628 E33.0122
G1 X153.038 Y108.628 E33.0166
G1 X120.294 Y141.372 E33.3195
G1 X120.973 Y141.372 E33.3239
G1 X153.717 Y108.628 E33.6268
G1 X154.396 Y108.628 E33.6312
G1 X121.652 Y141.372 E33.9341
G1 X122.331 Y141.372 E33.9385
G1 X155.075 Y108.628 E34.2414
G1 X155.754 Y108.628 E34.2458
G1 X123.01 Y141.372 E34.5487
G1 X123.688 Y141.372 E34.5531
G1 X156.432 Y108.628 E34.856
G1 X157.111 Y108.628 E34.8604
G1 X124.367 Y141.372 E35.1633
G1 X125.046 Y141.372 E35.1677
G1 X157.79 Y108.628 E35.4706
G1 X158.469 Y108.628 E35.475
G1 X125.725 Y141.372 E35.7779
G1 X126.404 Y141.372 E35.7823
G1 X159.148 Y108.628 E36.0852
G1 X159.827 Y108.628 E36.0896
G1 X127.083 Y141.372 E36.3925
G1 X127.761 Y141.372 E36.3969
G1 X160.505 Y108.628 E36.6998
G1 X161.184 Y108.628 E36.7042
G1 X128.44 Y141.372 E37.0071
G1 X129.119 Y141.372 E37.0115
G1 X161.863 Y108.628 E37.3144
G1 X162.542 Y108.628 E37.3189
G1 X129.798 Y141.372 E37.6217
G1 X130.477 Y141.372 E37.6262
G1 X163.221 Y108.628 E37.929
G1 X163.899 Y108.628 E37.9335
G1 X131.155 Y141.372 E38.2363
G1 X131.834 Y141.372 E38.2408
G1 X164.578 Y108.628 E38.5436
G1 X165.257 Y108.628 E38.5481
G1 X132.513 Y141.372 E38.8509
G1 X133.192 Y141.372 E38.8554
G1 X165.936 Y108.628 E39.1582
G1 X166.615 Y108.628 E39.1627
G1 X133.871 Y141.372 E39.4655
G1 X134.55 Y141.372 E39.47
G1 X167.294 Y108.628 E39.7728
G1 X167.972 Y108.628 E39.7773
G1 X135.228 Y141.372 E40.0801
G1 X135.907 Y141.372 E40.0846
G1 X168.651 Y108.628 E40.3874
G1 X169.33 Y108.628 E40.3919
G1 X136.586 Y141.372 E40.6947
G1 X137.265 Y141.372 E40.6992
G1 X170.009 Y108.628 E41.002
G1 X170.688 Y108.628 E41.0065
G1 X137.944 Y141.372 E41.3093
G1 X138.623 Y141.372 E41.3138
G1 X171.367 Y108.628 E41.6166
G1 X172.045 Y108.628 E41.6211
G1 X139.301 Y141.372 E41.9239
G1 X139.98 Y141.372 E41.9284
G1 X172.724 Y108.628 E42.2312
G1 X173.403 Y108.628 E42.2357
G1 X140.659 Y141.372 E42.5385
G1 X141.338 Y141.372 E42.543
G1 X174.082 Y108.628 E42.8458
G1 X174.761 Y108.628 E42.8503
G1 X142.017 Y141.372 E43.1531
G1 X142.695 Y141.372 E43.1576
G1 X175.439 Y108.628 E43.4604
G1 X176.118 Y108.628 E43.4649
G1 X143.374 Y141.372 E43.7677
G1 X144.053 Y141.372 E43.7722
G1 X176.797 Y108.628 E44.075
G1 X177.476 Y108.628 E44.0795
G1 X144.732 Y141.372 E44.3823
G1 X145.411 Y141.372 E44.3868
G1 X178.155 Y108.628 E44.6896
G1 X178.834 Y108.628 E44.6941
G1 X146.09 Y141.372 E44.997
G1 X146.768 Y141.372 E45.0014
G1 X179.512 Y108.628 E45.3043
G1 X180.191 Y108.628 E45.3087
G1 X147.447 Y141.372 E45.6116
G1 X148.126 Y141.372 E45.616
G1 X180.87 Y108.628 E45.9189
G1 X181.549 Y108.628 E45.9233
G1 X148.805 Y141.372 E46.2262
G1 X149.484 Y141.372 E46.2306
G1 X182.228 Y108.628 E46.5335
G1 X182.906 Y108.628 E46.5379
G1 X150.162 Y141.372 E46.8408
G1 X150.841 Y141.372 E46.8452
G1 X183.585 Y108.628 E47.1481
G1 X184.264 Y108.628 E47.1525
