; G-Code generated by Simplify3D(TM) Version 2.2.0
; Jan 25, 2015 at 8:34:01 PM
; Settings Summary
;   processName,PLA_Haul_Ass
;   applyToModels,Multi_Motor_Housing
;   profileLabel,-- Select Printer Profile --
;   printMaterial,PLA
;   printQuality,Fast
;   extruderName,Extruder 1
;   extruderToolheadNumber,0
;   extruderDiameter,0.4
;   extruderAutoWidth,1
;   extruderWidth,0.48
;   extrusionMultiplier,0.9
;   extruderUseRetract,1
;   extruderRetractionDistance,4
;   extruderExtraRestartDistance,0
;   extruderRetractionZLift,0
;   extruderRetractionSpeed,6000
;   extruderUseCoasting,0
;   extruderCoastingDistance,0.2
;   extruderUseWipe,0
;   extruderWipeDistance,5
;   primaryExtruder,0
;   layerHeight,0.3
;   topSolidLayers,3
;   bottomSolidLayers,3
;   perimeterOutlines,2
;   printPerimetersInsideOut,1
;   startPointOption,2
;   startPointOriginX,0
;   startPointOriginY,0
;   startPointOriginZ,300
;   sequentialIslands,0
;   spiralVaseMode,0
;   firstLayerHeightPercentage,150
;   firstLayerWidthPercentage,100
;   firstLayerUnderspeed,0.5
;   useRaft,0
;   raftExtruder,0
;   raftLayers,3
;   raftOffset,3
;   raftSeparationDistance,0.14
;   raftInfill,85
;   disableRaftBaseLayers,0
;   useSkirt,1
;   skirtExtruder,0
;   skirtLayers,1
;   skirtOutlines,4
;   skirtOffset,6
;   infillExtruder,0
;   externalInfillPattern,Rectilinear
;   infillPercentage,15
;   outlineOverlapPercentage,15
;   infillExtrusionWidthPercentage,100
;   minInfillLength,5
;   infillLayerInterval,1
;   randomInfillStartPoint,0
;   infillAngles,45,-45
;   generateSupport,1
;   supportExtruder,0
;   supportInfill,25
;   supportExtraInflation,0
;   denseSupportLayers,0
;   denseSupportInfill,70
;   supportLayerInterval,1
;   supportHorizontalPartOffset,0.5
;   supportUpperSeparationLayers,2
;   supportLowerSeparationLayers,1
;   supportGridSpacing,4.5
;   maxOverhangAngle,45
;   supportAngles,0
;   temperatureName,Extruder 1 Temperature,Heated Bed
;   temperatureNumber,0,0
;   temperatureSetpointCount,1,1
;   temperatureSetpointLayers,1,1
;   temperatureSetpointTemperatures,190,60
;   temperatureStabilizeAtStartup,1,1
;   temperatureHeatedBed,0,1
;   temperatureRelayBetweenLayers,0,0
;   temperatureRelayBetweenLoops,0,0
;   fanLayers,1,2
;   fanSpeeds,0,100
;   blipFanToFullPower,0
;   adjustSpeedForCooling,1
;   minSpeedLayerTime,15
;   minCoolingSpeedSlowdown,20
;   increaseFanForCooling,0
;   minFanLayerTime,45
;   maxCoolingFanSpeed,100
;   increaseFanForBridging,0
;   bridgingFanSpeed,100
;   use5D,1
;   relativeEdistances,0
;   allowEaxisZeroing,1
;   independentExtruderAxes,0
;   includeM10123,0
;   stickySupport,1
;   detectArcs,0
;   arcReplaceG2G3,0
;   arcRadialCompensation,1
;   gcodeXoffset,0
;   gcodeYoffset,0
;   gcodeZoffset,0
;   overrideMachineDefinition,0
;   machineTypeOverride,0
;   strokeXoverride,250
;   strokeYoverride,250
;   strokeZoverride,250
;   originOffsetXoverride,0
;   originOffsetYoverride,0
;   originOffsetZoverride,0
;   homeXdirOverride,-1
;   homeYdirOverride,-1
;   homeZdirOverride,-1
;   flipXoverride,1
;   flipYoverride,-1
;   flipZoverride,1
;   startingGcode,G28 ; home all axes
;   layerChangeGcode,
;   toolChangeGcode,
;   endingGcode,M104 S0 ; turn off extruder,M140 S0 ; turn off bed,G28 ; home all axes,M84 ; disable motors
;   createX3G,0
;   celebration,0
;   celebrationSong,Random Song
;   createMB5G,0
;   postProcessing,
;   defaultSpeed,4200
;   outlineUnderspeed,0.7
;   solidInfillUnderspeed,0.8
;   supportUnderspeed,0.8
;   rapidXYspeed,6000
;   rapidZspeed,1500
;   minBridgingArea,50
;   bridgingExtrusionMultiplier,1
;   bridgingSpeedMultiplier,1
;   filamentDiameter,2.9
;   filamentPricePerKg,46
;   useMinPrintHeight,0
;   minPrintHeight,0
;   useMaxPrintHeight,0
;   maxPrintHeight,0
;   useDiaphragm,0
;   diaphragmLayerInterval,20
;   robustSlicing,1
;   mergeAllIntoSolid,0
;   onlyRetractWhenCrossingOutline,1
;   retractBetweenLayers,1
;   useRetractionMinTravel,0
;   retractionMinTravel,3
;   useRetractionOozeRate,0
;   retractionOozeRate,6000
;   onlyWipeOutlines,1
;   toolChangeRetractionDistance,12
;   toolChangeExtraRestartDistance,-0.5
;   toolChangeRetractionSpeed,600
;   allowThinWallGapFill,1
;   thinWallAllowedOverlapPercentage,10
G90
M82
M106 S0
M140 S60
M190 S60
M104 S190 T0
M109 S190 T0
G28 ; home all axes
G92 E0
G1 E-4 F6000
; layer 1, Z = 0.45
T0
; tool H0.45 W0.48
G1 X55.561 Y100.076 F6000
G1 Z0.45 F1500
G1 E0 F1800
G92 E0
G1 X56.179 Y99.82 E0.0197 F2100
G1 X193.818 Y99.82 E4.0706
G1 X194.435 Y100.076 E4.0902
G1 X198.423 Y104.063 E4.2562
G1 X198.678 Y104.681 E4.2759
G1 X198.678 Y145.319 E5.4719
G1 X198.423 Y145.937 E5.4916
G1 X194.435 Y149.924 E5.6576
G1 X193.818 Y150.18 E5.6772
G1 X56.179 Y150.18 E9.7281
G1 X55.561 Y149.924 E9.7478
G1 X51.574 Y145.937 E9.9138
G1 X51.318 Y145.319 E9.9334
G1 X51.318 Y104.681 E11.1295
G1 X51.574 Y104.063 E11.1492
G1 X55.561 Y100.076 E11.3151
G1 X55.833 Y100.483 F6000
G92 E0
G1 X56.274 Y100.3 E0.0141 F2100
G1 X193.722 Y100.3 E4.0593
G1 X194.163 Y100.483 E4.0734
G1 X198.016 Y104.335 E4.2337
G1 X198.198 Y104.776 E4.2478
G1 X198.198 Y145.224 E5.4382
G1 X198.016 Y145.665 E5.4523
G1 X194.163 Y149.517 E5.6126
G1 X193.722 Y149.7 E5.6267
G1 X56.274 Y149.7 E9.6719
G1 X55.833 Y149.517 E9.686
G1 X51.981 Y145.665 E9.8463
G1 X51.798 Y145.224 E9.8604
G1 X51.798 Y104.776 E11.0508
G1 X51.981 Y104.335 E11.0649
G1 X55.833 Y100.483 E11.2252
G1 X56.105 Y100.89 F6000
G92 E0
G1 X56.37 Y100.78 E0.0084 F2100
G1 X193.627 Y100.78 E4.0481
G1 X193.891 Y100.89 E4.0565
G1 X197.609 Y104.607 E4.2112
G1 X197.718 Y104.871 E4.2197
G1 X197.718 Y145.128 E5.4045
G1 X197.609 Y145.393 E5.4129
G1 X193.891 Y149.11 E5.5676
G1 X193.627 Y149.22 E5.5761
G1 X56.37 Y149.22 E9.6157
G1 X56.105 Y149.11 E9.6242
G1 X52.388 Y145.393 E9.7789
G1 X52.278 Y145.128 E9.7873
G1 X52.278 Y104.871 E10.9721
G1 X52.388 Y104.607 E10.9806
G1 X56.105 Y100.89 E11.1353
G1 X56.377 Y101.297 F6000
G92 E0
G1 X56.465 Y101.26 E0.0028 F2100
G1 X193.531 Y101.26 E4.0369
G1 X193.62 Y101.297 E4.0397
G1 X197.202 Y104.879 E4.1888
G1 X197.238 Y104.967 E4.1916
G1 X197.238 Y145.033 E5.3708
G1 X197.202 Y145.121 E5.3736
G1 X193.62 Y148.703 E5.5227
G1 X193.531 Y148.74 E5.5255
G1 X56.465 Y148.74 E9.5595
G1 X56.377 Y148.703 E9.5623
G1 X52.795 Y145.121 E9.7114
G1 X52.758 Y145.033 E9.7143
G1 X52.758 Y104.967 E10.8934
G1 X52.795 Y104.879 E10.8963
G1 X56.377 Y101.297 E11.0454
G92 E0
G1 E-4 F6000
G1 X59.718 Y108.22 F6000
G1 E0 F6000
G92 E0
G1 X190.278 Y108.22 E3.8426 F1785
G1 X190.278 Y141.78 E4.8303
G1 X59.718 Y141.78 E8.6728
G1 X59.718 Y108.22 E9.6606
G1 X59.238 Y107.74 F6000
G92 E0
G1 X190.758 Y107.74 E3.8708 F1470
G1 X190.758 Y142.26 E4.8868
G1 X59.238 Y142.26 E8.7576
G1 X59.238 Y107.74 E9.7736
G1 X60.126 Y109.113 F6000
G92 E0
G1 X60.611 Y108.628 E0.0202 F1680
G1 X61.29 Y108.628 E0.0401
G1 X60.126 Y109.791 E0.0886
G1 X60.126 Y110.47 E0.1085
G1 X61.968 Y108.628 E0.1852
G1 X62.647 Y108.628 E0.2052
G1 X60.126 Y111.149 E0.3101
G1 X60.126 Y111.828 E0.3301
G1 X63.326 Y108.628 E0.4633
G1 X64.005 Y108.628 E0.4833
G1 X60.126 Y112.507 E0.6447
G1 X60.126 Y113.185 E0.6647
G1 X64.684 Y108.628 E0.8544
G1 X65.363 Y108.628 E0.8744
G1 X60.126 Y113.864 E1.0923
G1 X60.126 Y114.543 E1.1123
G1 X66.041 Y108.628 E1.3585
G1 X66.72 Y108.628 E1.3785
G1 X60.126 Y115.222 E1.6529
G1 X60.126 Y115.901 E1.6729
G1 X67.399 Y108.628 E1.9756
G1 X68.078 Y108.628 E1.9956
G1 X60.126 Y116.58 E2.3266
G1 X60.126 Y117.258 E2.3465
G1 X68.757 Y108.628 E2.7058
G1 X69.436 Y108.628 E2.7257
G1 X60.126 Y117.937 E3.1132
G1 X60.126 Y118.616 E3.1332
G1 X70.114 Y108.628 E3.5489
G1 X70.793 Y108.628 E3.5689
G1 X60.126 Y119.295 E4.0129
G1 X60.126 Y119.974 E4.0328
G1 X71.472 Y108.628 E4.5051
G1 X72.151 Y108.628 E4.5251
G1 X60.126 Y120.653 E5.0255
G1 X60.126 Y121.331 E5.0455
G1 X72.83 Y108.628 E5.5743
G1 X73.508 Y108.628 E5.5942
G1 X60.126 Y122.01 E6.1512
G1 X60.126 Y122.689 E6.1712
G1 X74.187 Y108.628 E6.7565
G1 X74.866 Y108.628 E6.7764
G1 X60.126 Y123.368 E7.39
G1 X60.126 Y124.047 E7.4099
G1 X75.545 Y108.628 E8.0517
G1 X76.224 Y108.628 E8.0717
G1 X60.126 Y124.725 E8.7417
G1 X60.126 Y125.404 E8.7617
G1 X76.903 Y108.628 E9.4599
G1 X77.581 Y108.628 E9.4799
G1 X60.126 Y126.083 E10.2064
G1 X60.126 Y126.762 E10.2264
G1 X78.26 Y108.628 E10.9812
G1 X78.939 Y108.628 E11.0012
G1 X60.126 Y127.441 E11.7842
G1 X60.126 Y128.12 E11.8042
G1 X79.618 Y108.628 E12.6155
G1 X80.297 Y108.628 E12.6354
G1 X60.126 Y128.798 E13.475
G1 X60.126 Y129.477 E13.4949
G1 X80.976 Y108.628 E14.3627
G1 X81.654 Y108.628 E14.3827
G1 X60.126 Y130.156 E15.2788
G1 X60.126 Y130.835 E15.2987
G1 X82.333 Y108.628 E16.223
G1 X83.012 Y108.628 E16.243
G1 X60.126 Y131.514 E17.1956
G1 X60.126 Y132.193 E17.2156
G1 X83.691 Y108.628 E18.1964
G1 X84.37 Y108.628 E18.2163
G1 X60.126 Y132.871 E19.2254
G1 X60.126 Y133.55 E19.2454
G1 X85.048 Y108.628 E20.2827
G1 X85.727 Y108.628 E20.3027
G1 X60.126 Y134.229 E21.3682
G1 X60.126 Y134.908 E21.3882
G1 X86.406 Y108.628 E22.482
G1 X87.085 Y108.628 E22.502
G1 X60.126 Y135.587 E23.6241
G1 X60.126 Y136.265 E23.6441
G1 X87.764 Y108.628 E24.7944
G1 X88.443 Y108.628 E24.8144
G1 X60.126 Y136.944 E25.993
G1 X60.126 Y137.623 E26.013
G1 X89.121 Y108.628 E27.2198
G1 X89.8 Y108.628 E27.2398
G1 X60.126 Y138.302 E28.4749
G1 X60.126 Y138.981 E28.4949
G1 X90.479 Y108.628 E29.7582
G1 X91.158 Y108.628 E29.7782
G1 X60.126 Y139.66 E31.0698
G1 X60.126 Y140.338 E31.0898
G1 X91.837 Y108.628 E32.4096
G1 X92.516 Y108.628 E32.4296
G1 X60.126 Y141.017 E33.7777
G1 X60.126 Y141.372 E33.7882
G1 X60.45 Y141.372 E33.7977
G1 X93.194 Y108.628 E35.1606
G1 X93.873 Y108.628 E35.1805
G1 X61.129 Y141.372 E36.5434
G1 X61.808 Y141.372 E36.5634
G1 X94.552 Y108.628 E37.9263
G1 X95.231 Y108.628 E37.9463
G1 X62.487 Y141.372 E39.3091
G1 X63.166 Y141.372 E39.3291
G1 X95.91 Y108.628 E40.692
G1 X96.588 Y108.628 E40.712
G1 X63.844 Y141.372 E42.0749
G1 X64.523 Y141.372 E42.0948
G1 X97.267 Y108.628 E43.4577
G1 X97.946 Y108.628 E43.4777
G1 X65.202 Y141.372 E44.8406
G1 X65.881 Y141.372 E44.8605
G1 X98.625 Y108.628 E46.2234
G1 X99.304 Y108.628 E46.2434
G1 X66.56 Y141.372 E47.6063
G1 X67.239 Y141.372 E47.6263
G1 X99.983 Y108.628 E48.9891
G1 X100.661 Y108.628 E49.0091
G1 X67.917 Y141.372 E50.372
G1 X68.596 Y141.372 E50.392
G1 X101.34 Y108.628 E51.7549
G1 X102.019 Y108.628 E51.7748
G1 X69.275 Y141.372 E53.1377
G1 X69.954 Y141.372 E53.1577
G1 X102.698 Y108.628 E54.5206
G1 X103.377 Y108.628 E54.5405
G1 X70.633 Y141.372 E55.9034
G1 X71.311 Y141.372 E55.9234
G1 X104.055 Y108.628 E57.2863
G1 X104.734 Y108.628 E57.3063
G1 X71.99 Y141.372 E58.6691
G1 X72.669 Y141.372 E58.6891
G1 X105.413 Y108.628 E60.052
G1 X106.092 Y108.628 E60.072
G1 X73.348 Y141.372 E61.4349
G1 X74.027 Y141.372 E61.4548
G1 X106.771 Y108.628 E62.8177
G1 X107.45 Y108.628 E62.8377
G1 X74.706 Y141.372 E64.2006
G1 X75.384 Y141.372 E64.2205
G1 X108.128 Y108.628 E65.5834
G1 X108.807 Y108.628 E65.6034
G1 X76.063 Y141.372 E66.9663
G1 X76.742 Y141.372 E66.9863
G1 X109.486 Y108.628 E68.3491
G1 X110.165 Y108.628 E68.3691
G1 X77.421 Y141.372 E69.732
G1 X78.1 Y141.372 E69.752
G1 X110.844 Y108.628 E71.1149
G1 X111.523 Y108.628 E71.1348
G1 X78.779 Y141.372 E72.4977
G1 X79.457 Y141.372 E72.5177
G1 X112.201 Y108.628 E73.8806
G1 X112.88 Y108.628 E73.9005
G1 X80.136 Y141.372 E75.2634
G1 X80.815 Y141.372 E75.2834
G1 X113.559 Y108.628 E76.6463
G1 X114.238 Y108.628 E76.6663
G1 X81.494 Y141.372 E78.0291
G1 X82.173 Y141.372 E78.0491
G1 X114.917 Y108.628 E79.412
G1 X115.595 Y108.628 E79.432
G1 X82.851 Y141.372 E80.7949
G1 X83.53 Y141.372 E80.8148
G1 X116.274 Y108.628 E82.1777
G1 X116.953 Y108.628 E82.1977
G1 X84.209 Y141.372 E83.5606
G1 X84.888 Y141.372 E83.5805
G1 X117.632 Y108.628 E84.9434
G1 X118.311 Y108.628 E84.9634
G1 X85.567 Y141.372 E86.3263
G1 X86.246 Y141.372 E86.3463
G1 X118.99 Y108.628 E87.7091
G1 X119.668 Y108.628 E87.7291
G1 X86.924 Y141.372 E89.092
G1 X87.603 Y141.372 E89.112
G1 X120.347 Y108.628 E90.4749
G1 X121.026 Y108.628 E90.4948
G1 X88.282 Y141.372 E91.8577
G1 X88.961 Y141.372 E91.8777
G1 X121.705 Y108.628 E93.2406
G1 X122.384 Y108.628 E93.2605
G1 X89.64 Y141.372 E94.6234
G1 X90.319 Y141.372 E94.6434
G1 X123.063 Y108.628 E96.0063
G1 X123.741 Y108.628 E96.0263
G1 X90.997 Y141.372 E97.3891
G1 X91.676 Y141.372 E97.4091
G1 X124.42 Y108.628 E98.772
G1 X125.099 Y108.628 E98.792
G1 X92.355 Y141.372 E100.1549
G1 X93.034 Y141.372 E100.1748
G1 X125.778 Y108.628 E101.5377
G1 X126.457 Y108.628 E101.5577
G1 X93.713 Y141.372 E102.9206
G1 X94.391 Y141.372 E102.9405
G1 X127.135 Y108.628 E104.3034
G1 X127.814 Y108.628 E104.3234
G1 X95.07 Y141.372 E105.6863
G1 X95.749 Y141.372 E105.7063
G1 X128.493 Y108.628 E107.0691
G1 X129.172 Y108.628 E107.0891
G1 X96.428 Y141.372 E108.452
G1 X97.107 Y141.372 E108.472
G1 X129.851 Y108.628 E109.8349
G1 X130.53 Y108.628 E109.8548
G1 X97.786 Y141.372 E111.2177
G1 X98.464 Y141.372 E111.2377
G1 X131.208 Y108.628 E112.6006
G1 X131.887 Y108.628 E112.6205
G1 X99.143 Y141.372 E113.9834
G1 X99.822 Y141.372 E114.0034
G1 X132.566 Y108.628 E115.3663
G1 X133.245 Y108.628 E115.3863
G1 X100.501 Y141.372 E116.7491
G1 X101.18 Y141.372 E116.7691
G1 X133.924 Y108.628 E118.132
G1 X134.602 Y108.628 E118.152
G1 X101.858 Y141.372 E119.5149
G1 X102.537 Y141.372 E119.5348
G1 X135.281 Y108.628 E120.8977
G1 X135.96 Y108.628 E120.9177
G1 X103.216 Y141.372 E122.2806
G1 X103.895 Y141.372 E122.3005
G1 X136.639 Y108.628 E123.6634
G1 X137.318 Y108.628 E123.6834
G1 X104.574 Y141.372 E125.0463
G1 X105.253 Y141.372 E125.0663
G1 X137.997 Y108.628 E126.4291
G1 X138.675 Y108.628 E126.4491
G1 X105.931 Y141.372 E127.812
G1 X106.61 Y141.372 E127.832
G1 X139.354 Y108.628 E129.1949
G1 X140.033 Y108.628 E129.2148
G1 X107.289 Y141.372 E130.5777
G1 X107.968 Y141.372 E130.5977
G1 X140.712 Y108.628 E131.9606
G1 X141.391 Y108.628 E131.9805
G1 X108.647 Y141.372 E133.3434
G1 X109.326 Y141.372 E133.3634
G1 X142.07 Y108.628 E134.7263
G1 X142.748 Y108.628 E134.7463
G1 X110.004 Y141.372 E136.1091
G1 X110.683 Y141.372 E136.1291
G1 X143.427 Y108.628 E137.492
G1 X144.106 Y108.628 E137.512
G1 X111.362 Y141.372 E138.8749
G1 X112.041 Y141.372 E138.8948
G1 X144.785 Y108.628 E140.2577
G1 X145.464 Y108.628 E140.2777
G1 X112.72 Y141.372 E141.6406
G1 X113.398 Y141.372 E141.6605
G1 X146.142 Y108.628 E143.0234
G1 X146.821 Y108.628 E143.0434
G1 X114.077 Y141.372 E144.4063
G1 X114.756 Y141.372 E144.4263
G1 X147.5 Y108.628 E145.7891
G1 X148.179 Y108.628 E145.8091
G1 X115.435 Y141.372 E147.172
G1 X116.114 Y141.372 E147.192
G1 X148.858 Y108.628 E148.5549
G1 X149.537 Y108.628 E148.5748
G1 X116.793 Y141.372 E149.9377
G1 X117.471 Y141.372 E149.9577
G1 X150.215 Y108.628 E151.3206
G1 X150.894 Y108.628 E151.3405
G1 X118.15 Y141.372 E152.7034
G1 X118.829 Y141.372 E152.7234
G1 X151.573 Y108.628 E154.0863
G1 X152.252 Y108.628 E154.1063
G1 X119.508 Y141.372 E155.4691
G1 X120.187 Y141.372 E155.4891
G1 X152.931 Y108.628 E156.852
G1 X153.61 Y108.628 E156.872
G1 X120.866 Y141.372 E158.2349
G1 X121.544 Y141.372 E158.2548
G1 X154.288 Y108.628 E159.6177
G1 X154.967 Y108.628 E159.6377
G1 X122.223 Y141.372 E161.0006
G1 X122.902 Y141.372 E161.0205
G1 X155.646 Y108.628 E162.3834
G1 X156.325 Y108.628 E162.4034
G1 X123.581 Y141.372 E163.7663
G1 X124.26 Y141.372 E163.7863
G1 X157.004 Y108.628 E165.1491
G1 X157.682 Y108.628 E165.1691
G1 X124.938 Y141.372 E166.532
G1 X125.617 Y141.372 E166.552
G1 X158.361 Y108.628 E167.9149
G1 X159.04 Y108.628 E167.9348
G1 X126.296 Y141.372 E169.2977
G1 X126.975 Y141.372 E169.3177
G1 X159.719 Y108.628 E170.6806
G1 X160.398 Y108.628 E170.7005
G1 X127.654 Y141.372 E172.0634
G1 X128.333 Y141.372 E172.0834
G1 X161.077 Y108.628 E173.4463
G1 X161.755 Y108.628 E173.4663
G1 X129.011 Y141.372 E174.8291
G1 X129.69 Y141.372 E174.8491
G1 X162.434 Y108.628 E176.212
G1 X163.113 Y108.628 E176.232
G1 X130.369 Y141.372 E177.5949
G1 X131.048 Y141.372 E177.6148
G1 X163.792 Y108.628 E178.9777
G1 X164.471 Y108.628 E178.9977
G1 X131.727 Y141.372 E180.3606
G1 X132.406 Y141.372 E180.3805
G1 X165.15 Y108.628 E181.7434
G1 X165.828 Y108.628 E181.7634
G1 X133.084 Y141.372 E183.1263
G1 X133.763 Y141.372 E183.1463
G1 X166.507 Y108.628 E184.5091
