; G-Code generated by Simplify3D(TM) Version 2.2.0
; Dec 26, 2014 at 11:11:52 AM
; Settings Summary
;   processName,Nylon 40% no fill
;   applyToModels,Gear,Rack
;   profileLabel,-- Select Printer Profile --
;   printMaterial,Nylon
;   printQuality,Medium
;   extruderName,Extruder 1
;   extruderToolheadNumber,0
;   extruderDiameter,0.4
;   extruderAutoWidth,0
;   extruderWidth,0.4
;   extrusionMultiplier,1
;   extruderUseRetract,1
;   extruderRetractionDistance,2
;   extruderExtraRestartDistance,0.2
;   extruderRetractionZLift,0
;   extruderRetractionSpeed,2400
;   extruderUseCoasting,0
;   extruderCoastingDistance,0.2
;   extruderUseWipe,0
;   extruderWipeDistance,5
;   primaryExtruder,0
;   layerHeight,0.3
;   topSolidLayers,4
;   bottomSolidLayers,4
;   perimeterOutlines,4
;   printPerimetersInsideOut,1
;   startPointOption,2
;   startPointOriginX,0
;   startPointOriginY,0
;   startPointOriginZ,300
;   sequentialIslands,0
;   spiralVaseMode,0
;   firstLayerHeightPercentage,90
;   firstLayerWidthPercentage,100
;   firstLayerUnderspeed,0.5
;   useRaft,0
;   raftExtruder,0
;   raftLayers,3
;   raftOffset,3
;   raftSeparationDistance,0.14
;   raftInfill,85
;   disableRaftBaseLayers,0
;   useSkirt,1
;   skirtExtruder,0
;   skirtLayers,1
;   skirtOutlines,3
;   skirtOffset,4
;   infillExtruder,0
;   externalInfillPattern,Rectilinear
;   infillPercentage,20
;   outlineOverlapPercentage,15
;   infillExtrusionWidthPercentage,100
;   minInfillLength,6
;   infillLayerInterval,1
;   randomInfillStartPoint,1
;   infillAngles,45,-45
;   generateSupport,0
;   supportExtruder,0
;   supportInfill,30
;   supportExtraInflation,0
;   denseSupportLayers,0
;   denseSupportInfill,50
;   supportLayerInterval,1
;   supportHorizontalPartOffset,0.4
;   supportUpperSeparationLayers,1
;   supportLowerSeparationLayers,1
;   supportGridSpacing,4
;   maxOverhangAngle,45
;   supportAngles,0
;   temperatureName,Extruder 1 Temperature,Heated Bed
;   temperatureNumber,0,0
;   temperatureSetpointCount,1,3
;   temperatureSetpointLayers,1,1,2,3
;   temperatureSetpointTemperatures,245,70,80,90
;   temperatureStabilizeAtStartup,1,1
;   temperatureHeatedBed,0,1
;   temperatureRelayBetweenLayers,0,0
;   temperatureRelayBetweenLoops,0,0
;   fanLayers,1
;   fanSpeeds,0
;   blipFanToFullPower,0
;   adjustSpeedForCooling,1
;   minSpeedLayerTime,15
;   minCoolingSpeedSlowdown,20
;   increaseFanForCooling,0
;   minFanLayerTime,45
;   maxCoolingFanSpeed,100
;   increaseFanForBridging,0
;   bridgingFanSpeed,100
;   use5D,1
;   relativeEdistances,0
;   allowEaxisZeroing,1
;   independentExtruderAxes,0
;   includeM10123,0
;   stickySupport,1
;   detectArcs,0
;   arcReplaceG2G3,0
;   arcRadialCompensation,1
;   gcodeXoffset,0
;   gcodeYoffset,0
;   gcodeZoffset,0
;   overrideMachineDefinition,0
;   machineTypeOverride,0
;   strokeXoverride,250
;   strokeYoverride,250
;   strokeZoverride,250
;   originOffsetXoverride,0
;   originOffsetYoverride,0
;   originOffsetZoverride,0
;   homeXdirOverride,-1
;   homeYdirOverride,-1
;   homeZdirOverride,-1
;   flipXoverride,1
;   flipYoverride,-1
;   flipZoverride,1
;   startingGcode,G28 ; home all axes
;   layerChangeGcode,
;   toolChangeGcode,
;   endingGcode,M104 S0 ; turn off extruder,M140 S0 ; turn off bed,M84 ; disable motors
;   createX3G,0
;   celebration,0
;   celebrationSong,Random Song
;   createMB5G,0
;   postProcessing,
;   defaultSpeed,5000
;   outlineUnderspeed,0.5
;   solidInfillUnderspeed,0.8
;   supportUnderspeed,0.8
;   rapidXYspeed,4800
;   rapidZspeed,1000
;   minBridgingArea,50
;   bridgingExtrusionMultiplier,1
;   bridgingSpeedMultiplier,1
;   filamentDiameter,3
;   filamentPricePerKg,46
;   useMinPrintHeight,0
;   minPrintHeight,0
;   useMaxPrintHeight,0
;   maxPrintHeight,0
;   useDiaphragm,1
;   diaphragmLayerInterval,20
;   robustSlicing,1
;   mergeAllIntoSolid,0
;   onlyRetractWhenCrossingOutline,1
;   retractBetweenLayers,1
;   useRetractionMinTravel,0
;   retractionMinTravel,3
;   useRetractionOozeRate,0
;   retractionOozeRate,100
;   onlyWipeOutlines,1
;   toolChangeRetractionDistance,12
;   toolChangeExtraRestartDistance,-0.5
;   toolChangeRetractionSpeed,600
;   allowThinWallGapFill,1
;   thinWallAllowedOverlapPercentage,10
G90
M82
M106 S0
M140 S70
M190 S70
M104 S245 T0
M109 S245 T0
G28 ; home all axes
G92 E0
G1 E-2 F2400
; layer 1, Z = 0.27
T0
; tool H0.3 W0.4
G1 X46.238 Y107.093 F4800
G1 Z0.27 F1000
G1 E0.2 F720
G92 E0
G1 X46.474 Y106.999 E0.0043 F2500
G1 X48.571 Y106.74 E0.0402
G1 X50.419 Y105.718 E0.076
G1 X50.665 Y105.654 E0.0804
G1 X53.938 Y105.654 E0.1359
G1 X54.191 Y105.722 E0.1404
G1 X55.991 Y106.754 E0.1756
G1 X58.051 Y106.975 E0.2108
G1 X58.296 Y107.07 E0.2152
G1 X60.944 Y108.993 E0.2708
G1 X61.105 Y109.189 E0.2751
G1 X62.017 Y111.138 E0.3116
G1 X63.526 Y112.504 E0.3462
G1 X63.669 Y112.724 E0.3506
G1 X64.68 Y115.839 E0.4062
G1 X64.695 Y116.092 E0.4105
G1 X64.293 Y118.162 E0.4463
G1 X64.696 Y120.235 E0.4822
G1 X64.68 Y120.489 E0.4865
G1 X63.668 Y123.603 E0.5421
G1 X63.526 Y123.823 E0.5465
G1 X62.014 Y125.191 E0.5811
G1 X61.324 Y126.672 E0.6089
G1 X64.462 Y126.672 E0.6622
G1 X64.51 Y126.687 E0.663
G1 X64.558 Y126.672 E0.6639
G1 X68.462 Y126.672 E0.7301
G1 X68.51 Y126.687 E0.731
G1 X68.558 Y126.672 E0.7319
G1 X72.462 Y126.672 E0.7981
G1 X72.51 Y126.687 E0.799
G1 X72.558 Y126.672 E0.7998
G1 X76.462 Y126.672 E0.8661
G1 X76.51 Y126.687 E0.867
G1 X76.558 Y126.672 E0.8678
G1 X80.462 Y126.672 E0.9341
G1 X80.51 Y126.687 E0.935
G1 X80.558 Y126.672 E0.9358
G1 X84.462 Y126.672 E1.0021
G1 X84.51 Y126.687 E1.0029
G1 X84.558 Y126.672 E1.0038
G1 X88.462 Y126.672 E1.0701
G1 X88.51 Y126.687 E1.0709
G1 X88.558 Y126.672 E1.0718
G1 X92.462 Y126.672 E1.1381
G1 X92.51 Y126.687 E1.1389
G1 X92.558 Y126.672 E1.1398
G1 X96.462 Y126.672 E1.206
G1 X96.51 Y126.687 E1.2069
G1 X96.558 Y126.672 E1.2078
G1 X100.462 Y126.672 E1.274
G1 X100.51 Y126.687 E1.2749
G1 X100.558 Y126.672 E1.2757
G1 X104.462 Y126.672 E1.342
G1 X104.51 Y126.687 E1.3429
G1 X104.558 Y126.672 E1.3437
G1 X108.462 Y126.672 E1.41
G1 X108.51 Y126.687 E1.4109
G1 X108.558 Y126.672 E1.4117
G1 X112.462 Y126.672 E1.478
G1 X112.51 Y126.687 E1.4788
G1 X112.558 Y126.672 E1.4797
G1 X116.462 Y126.672 E1.546
G1 X116.51 Y126.687 E1.5468
G1 X116.558 Y126.672 E1.5477
G1 X120.462 Y126.672 E1.614
G1 X120.51 Y126.687 E1.6148
G1 X120.558 Y126.672 E1.6157
G1 X124.462 Y126.672 E1.6819
G1 X124.51 Y126.687 E1.6828
G1 X124.558 Y126.672 E1.6837
G1 X128.462 Y126.672 E1.7499
G1 X128.51 Y126.687 E1.7508
G1 X128.558 Y126.672 E1.7516
G1 X132.462 Y126.672 E1.8179
G1 X132.51 Y126.687 E1.8188
G1 X132.558 Y126.672 E1.8196
G1 X136.462 Y126.672 E1.8859
G1 X136.51 Y126.687 E1.8868
G1 X136.558 Y126.672 E1.8876
G1 X140.462 Y126.672 E1.9539
G1 X140.51 Y126.687 E1.9547
G1 X140.558 Y126.672 E1.9556
G1 X144.462 Y126.672 E2.0219
G1 X144.51 Y126.687 E2.0227
G1 X144.558 Y126.672 E2.0236
G1 X148.462 Y126.672 E2.0899
G1 X148.51 Y126.687 E2.0907
G1 X148.558 Y126.672 E2.0916
G1 X152.462 Y126.672 E2.1578
G1 X152.51 Y126.687 E2.1587
G1 X152.558 Y126.672 E2.1596
G1 X156.462 Y126.672 E2.2258
G1 X156.51 Y126.687 E2.2267
G1 X156.558 Y126.672 E2.2275
G1 X160.462 Y126.672 E2.2938
G1 X160.51 Y126.687 E2.2947
G1 X160.558 Y126.672 E2.2955
G1 X164.462 Y126.672 E2.3618
G1 X164.51 Y126.687 E2.3627
G1 X164.558 Y126.672 E2.3635
G1 X168.462 Y126.672 E2.4298
G1 X168.51 Y126.687 E2.4306
G1 X168.558 Y126.672 E2.4315
G1 X172.462 Y126.672 E2.4978
G1 X172.51 Y126.687 E2.4986
G1 X172.558 Y126.672 E2.4995
G1 X176.462 Y126.672 E2.5658
G1 X176.51 Y126.687 E2.5666
G1 X176.558 Y126.672 E2.5675
G1 X180.462 Y126.672 E2.6337
G1 X180.51 Y126.687 E2.6346
G1 X180.558 Y126.672 E2.6355
G1 X184.462 Y126.672 E2.7017
G1 X184.51 Y126.687 E2.7026
G1 X184.558 Y126.672 E2.7034
G1 X188.462 Y126.672 E2.7697
G1 X188.51 Y126.687 E2.7706
G1 X188.558 Y126.672 E2.7714
G1 X192.462 Y126.672 E2.8377
G1 X192.51 Y126.687 E2.8386
G1 X192.558 Y126.672 E2.8394
G1 X196.462 Y126.672 E2.9057
G1 X196.51 Y126.687 E2.9065
G1 X196.558 Y126.672 E2.9074
G1 X200.462 Y126.672 E2.9737
G1 X200.51 Y126.687 E2.9745
G1 X200.558 Y126.672 E2.9754
G1 X204.462 Y126.672 E3.0417
G1 X204.755 Y126.765 E3.0469
G1 X207.073 Y128.388 E3.0949
G1 X207.261 Y128.632 E3.1002
G1 X207.778 Y130.053 E3.1258
G1 X209.848 Y132.123 E3.1755
G1 X210 Y132.49 E3.1823
G1 X210 Y141.202 E3.3302
G1 X209.848 Y141.569 E3.3369
G1 X207.223 Y144.194 E3.3999
G1 X206.856 Y144.346 E3.4067
G1 X43.144 Y144.346 E6.1859
G1 X42.777 Y144.194 E6.1927
G1 X40.152 Y141.569 E6.2557
G1 X40 Y141.202 E6.2624
G1 X40 Y133.952 E6.3855
G1 X40.008 Y133.865 E6.387
G1 X40.144 Y133.09 E6.4004
G1 X40.167 Y133.006 E6.4018
G1 X41.759 Y128.632 E6.4809
G1 X41.946 Y128.388 E6.4861
G1 X43.553 Y127.263 E6.5194
G1 X43.426 Y127.107 E6.5228
G1 X42.578 Y125.214 E6.558
G1 X41.039 Y123.822 E6.5932
G1 X40.897 Y123.602 E6.5977
G1 X39.886 Y120.488 E6.6533
G1 X39.871 Y120.234 E6.6576
G1 X40.279 Y118.128 E6.694
G1 X39.861 Y116.134 E6.7286
G1 X39.875 Y115.872 E6.733
G1 X40.886 Y112.759 E6.7886
G1 X41.023 Y112.545 E6.7929
G1 X42.594 Y111.077 E6.8294
G1 X43.424 Y109.222 E6.8639
G1 X43.589 Y109.018 E6.8684
G1 X46.238 Y107.093 E6.924
G1 X46.432 Y107.446 F4800
G92 E0
G1 X46.574 Y107.39 E0.0026 F2500
G1 X48.697 Y107.127 E0.0389
G1 X50.569 Y106.092 E0.0752
G1 X50.716 Y106.054 E0.0778
G1 X53.886 Y106.054 E0.1316
G1 X54.038 Y106.095 E0.1343
G1 X55.864 Y107.143 E0.17
G1 X57.956 Y107.368 E0.2058
G1 X58.103 Y107.424 E0.2084
G1 X60.667 Y109.287 E0.2622
G1 X60.764 Y109.405 E0.2648
G1 X61.689 Y111.38 E0.3019
G1 X63.219 Y112.765 E0.3369
G1 X63.305 Y112.897 E0.3396
G1 X64.284 Y115.914 E0.3934
G1 X64.293 Y116.066 E0.396
G1 X63.886 Y118.162 E0.4322
G1 X64.293 Y120.262 E0.4686
G1 X64.284 Y120.414 E0.4711
G1 X63.304 Y123.43 E0.525
G1 X63.218 Y123.562 E0.5276
G1 X61.685 Y124.949 E0.5627
G1 X60.767 Y126.918 E0.5996
G1 X60.67 Y127.036 E0.6022
G1 X60.621 Y127.072 E0.6033
G1 X64.4 Y127.072 E0.6674
G1 X64.51 Y127.107 E0.6694
G1 X64.62 Y127.072 E0.6713
G1 X68.4 Y127.072 E0.7355
G1 X68.51 Y127.107 E0.7375
G1 X68.62 Y127.072 E0.7394
G1 X72.4 Y127.072 E0.8036
G1 X72.51 Y127.107 E0.8055
G1 X72.62 Y127.072 E0.8075
G1 X76.4 Y127.072 E0.8717
G1 X76.51 Y127.107 E0.8736
G1 X76.62 Y127.072 E0.8756
G1 X80.4 Y127.072 E0.9398
G1 X80.51 Y127.107 E0.9417
G1 X80.62 Y127.072 E0.9437
G1 X84.4 Y127.072 E1.0079
G1 X84.51 Y127.107 E1.0098
G1 X84.62 Y127.072 E1.0118
G1 X88.4 Y127.072 E1.0759
G1 X88.51 Y127.107 E1.0779
G1 X88.62 Y127.072 E1.0798
G1 X92.4 Y127.072 E1.144
G1 X92.51 Y127.107 E1.146
G1 X92.62 Y127.072 E1.1479
G1 X96.4 Y127.072 E1.2121
G1 X96.51 Y127.107 E1.2141
G1 X96.62 Y127.072 E1.216
G1 X100.4 Y127.072 E1.2802
G1 X100.51 Y127.107 E1.2822
G1 X100.62 Y127.072 E1.2841
G1 X104.4 Y127.072 E1.3483
G1 X104.51 Y127.107 E1.3502
G1 X104.62 Y127.072 E1.3522
G1 X108.4 Y127.072 E1.4164
G1 X108.51 Y127.107 E1.4183
G1 X108.62 Y127.072 E1.4203
G1 X112.4 Y127.072 E1.4845
G1 X112.51 Y127.107 E1.4864
G1 X112.62 Y127.072 E1.4884
G1 X116.4 Y127.072 E1.5525
G1 X116.51 Y127.107 E1.5545
G1 X116.62 Y127.072 E1.5565
G1 X120.4 Y127.072 E1.6206
G1 X120.51 Y127.107 E1.6226
G1 X120.62 Y127.072 E1.6245
G1 X124.4 Y127.072 E1.6887
G1 X124.51 Y127.107 E1.6907
G1 X124.62 Y127.072 E1.6926
G1 X128.4 Y127.072 E1.7568
G1 X128.51 Y127.107 E1.7588
G1 X128.62 Y127.072 E1.7607
G1 X132.4 Y127.072 E1.8249
G1 X132.51 Y127.107 E1.8269
G1 X132.62 Y127.072 E1.8288
G1 X136.4 Y127.072 E1.893
G1 X136.51 Y127.107 E1.8949
G1 X136.62 Y127.072 E1.8969
G1 X140.4 Y127.072 E1.9611
G1 X140.51 Y127.107 E1.963
G1 X140.62 Y127.072 E1.965
G1 X144.4 Y127.072 E2.0292
G1 X144.51 Y127.107 E2.0311
G1 X144.62 Y127.072 E2.0331
G1 X148.4 Y127.072 E2.0972
G1 X148.51 Y127.107 E2.0992
G1 X148.62 Y127.072 E2.1012
G1 X152.4 Y127.072 E2.1653
G1 X152.51 Y127.107 E2.1673
G1 X152.62 Y127.072 E2.1692
G1 X156.4 Y127.072 E2.2334
G1 X156.51 Y127.107 E2.2354
G1 X156.62 Y127.072 E2.2373
G1 X160.4 Y127.072 E2.3015
G1 X160.51 Y127.107 E2.3035
G1 X160.62 Y127.072 E2.3054
G1 X164.4 Y127.072 E2.3696
G1 X164.51 Y127.107 E2.3715
G1 X164.62 Y127.072 E2.3735
G1 X168.4 Y127.072 E2.4377
G1 X168.51 Y127.107 E2.4396
G1 X168.62 Y127.072 E2.4416
G1 X172.4 Y127.072 E2.5058
G1 X172.51 Y127.107 E2.5077
G1 X172.62 Y127.072 E2.5097
G1 X176.4 Y127.072 E2.5739
G1 X176.51 Y127.107 E2.5758
G1 X176.62 Y127.072 E2.5778
G1 X180.4 Y127.072 E2.6419
G1 X180.51 Y127.107 E2.6439
G1 X180.62 Y127.072 E2.6459
G1 X184.4 Y127.072 E2.71
G1 X184.51 Y127.107 E2.712
G1 X184.62 Y127.072 E2.7139
G1 X188.4 Y127.072 E2.7781
G1 X188.51 Y127.107 E2.7801
G1 X188.62 Y127.072 E2.782
G1 X192.4 Y127.072 E2.8462
G1 X192.51 Y127.107 E2.8482
G1 X192.62 Y127.072 E2.8501
G1 X196.4 Y127.072 E2.9143
G1 X196.51 Y127.107 E2.9162
G1 X196.62 Y127.072 E2.9182
G1 X200.4 Y127.072 E2.9824
G1 X200.51 Y127.107 E2.9843
G1 X200.62 Y127.072 E2.9863
G1 X204.4 Y127.072 E3.0505
G1 X204.576 Y127.128 E3.0536
G1 X206.794 Y128.68 E3.0996
G1 X206.906 Y128.827 E3.1027
G1 X207.432 Y130.273 E3.1288
G1 X209.509 Y132.349 E3.1787
G1 X209.6 Y132.57 E3.1827
G1 X209.6 Y141.122 E3.3279
G1 X209.509 Y141.343 E3.332
G1 X206.997 Y143.855 E3.3923
G1 X206.776 Y143.946 E3.3963
G1 X43.224 Y143.946 E6.1729
G1 X43.003 Y143.855 E6.1769
G1 X40.491 Y141.343 E6.2372
G1 X40.4 Y141.122 E6.2413
G1 X40.4 Y133.97 E6.3627
G1 X40.405 Y133.918 E6.3636
G1 X40.535 Y133.177 E6.3764
G1 X40.549 Y133.126 E6.3773
G1 X42.114 Y128.827 E6.4549
G1 X42.226 Y128.68 E6.4581
G1 X44.228 Y127.278 E6.4996
G1 X43.869 Y127.017 E6.5071
G1 X43.769 Y126.895 E6.5098
G1 X42.908 Y124.974 E6.5455
G1 X41.347 Y123.56 E6.5813
G1 X41.261 Y123.428 E6.5839
G1 X40.282 Y120.413 E6.6378
G1 X40.273 Y120.26 E6.6404
G1 X40.688 Y118.125 E6.6773
G1 X40.263 Y116.103 E6.7124
G1 X40.271 Y115.946 E6.715
G1 X41.251 Y112.931 E6.7688
G1 X41.333 Y112.802 E6.7714
G1 X42.926 Y111.314 E6.8085
G1 X43.768 Y109.433 E6.8434
G1 X43.867 Y109.311 E6.8461
G1 X46.432 Y107.446 E6.8999
G1 X46.673 Y107.781 F4800
G92 E0
G1 X48.774 Y107.521 E0.0359 F2500
G1 X48.825 Y107.527 E0.0368
G1 X48.828 Y107.529 E0.0369
G1 X48.829 Y107.526 E0.0369
G1 X48.866 Y107.491 E0.0378
G1 X50.718 Y106.467 E0.0737
G1 X50.767 Y106.454 E0.0746
G1 X53.833 Y106.454 E0.1266
G1 X53.884 Y106.468 E0.1275
G1 X55.738 Y107.532 E0.1638
G1 X57.862 Y107.76 E0.2001
G1 X57.91 Y107.779 E0.2009
G1 X60.391 Y109.581 E0.253
G1 X60.424 Y109.62 E0.2539
G1 X61.32 Y111.535 E0.2898
G1 X61.329 Y111.585 E0.2906
G1 X61.328 Y111.594 E0.2908
G1 X62.912 Y113.027 E0.327
G1 X62.94 Y113.071 E0.3279
G1 X63.888 Y115.989 E0.38
G1 X63.891 Y116.04 E0.3809
G1 X63.487 Y118.118 E0.4168
G1 X63.466 Y118.163 E0.4176
G1 X63.488 Y118.209 E0.4185
G1 X63.891 Y120.288 E0.4545
G1 X63.888 Y120.339 E0.4553
G1 X62.94 Y123.256 E0.5074
G1 X62.911 Y123.3 E0.5083
G1 X61.331 Y124.73 E0.5445
G1 X61.331 Y124.732 E0.5445
G1 X61.322 Y124.782 E0.5454
G1 X60.426 Y126.703 E0.5814
G1 X60.394 Y126.743 E0.5822
G1 X59.391 Y127.472 E0.6033
G1 X60.338 Y127.472 E0.6194
G1 X60.397 Y127.491 E0.6204
G1 X60.51 Y127.57 E0.6228
G1 X60.623 Y127.491 E0.6251
G1 X60.681 Y127.472 E0.6261
G1 X64.338 Y127.472 E0.6882
G1 X64.397 Y127.491 E0.6893
G1 X64.51 Y127.57 E0.6916
G1 X64.623 Y127.491 E0.6939
G1 X64.681 Y127.472 E0.695
G1 X68.338 Y127.472 E0.7571
G1 X68.397 Y127.491 E0.7581
G1 X68.51 Y127.57 E0.7604
G1 X68.623 Y127.491 E0.7628
G1 X68.681 Y127.472 E0.7638
G1 X72.338 Y127.472 E0.8259
G1 X72.397 Y127.491 E0.827
G1 X72.51 Y127.57 E0.8293
G1 X72.623 Y127.491 E0.8316
G1 X72.681 Y127.472 E0.8327
G1 X76.338 Y127.472 E0.8948
G1 X76.397 Y127.491 E0.8958
G1 X76.51 Y127.57 E0.8981
G1 X76.623 Y127.491 E0.9005
G1 X76.681 Y127.472 E0.9015
G1 X80.338 Y127.472 E0.9636
G1 X80.397 Y127.491 E0.9647
G1 X80.51 Y127.57 E0.967
G1 X80.623 Y127.491 E0.9693
G1 X80.681 Y127.472 E0.9704
G1 X84.338 Y127.472 E1.0325
G1 X84.397 Y127.491 E1.0335
G1 X84.51 Y127.57 E1.0358
G1 X84.623 Y127.491 E1.0382
G1 X84.681 Y127.472 E1.0392
G1 X88.338 Y127.472 E1.1013
G1 X88.397 Y127.491 E1.1024
G1 X88.51 Y127.57 E1.1047
G1 X88.623 Y127.491 E1.107
G1 X88.681 Y127.472 E1.1081
G1 X92.338 Y127.472 E1.1702
G1 X92.397 Y127.491 E1.1712
G1 X92.51 Y127.57 E1.1735
G1 X92.623 Y127.491 E1.1759
G1 X92.681 Y127.472 E1.1769
G1 X96.338 Y127.472 E1.239
G1 X96.397 Y127.491 E1.24
