; G-Code generated by Simplify3D(TM) Version 2.2.0
; Feb 7, 2015 at 8:21:56 PM
; Settings Summary
;   processName,ABS
;   applyToModels,Window_Attachment
;   profileLabel,-- Select Printer Profile --
;   printMaterial,ABS
;   printQuality,Medium
;   extruderName,Extruder 1
;   extruderToolheadNumber,0
;   extruderDiameter,0.3
;   extruderAutoWidth,1
;   extruderWidth,0.36
;   extrusionMultiplier,0.9
;   extruderUseRetract,1
;   extruderRetractionDistance,2
;   extruderExtraRestartDistance,0
;   extruderRetractionZLift,0
;   extruderRetractionSpeed,1800
;   extruderUseCoasting,0
;   extruderCoastingDistance,0.2
;   extruderUseWipe,0
;   extruderWipeDistance,5
;   primaryExtruder,0
;   layerHeight,0.2
;   topSolidLayers,3
;   bottomSolidLayers,3
;   perimeterOutlines,2
;   printPerimetersInsideOut,1
;   startPointOption,2
;   startPointOriginX,0
;   startPointOriginY,0
;   startPointOriginZ,300
;   sequentialIslands,1
;   spiralVaseMode,0
;   firstLayerHeightPercentage,100
;   firstLayerWidthPercentage,100
;   firstLayerUnderspeed,0.5
;   useRaft,0
;   raftExtruder,0
;   raftLayers,3
;   raftOffset,3
;   raftSeparationDistance,0.14
;   raftInfill,85
;   disableRaftBaseLayers,0
;   useSkirt,1
;   skirtExtruder,0
;   skirtLayers,1
;   skirtOutlines,3
;   skirtOffset,4
;   infillExtruder,0
;   externalInfillPattern,Rectilinear
;   infillPercentage,20
;   outlineOverlapPercentage,15
;   infillExtrusionWidthPercentage,100
;   minInfillLength,5
;   infillLayerInterval,1
;   randomInfillStartPoint,0
;   infillAngles,45,-45
;   generateSupport,1
;   supportExtruder,0
;   supportInfill,30
;   supportExtraInflation,0
;   denseSupportLayers,0
;   denseSupportInfill,70
;   supportLayerInterval,1
;   supportHorizontalPartOffset,0.3
;   supportUpperSeparationLayers,1
;   supportLowerSeparationLayers,1
;   supportGridSpacing,4
;   maxOverhangAngle,89
;   supportAngles,0
;   temperatureName,Extruder 1 Temperature,Heated Bed
;   temperatureNumber,0,0
;   temperatureSetpointCount,1,1
;   temperatureSetpointLayers,1,1
;   temperatureSetpointTemperatures,225,110
;   temperatureStabilizeAtStartup,1,1
;   temperatureHeatedBed,0,1
;   temperatureRelayBetweenLayers,0,0
;   temperatureRelayBetweenLoops,0,0
;   fanLayers,1
;   fanSpeeds,0
;   blipFanToFullPower,0
;   adjustSpeedForCooling,1
;   minSpeedLayerTime,15
;   minCoolingSpeedSlowdown,20
;   increaseFanForCooling,0
;   minFanLayerTime,45
;   maxCoolingFanSpeed,100
;   increaseFanForBridging,0
;   bridgingFanSpeed,100
;   use5D,1
;   relativeEdistances,0
;   allowEaxisZeroing,1
;   independentExtruderAxes,0
;   includeM10123,0
;   stickySupport,1
;   detectArcs,0
;   arcReplaceG2G3,0
;   arcRadialCompensation,1
;   gcodeXoffset,0
;   gcodeYoffset,0
;   gcodeZoffset,0
;   overrideMachineDefinition,0
;   machineTypeOverride,0
;   strokeXoverride,225
;   strokeYoverride,225
;   strokeZoverride,225
;   originOffsetXoverride,0
;   originOffsetYoverride,0
;   originOffsetZoverride,0
;   homeXdirOverride,-1
;   homeYdirOverride,-1
;   homeZdirOverride,-1
;   flipXoverride,1
;   flipYoverride,-1
;   flipZoverride,1
;   startingGcode,G28 ; home all axes
;   layerChangeGcode,
;   toolChangeGcode,
;   endingGcode,M104 S0 ; turn off extruder,M140 S0 ; turn off bed,G28 ; home all axes,M84 ; disable motors
;   createX3G,0
;   celebration,0
;   celebrationSong,Random Song
;   createMB5G,0
;   postProcessing,
;   defaultSpeed,3600
;   outlineUnderspeed,0.5
;   solidInfillUnderspeed,0.8
;   supportUnderspeed,0.8
;   rapidXYspeed,4800
;   rapidZspeed,1002
;   minBridgingArea,50
;   bridgingExtrusionMultiplier,1
;   bridgingSpeedMultiplier,1
;   filamentDiameter,1.75
;   filamentPricePerKg,46
;   useMinPrintHeight,0
;   minPrintHeight,0
;   useMaxPrintHeight,0
;   maxPrintHeight,0
;   useDiaphragm,0
;   diaphragmLayerInterval,20
;   robustSlicing,1
;   mergeAllIntoSolid,0
;   onlyRetractWhenCrossingOutline,1
;   retractBetweenLayers,1
;   useRetractionMinTravel,0
;   retractionMinTravel,3
;   useRetractionOozeRate,0
;   retractionOozeRate,6000
;   onlyWipeOutlines,1
;   toolChangeRetractionDistance,12
;   toolChangeExtraRestartDistance,-0.5
;   toolChangeRetractionSpeed,600
;   allowThinWallGapFill,1
;   thinWallAllowedOverlapPercentage,10
G90
M82
M106 S0
M140 S110
M190 S110
M104 S225 T0
M109 S225 T0
G28 ; home all axes
G92 E0
G1 E-2 F1800
; layer 1, Z = 0.2
T0
; tool H0.2 W0.36
G1 X97.74 Y99.914 F4800
G1 Z0.2 F1002
G1 E0 F540
G92 E0
G1 X100.337 Y97.318 E0.0989 F1800
G1 X100.668 Y97.181 E0.1086
G1 X124.339 Y97.181 E0.7463
G1 X124.67 Y97.318 E0.7559
G1 X127.266 Y99.914 E0.8549
G1 X127.403 Y100.245 E0.8645
G1 X127.403 Y106.917 E1.0443
G1 X127.266 Y107.247 E1.0539
G1 X124.67 Y109.844 E1.1528
G1 X124.339 Y109.981 E1.1625
G1 X100.668 Y109.981 E1.8002
G1 X100.337 Y109.844 E1.8098
G1 X97.74 Y107.247 E1.9088
G1 X97.603 Y106.917 E1.9184
G1 X97.603 Y100.245 E2.0982
G1 X97.74 Y99.914 E2.1078
G1 X98.046 Y100.118 F4800
G92 E0
G1 X100.541 Y97.623 E0.0951 F1800
G1 X100.739 Y97.541 E0.1008
G1 X124.268 Y97.541 E0.7347
G1 X124.466 Y97.623 E0.7405
G1 X126.961 Y100.118 E0.8356
G1 X127.043 Y100.316 E0.8414
G1 X127.043 Y106.845 E1.0172
G1 X126.961 Y107.043 E1.023
G1 X124.466 Y109.538 E1.1181
G1 X124.268 Y109.621 E1.1239
G1 X100.739 Y109.621 E1.7578
G1 X100.541 Y109.538 E1.7635
G1 X98.046 Y107.043 E1.8586
G1 X97.963 Y106.845 E1.8644
G1 X97.963 Y100.316 E2.0403
G1 X98.046 Y100.118 E2.0461
G1 X98.351 Y100.322 F4800
G92 E0
G1 X100.745 Y97.928 E0.0912 F1800
G1 X100.811 Y97.901 E0.0931
G1 X124.196 Y97.901 E0.7231
G1 X124.262 Y97.928 E0.7251
G1 X126.656 Y100.322 E0.8163
G1 X126.683 Y100.388 E0.8182
G1 X126.683 Y106.773 E0.9902
G1 X126.656 Y106.839 E0.9922
G1 X124.262 Y109.233 E1.0834
G1 X124.196 Y109.261 E1.0853
G1 X100.811 Y109.261 E1.7153
G1 X100.745 Y109.233 E1.7172
G1 X98.351 Y106.839 E1.8084
G1 X98.323 Y106.773 E1.8104
G1 X98.323 Y100.388 E1.9824
G1 X98.351 Y100.322 E1.9843
G92 E0
G1 E-2 F1800
G1 X103.043 Y102.621 F4800
G1 E0 F1800
G92 E0
G1 X121.963 Y102.621 E0.5097 F1350
G1 X121.963 Y104.541 E0.5614
G1 X103.043 Y104.541 E1.0712
G1 X103.043 Y102.621 E1.1229
G1 X102.683 Y102.261 F4800
G92 E0
G1 X122.323 Y102.261 E0.5291 F900
G1 X122.323 Y104.901 E0.6002
G1 X102.683 Y104.901 E1.1294
G1 X102.683 Y102.261 E1.2005
G1 X103.349 Y103.374 F4800
G92 E0
G1 X103.797 Y102.927 E0.0171 F1440
G1 X104.306 Y102.927 E0.0308
G1 X103.349 Y103.884 E0.0672
G1 X103.349 Y104.235 E0.0767
G1 X103.507 Y104.235 E0.0809
G1 X104.815 Y102.927 E0.1308
G1 X105.324 Y102.927 E0.1445
G1 X104.016 Y104.235 E0.1943
G1 X104.526 Y104.235 E0.208
G1 X105.834 Y102.927 E0.2579
G1 X106.343 Y102.927 E0.2716
G1 X105.035 Y104.235 E0.3214
G1 X105.544 Y104.235 E0.3351
G1 X106.852 Y102.927 E0.385
G1 X107.361 Y102.927 E0.3987
G1 X106.053 Y104.235 E0.4485
G1 X106.562 Y104.235 E0.4622
G1 X107.87 Y102.927 E0.5121
G1 X108.379 Y102.927 E0.5258
G1 X107.071 Y104.235 E0.5756
G1 X107.58 Y104.235 E0.5893
G1 X108.888 Y102.927 E0.6392
G1 X109.397 Y102.927 E0.6529
G1 X108.089 Y104.235 E0.7027
G1 X108.599 Y104.235 E0.7165
G1 X109.907 Y102.927 E0.7663
G1 X110.416 Y102.927 E0.78
G1 X109.108 Y104.235 E0.8298
G1 X109.617 Y104.235 E0.8436
G1 X110.925 Y102.927 E0.8934
G1 X111.434 Y102.927 E0.9071
G1 X110.126 Y104.235 E0.9569
G1 X110.635 Y104.235 E0.9707
G1 X111.943 Y102.927 E1.0205
G1 X112.452 Y102.927 E1.0342
G1 X111.144 Y104.235 E1.084
G1 X111.653 Y104.235 E1.0978
G1 X112.961 Y102.927 E1.1476
G1 X113.47 Y102.927 E1.1613
G1 X112.162 Y104.235 E1.2111
G1 X112.671 Y104.235 E1.2249
G1 X113.979 Y102.927 E1.2747
G1 X114.489 Y102.927 E1.2884
G1 X113.181 Y104.235 E1.3382
G1 X113.69 Y104.235 E1.352
G1 X114.998 Y102.927 E1.4018
G1 X115.507 Y102.927 E1.4155
G1 X114.199 Y104.235 E1.4653
G1 X114.708 Y104.235 E1.4791
G1 X116.016 Y102.927 E1.5289
G1 X116.525 Y102.927 E1.5426
G1 X115.217 Y104.235 E1.5924
G1 X115.726 Y104.235 E1.6062
G1 X117.034 Y102.927 E1.656
G1 X117.543 Y102.927 E1.6697
G1 X116.235 Y104.235 E1.7195
G1 X116.744 Y104.235 E1.7333
G1 X118.052 Y102.927 E1.7831
G1 X118.562 Y102.927 E1.7968
G1 X117.254 Y104.235 E1.8466
G1 X117.763 Y104.235 E1.8604
G1 X119.071 Y102.927 E1.9102
G1 X119.58 Y102.927 E1.9239
G1 X118.272 Y104.235 E1.9737
G1 X118.781 Y104.235 E1.9875
G1 X120.089 Y102.927 E2.0373
G1 X120.598 Y102.927 E2.051
G1 X119.29 Y104.235 E2.1008
G1 X119.799 Y104.235 E2.1146
G1 X121.107 Y102.927 E2.1644
G1 X121.616 Y102.927 E2.1781
G1 X120.308 Y104.235 E2.228
G1 X120.817 Y104.235 E2.2417
G1 X121.657 Y103.395 E2.2737
G1 X121.657 Y103.904 E2.2874
G1 X121.326 Y104.235 E2.3
G1 X121.657 Y104.235 E2.3089
G1 X121.657 Y103.904 E2.3178
G92 E0
G1 E-2 F1800
G1 X122.68 Y108.281 F4800
G1 E0 F1800
G92 E0
G1 X122.68 Y108.901 E0.0167 F1440
G1 X114.32 Y108.901 E0.2419
G1 X114.32 Y108.281 E0.2586
G1 X122.68 Y108.281 E0.4839
G1 X122.68 Y107.081 E0.5162
G1 X114.32 Y107.081 E0.7414
G92 E0
G1 E-2 F1800
G1 X110.68 Y108.281 F4800
G1 E0 F1800
G92 E0
G1 X110.68 Y108.901 E0.0167 F1440
G1 X102.32 Y108.901 E0.2419
G1 X102.32 Y108.281 E0.2586
G1 X110.68 Y108.281 E0.4839
G1 X110.68 Y107.081 E0.5162
G1 X102.32 Y107.081 E0.7414
G92 E0
G1 E-2 F1800
G1 X102.32 Y110.681 F4800
G1 E0 F1800
G92 E0
G1 X106.68 Y110.681 E0.1175 F1440
G1 X106.68 Y111.881 E0.1498
G1 X102.32 Y111.881 E0.2673
G1 X102.32 Y113.081 E0.2996
G1 X106.68 Y113.081 E0.417
G1 X106.68 Y114.281 E0.4494
G1 X102.32 Y114.281 E0.5668
G1 X102.32 Y115.481 E0.5992
G1 X110.68 Y115.481 E0.8244
G1 X110.68 Y116.681 E0.8567
G1 X102.32 Y116.681 E1.0819
G1 X102.32 Y117.881 E1.1143
G1 X110.68 Y117.881 E1.3395
G1 X110.68 Y118.32 E1.3513
G1 X118.32 Y118.32 E1.5572
G1 X118.32 Y117.881 E1.569
G1 X122.68 Y117.881 E1.6865
G1 X122.68 Y118.68 E1.708
G1 X118.68 Y118.68 E1.8157
G1 X118.68 Y119.081 E1.8265
G1 X106.32 Y119.081 E2.1595
G1 X106.32 Y120.281 E2.1919
G1 X118.68 Y120.281 E2.5248
G1 X118.68 Y121.481 E2.5572
G1 X106.32 Y121.481 E2.8902
G1 X106.32 Y122.68 E2.9225
G1 X118.68 Y122.68 E3.2555
G1 X118.68 Y121.481 E3.2878
G92 E0
G1 E-2 F1800
G1 X118.32 Y117.881 F4800
G1 E0 F1800
G92 E0
G1 X118.32 Y116.681 E0.0323 F1440
G1 X122.68 Y116.681 E0.1498
G1 X122.68 Y115.481 E0.1821
G1 X118.32 Y115.481 E0.2996
G1 X118.32 Y114.281 E0.3319
G1 X122.68 Y114.281 E0.4494
G1 X122.68 Y113.081 E0.4817
G1 X118.32 Y113.081 E0.5992
G1 X118.32 Y111.881 E0.6315
G1 X122.68 Y111.881 E0.749
G1 X122.68 Y110.681 E0.7813
G1 X118.32 Y110.681 E0.8987
G92 E0
G1 E-2 F1800
; layer 2, Z = 0.4
G1 X121.963 Y104.541 F4800
G1 Z0.4 F1002
G1 E0 F1800
G92 E0
G1 X103.043 Y104.541 E0.5097 F1584
G1 X103.043 Y102.621 E0.5614
G1 X121.963 Y102.621 E1.0712
G1 X121.963 Y104.541 E1.1229
G1 X122.323 Y104.901 F4800
G92 E0
G1 X102.683 Y104.901 E0.5291 F1056
G1 X102.683 Y102.261 E0.6002
G1 X122.323 Y102.261 E1.1294
G1 X122.323 Y104.901 E1.2005
G1 X121.203 Y102.927 F4800
G92 E0
G1 X121.657 Y103.381 E0.0173 F1690
G1 X121.657 Y103.89 E0.031
G1 X120.694 Y102.927 E0.0678
G1 X120.185 Y102.927 E0.0815
G1 X121.493 Y104.235 E0.1313
G1 X120.983 Y104.235 E0.145
G1 X119.675 Y102.927 E0.1949
G1 X119.166 Y102.927 E0.2086
G1 X120.474 Y104.235 E0.2584
G1 X119.965 Y104.235 E0.2721
G1 X118.657 Y102.927 E0.322
G1 X118.148 Y102.927 E0.3357
G1 X119.456 Y104.235 E0.3855
G1 X118.947 Y104.235 E0.3992
G1 X117.639 Y102.927 E0.4491
G1 X117.13 Y102.927 E0.4628
G1 X118.438 Y104.235 E0.5126
G1 X117.929 Y104.235 E0.5263
G1 X116.621 Y102.927 E0.5762
G1 X116.112 Y102.927 E0.5899
G1 X117.42 Y104.235 E0.6397
G1 X116.911 Y104.235 E0.6534
G1 X115.603 Y102.927 E0.7033
G1 X115.093 Y102.927 E0.717
G1 X116.401 Y104.235 E0.7668
G1 X115.892 Y104.235 E0.7805
G1 X114.584 Y102.927 E0.8304
G1 X114.075 Y102.927 E0.8441
G1 X115.383 Y104.235 E0.8939
G1 X114.874 Y104.235 E0.9076
G1 X113.566 Y102.927 E0.9575
G1 X113.057 Y102.927 E0.9712
G1 X114.365 Y104.235 E1.021
G1 X113.856 Y104.235 E1.0347
G1 X112.548 Y102.927 E1.0846
G1 X112.039 Y102.927 E1.0983
G1 X113.347 Y104.235 E1.1481
G1 X112.838 Y104.235 E1.1618
G1 X111.53 Y102.927 E1.2117
G1 X111.021 Y102.927 E1.2254
G1 X112.329 Y104.235 E1.2752
G1 X111.819 Y104.235 E1.2889
G1 X110.511 Y102.927 E1.3388
G1 X110.002 Y102.927 E1.3525
G1 X111.31 Y104.235 E1.4023
G1 X110.801 Y104.235 E1.416
G1 X109.493 Y102.927 E1.4659
G1 X108.984 Y102.927 E1.4796
G1 X110.292 Y104.235 E1.5294
G1 X109.783 Y104.235 E1.5431
G1 X108.475 Y102.927 E1.593
G1 X107.966 Y102.927 E1.6067
G1 X109.274 Y104.235 E1.6565
G1 X108.765 Y104.235 E1.6702
G1 X107.457 Y102.927 E1.7201
G1 X106.948 Y102.927 E1.7338
G1 X108.256 Y104.235 E1.7836
G1 X107.746 Y104.235 E1.7973
G1 X106.438 Y102.927 E1.8472
G1 X105.929 Y102.927 E1.8609
G1 X107.237 Y104.235 E1.9107
G1 X106.728 Y104.235 E1.9244
G1 X105.42 Y102.927 E1.9743
G1 X104.911 Y102.927 E1.988
G1 X106.219 Y104.235 E2.0378
G1 X105.71 Y104.235 E2.0515
G1 X104.402 Y102.927 E2.1014
G1 X103.893 Y102.927 E2.1151
G1 X105.201 Y104.235 E2.1649
G1 X104.692 Y104.235 E2.1786
G1 X103.384 Y102.927 E2.2285
G1 X103.349 Y102.927 E2.2294
G1 X103.349 Y103.401 E2.2422
G1 X104.183 Y104.235 E2.2739
G1 X103.674 Y104.235 E2.2877
G1 X103.349 Y103.911 E2.3
G1 X103.349 Y104.235 E2.3087
G1 X103.674 Y104.235 E2.3175
G92 E0
G1 E-2 F1800
G1 X102.32 Y107.081 F4800
G1 E0 F1800
G92 E0
G1 X110.68 Y107.081 E0.2252 F1690
G1 X110.68 Y108.281 E0.2576
G1 X102.32 Y108.281 E0.4828
G1 X102.32 Y109.481 E0.5151
G1 X110.68 Y109.481 E0.7403
G1 X110.68 Y110.68 E0.7726
G1 X106.68 Y110.68 E0.8804
G1 X106.68 Y110.681 E0.8804
G1 X102.32 Y110.681 E0.9979
G1 X102.32 Y111.881 E1.0302
G1 X106.68 Y111.881 E1.1477
G1 X106.68 Y113.081 E1.18
G1 X102.32 Y113.081 E1.2975
G1 X102.32 Y114.281 E1.3298
G1 X106.68 Y114.281 E1.4473
G1 X106.68 Y114.32 E1.4483
G1 X110.68 Y114.32 E1.5561
G1 X110.68 Y115.481 E1.5873
G1 X102.32 Y115.481 E1.8126
G1 X102.32 Y116.681 E1.8449
G1 X110.68 Y116.681 E2.0701
G1 X110.68 Y117.881 E2.1025
G1 X102.32 Y117.881 E2.3277
G1 X102.32 Y118.68 E2.3492
G1 X106.32 Y118.68 E2.457
G1 X106.32 Y119.081 E2.4678
G1 X118.68 Y119.081 E2.8008
G1 X118.68 Y120.281 E2.8331
G1 X106.32 Y120.281 E3.1661
G1 X106.32 Y121.481 E3.1984
G1 X118.68 Y121.481 E3.5314
G1 X118.68 Y122.68 E3.5637
G1 X106.32 Y122.68 E3.8967
G1 X106.32 Y121.481 E3.929
G92 E0
G1 E-2 F1800
G1 X110.68 Y117.881 F4800
G1 E0 F1800
G92 E0
G1 X110.68 Y118.32 E0.0118 F1690
G1 X118.32 Y118.32 E0.2177
G1 X118.32 Y117.881 E0.2295
G1 X122.68 Y117.881 E0.347
G1 X122.68 Y116.681 E0.3793
G1 X118.32 Y116.681 E0.4967
G1 X118.32 Y115.481 E0.5291
G1 X122.68 Y115.481 E0.6465
G1 X122.68 Y114.281 E0.6789
G1 X118.32 Y114.281 E0.7963
G1 X118.32 Y113.081 E0.8287
G1 X122.68 Y113.081 E0.9461
G1 X122.68 Y111.881 E0.9784
G1 X118.32 Y111.881 E1.0959
G1 X118.32 Y110.681 E1.1282
G1 X122.68 Y110.681 E1.2457
G1 X122.68 Y109.481 E1.278
G1 X114.32 Y109.481 E1.5033
G1 X114.32 Y108.281 E1.5356
G1 X122.68 Y108.281 E1.7608
G1 X122.68 Y107.081 E1.7931
G1 X114.32 Y107.081 E2.0184
G92 E0
G1 E-2 F1800
; layer 3, Z = 0.6
G1 X121.963 Y104.541 F4800
G1 Z0.6 F1002
G1 E0 F1800
G92 E0
G1 X103.043 Y104.541 E0.5097 F1585
G1 X103.043 Y102.621 E0.5614
G1 X121.963 Y102.621 E1.0712
G1 X121.963 Y104.541 E1.1229
G1 X122.323 Y104.901 F4800
G92 E0
G1 X102.683 Y104.901 E0.5291 F1056
G1 X102.683 Y102.261 E0.6002
G1 X122.323 Y102.261 E1.1294
G1 X122.323 Y104.901 E1.2005
G1 X121.657 Y103.904 F4800
G92 E0
G1 X121.657 Y104.235 E0.0089 F1690
G1 X121.326 Y104.235 E0.0178
G1 X121.657 Y103.904 E0.0304
G1 X121.657 Y103.395 E0.0442
G1 X120.817 Y104.235 E0.0762
G1 X120.308 Y104.235 E0.0899
G1 X121.616 Y102.927 E0.1397
G1 X121.107 Y102.927 E0.1534
G1 X119.799 Y104.235 E0.2033
G1 X119.29 Y104.235 E0.217
G1 X120.598 Y102.927 E0.2668
G1 X120.089 Y102.927 E0.2805
G1 X118.781 Y104.235 E0.3304
G1 X118.272 Y104.235 E0.3441
G1 X119.58 Y102.927 E0.3939
G1 X119.071 Y102.927 E0.4076
G1 X117.763 Y104.235 E0.4575
G1 X117.254 Y104.235 E0.4712
G1 X118.562 Y102.927 E0.521
G1 X118.052 Y102.927 E0.5347
G1 X116.744 Y104.235 E0.5846
G1 X116.235 Y104.235 E0.5983
G1 X117.543 Y102.927 E0.6481
G1 X117.034 Y102.927 E0.6618
G1 X115.726 Y104.235 E0.7117
G1 X115.217 Y104.235 E0.7254
G1 X116.525 Y102.927 E0.7752
G1 X116.016 Y102.927 E0.7889
G1 X114.708 Y104.235 E0.8388
G1 X114.199 Y104.235 E0.8525
G1 X115.507 Y102.927 E0.9023
G1 X114.998 Y102.927 E0.916
G1 X113.69 Y104.235 E0.9659
G1 X113.181 Y104.235 E0.9796
