; G-Code generated by Simplify3D(TM) Version 2.2.0
; Feb 8, 2015 at 6:28:16 PM
; Settings Summary
;   processName,ABS
;   applyToModels,Window_Attachment
;   profileLabel,-- Select Printer Profile --
;   printMaterial,ABS
;   printQuality,Medium
;   extruderName,Extruder 1
;   extruderToolheadNumber,0
;   extruderDiameter,0.3
;   extruderAutoWidth,1
;   extruderWidth,0.36
;   extrusionMultiplier,0.9
;   extruderUseRetract,1
;   extruderRetractionDistance,2
;   extruderExtraRestartDistance,0
;   extruderRetractionZLift,0
;   extruderRetractionSpeed,1800
;   extruderUseCoasting,0
;   extruderCoastingDistance,0.2
;   extruderUseWipe,0
;   extruderWipeDistance,5
;   primaryExtruder,0
;   layerHeight,0.2
;   topSolidLayers,3
;   bottomSolidLayers,3
;   perimeterOutlines,2
;   printPerimetersInsideOut,1
;   startPointOption,2
;   startPointOriginX,0
;   startPointOriginY,0
;   startPointOriginZ,300
;   sequentialIslands,1
;   spiralVaseMode,0
;   firstLayerHeightPercentage,100
;   firstLayerWidthPercentage,100
;   firstLayerUnderspeed,0.5
;   useRaft,1
;   raftExtruder,0
;   raftLayers,3
;   raftOffset,3
;   raftSeparationDistance,0.14
;   raftInfill,85
;   disableRaftBaseLayers,0
;   useSkirt,1
;   skirtExtruder,0
;   skirtLayers,1
;   skirtOutlines,3
;   skirtOffset,4
;   infillExtruder,0
;   externalInfillPattern,Rectilinear
;   infillPercentage,20
;   outlineOverlapPercentage,15
;   infillExtrusionWidthPercentage,100
;   minInfillLength,5
;   infillLayerInterval,1
;   randomInfillStartPoint,0
;   infillAngles,45,-45
;   generateSupport,1
;   supportExtruder,0
;   supportInfill,30
;   supportExtraInflation,0
;   denseSupportLayers,0
;   denseSupportInfill,70
;   supportLayerInterval,1
;   supportHorizontalPartOffset,0.3
;   supportUpperSeparationLayers,1
;   supportLowerSeparationLayers,1
;   supportGridSpacing,2
;   maxOverhangAngle,89
;   supportAngles,0
;   temperatureName,Extruder 1 Temperature,Heated Bed
;   temperatureNumber,0,0
;   temperatureSetpointCount,1,1
;   temperatureSetpointLayers,1,1
;   temperatureSetpointTemperatures,225,110
;   temperatureStabilizeAtStartup,1,1
;   temperatureHeatedBed,0,1
;   temperatureRelayBetweenLayers,0,0
;   temperatureRelayBetweenLoops,0,0
;   fanLayers,1
;   fanSpeeds,0
;   blipFanToFullPower,0
;   adjustSpeedForCooling,1
;   minSpeedLayerTime,15
;   minCoolingSpeedSlowdown,20
;   increaseFanForCooling,0
;   minFanLayerTime,45
;   maxCoolingFanSpeed,100
;   increaseFanForBridging,0
;   bridgingFanSpeed,100
;   use5D,1
;   relativeEdistances,0
;   allowEaxisZeroing,1
;   independentExtruderAxes,0
;   includeM10123,0
;   stickySupport,1
;   detectArcs,0
;   arcReplaceG2G3,0
;   arcRadialCompensation,1
;   gcodeXoffset,0
;   gcodeYoffset,0
;   gcodeZoffset,0
;   overrideMachineDefinition,0
;   machineTypeOverride,0
;   strokeXoverride,225
;   strokeYoverride,225
;   strokeZoverride,225
;   originOffsetXoverride,0
;   originOffsetYoverride,0
;   originOffsetZoverride,0
;   homeXdirOverride,-1
;   homeYdirOverride,-1
;   homeZdirOverride,-1
;   flipXoverride,1
;   flipYoverride,-1
;   flipZoverride,1
;   startingGcode,G28 ; home all axes
;   layerChangeGcode,
;   toolChangeGcode,
;   endingGcode,M104 S0 ; turn off extruder,M140 S0 ; turn off bed,G28 ; home all axes,M84 ; disable motors
;   createX3G,0
;   celebration,0
;   celebrationSong,Random Song
;   createMB5G,0
;   postProcessing,
;   defaultSpeed,3600
;   outlineUnderspeed,0.5
;   solidInfillUnderspeed,0.8
;   supportUnderspeed,0.8
;   rapidXYspeed,4800
;   rapidZspeed,1002
;   minBridgingArea,50
;   bridgingExtrusionMultiplier,1
;   bridgingSpeedMultiplier,1
;   filamentDiameter,1.75
;   filamentPricePerKg,46
;   useMinPrintHeight,0
;   minPrintHeight,0
;   useMaxPrintHeight,0
;   maxPrintHeight,0
;   useDiaphragm,0
;   diaphragmLayerInterval,20
;   robustSlicing,1
;   mergeAllIntoSolid,0
;   onlyRetractWhenCrossingOutline,1
;   retractBetweenLayers,1
;   useRetractionMinTravel,0
;   retractionMinTravel,3
;   useRetractionOozeRate,0
;   retractionOozeRate,6000
;   onlyWipeOutlines,1
;   toolChangeRetractionDistance,12
;   toolChangeExtraRestartDistance,-0.5
;   toolChangeRetractionSpeed,600
;   allowThinWallGapFill,1
;   thinWallAllowedOverlapPercentage,10
G90
M82
M106 S0
M140 S110
M190 S110
M104 S225 T0
M109 S225 T0
G28 ; home all axes
G92 E0
G1 E-2 F1800
; layer 1, Z = 0.375
T0
; tool H0.375 W0.36
G1 X93.135 Y34.578 F4800
G1 Z0.375 F1002
G1 E0 F540
G92 E0
G1 X93.811 Y32.944 E0.0893 F1800
G1 X93.91 Y32.797 E0.0983
G1 X97.796 Y28.91 E0.3759
G1 X97.944 Y28.811 E0.3849
G1 X99.578 Y28.135 E0.4742
G1 X99.752 Y28.1 E0.4832
G1 X125.248 Y28.1 E1.7711
G1 X125.422 Y28.135 E1.7801
G1 X127.056 Y28.811 E1.8694
G1 X127.204 Y28.91 E1.8784
G1 X131.09 Y32.797 E2.156
G1 X131.189 Y32.944 E2.165
G1 X131.865 Y34.578 E2.2543
G1 X131.9 Y34.752 E2.2633
G1 X131.9 Y190.248 E10.118
G1 X131.865 Y190.422 E10.1269
G1 X131.189 Y192.056 E10.2163
G1 X131.09 Y192.203 E10.2252
G1 X127.204 Y196.09 E10.5029
G1 X127.056 Y196.189 E10.5118
G1 X125.422 Y196.865 E10.6012
G1 X125.248 Y196.9 E10.6101
G1 X99.752 Y196.9 E11.8981
G1 X99.578 Y196.865 E11.907
G1 X97.944 Y196.189 E11.9964
G1 X97.796 Y196.09 E12.0053
G1 X93.91 Y192.203 E12.283
G1 X93.811 Y192.056 E12.2919
G1 X93.135 Y190.422 E12.3813
G1 X93.1 Y190.248 E12.3902
G1 X93.1 Y34.752 E20.2449
G1 X93.135 Y34.578 E20.2539
G1 X93.481 Y34.683 F4800
G92 E0
G1 X94.13 Y33.114 E0.0858 F1800
G1 X94.19 Y33.026 E0.0911
G1 X98.026 Y29.19 E0.3652
G1 X98.114 Y29.13 E0.3706
G1 X99.683 Y28.481 E0.4563
G1 X99.787 Y28.46 E0.4617
G1 X125.213 Y28.46 E1.746
G1 X125.317 Y28.481 E1.7514
G1 X126.886 Y29.13 E1.8372
G1 X126.974 Y29.19 E1.8425
G1 X130.81 Y33.026 E2.1166
G1 X130.87 Y33.114 E2.122
G1 X131.519 Y34.683 E2.2077
G1 X131.54 Y34.787 E2.2131
G1 X131.54 Y190.213 E10.0643
G1 X131.519 Y190.317 E10.0696
G1 X130.87 Y191.886 E10.1554
G1 X130.81 Y191.974 E10.1608
G1 X126.974 Y195.81 E10.4348
G1 X126.886 Y195.87 E10.4402
G1 X125.317 Y196.519 E10.526
G1 X125.213 Y196.54 E10.5313
G1 X99.787 Y196.54 E11.8157
G1 X99.683 Y196.519 E11.821
G1 X98.114 Y195.87 E11.9068
G1 X98.026 Y195.81 E11.9122
G1 X94.19 Y191.974 E12.1862
G1 X94.13 Y191.886 E12.1916
G1 X93.481 Y190.317 E12.2774
G1 X93.46 Y190.213 E12.2827
G1 X93.46 Y34.787 E20.1339
G1 X93.481 Y34.683 E20.1393
G1 X93.827 Y34.788 F4800
G92 E0
G1 X94.449 Y33.285 E0.0822 F1800
G1 X94.469 Y33.255 E0.084
G1 X98.255 Y29.469 E0.3545
G1 X98.285 Y29.449 E0.3562
G1 X99.788 Y28.827 E0.4384
G1 X99.823 Y28.82 E0.4402
G1 X125.177 Y28.82 E1.721
G1 X125.212 Y28.827 E1.7228
G1 X126.715 Y29.449 E1.8049
G1 X126.745 Y29.469 E1.8067
G1 X130.531 Y33.255 E2.0772
G1 X130.551 Y33.285 E2.079
G1 X131.173 Y34.788 E2.1612
G1 X131.18 Y34.823 E2.163
G1 X131.18 Y190.177 E10.0105
G1 X131.173 Y190.212 E10.0123
G1 X130.551 Y191.715 E10.0945
G1 X130.531 Y191.745 E10.0963
G1 X126.745 Y195.531 E10.3668
G1 X126.715 Y195.551 E10.3686
G1 X125.212 Y196.173 E10.4507
G1 X125.177 Y196.18 E10.4525
G1 X99.823 Y196.18 E11.7333
G1 X99.788 Y196.173 E11.7351
G1 X98.285 Y195.551 E11.8172
G1 X98.255 Y195.531 E11.819
G1 X94.469 Y191.745 E12.0895
G1 X94.449 Y191.715 E12.0913
G1 X93.827 Y190.212 E12.1735
G1 X93.82 Y190.177 E12.1753
G1 X93.82 Y34.823 E20.0228
G1 X93.827 Y34.788 E20.0246
; tool H0.375 W0.6
G1 X98.3 Y35.76 F4800
G92 E0
G1 X100.76 Y33.3 E0.2929 F450
G1 X124.24 Y33.3 E2.2697
G1 X126.7 Y35.76 E2.5626
G1 X126.7 Y189.24 E15.484
G1 X124.24 Y191.7 E15.7769
G1 X100.76 Y191.7 E17.7536
G1 X98.3 Y189.24 E18.0466
G1 X98.3 Y35.76 E30.9679
G1 X99.695 Y35.214 F4800
G92 E0
G1 X125.305 Y35.214 E2.1562 F450
G1 X126.1 Y36.009 E2.2508
G1 X126.1 Y36.929 E2.3282
G1 X98.9 Y36.929 E4.6182
G1 X98.9 Y38.643 E4.7625
G1 X126.1 Y38.643 E7.0525
G1 X126.1 Y40.357 E7.1968
G1 X98.9 Y40.357 E9.4867
G1 X98.9 Y42.071 E9.6311
G1 X126.1 Y42.071 E11.921
G1 X126.1 Y43.786 E12.0653
G1 X98.9 Y43.786 E14.3553
G1 X98.9 Y45.5 E14.4996
G1 X126.1 Y45.5 E16.7896
G1 X126.1 Y47.214 E16.9339
G1 X98.9 Y47.214 E19.2239
G1 X98.9 Y48.929 E19.3682
G1 X126.1 Y48.929 E21.6582
G1 X126.1 Y50.643 E21.8025
G1 X98.9 Y50.643 E24.0925
G1 X98.9 Y52.357 E24.2368
G1 X126.1 Y52.357 E26.5267
G1 X126.1 Y54.071 E26.6711
G1 X98.9 Y54.071 E28.961
G1 X98.9 Y55.786 E29.1053
G1 X126.1 Y55.786 E31.3953
G1 X126.1 Y57.5 E31.5396
G1 X98.9 Y57.5 E33.8296
G1 X98.9 Y59.214 E33.9739
G1 X126.1 Y59.214 E36.2639
G1 X126.1 Y60.929 E36.4082
G1 X98.9 Y60.929 E38.6982
G1 X98.9 Y62.643 E38.8425
G1 X126.1 Y62.643 E41.1325
G1 X126.1 Y64.357 E41.2768
G1 X98.9 Y64.357 E43.5667
G1 X98.9 Y66.071 E43.7111
G1 X126.1 Y66.071 E46.001
G1 X126.1 Y67.786 E46.1453
G1 X98.9 Y67.786 E48.4353
G1 X98.9 Y69.5 E48.5796
G1 X126.1 Y69.5 E50.8696
G1 X126.1 Y71.214 E51.0139
G1 X98.9 Y71.214 E53.3039
G1 X98.9 Y72.929 E53.4482
G1 X126.1 Y72.929 E55.7382
G1 X126.1 Y74.643 E55.8825
G1 X98.9 Y74.643 E58.1725
G1 X98.9 Y76.357 E58.3168
G1 X126.1 Y76.357 E60.6067
G1 X126.1 Y78.071 E60.7511
G1 X98.9 Y78.071 E63.041
G1 X98.9 Y79.786 E63.1853
G1 X126.1 Y79.786 E65.4753
G1 X126.1 Y81.5 E65.6196
G1 X98.9 Y81.5 E67.9096
G1 X98.9 Y83.214 E68.0539
G1 X126.1 Y83.214 E70.3439
G1 X126.1 Y84.929 E70.4882
G1 X98.9 Y84.929 E72.7782
G1 X98.9 Y86.643 E72.9225
G1 X126.1 Y86.643 E75.2124
G1 X126.1 Y88.357 E75.3568
G1 X98.9 Y88.357 E77.6467
G1 X98.9 Y90.071 E77.7911
G1 X126.1 Y90.071 E80.081
G1 X126.1 Y91.786 E80.2253
G1 X98.9 Y91.786 E82.5153
G1 X98.9 Y93.5 E82.6596
G1 X126.1 Y93.5 E84.9496
G1 X126.1 Y95.214 E85.0939
G1 X98.9 Y95.214 E87.3839
G1 X98.9 Y96.929 E87.5282
G1 X126.1 Y96.929 E89.8182
G1 X126.1 Y98.643 E89.9625
G1 X98.9 Y98.643 E92.2524
G1 X98.9 Y100.357 E92.3968
G1 X126.1 Y100.357 E94.6867
G1 X126.1 Y102.071 E94.8311
G1 X98.9 Y102.071 E97.121
G1 X98.9 Y103.786 E97.2653
G1 X126.1 Y103.786 E99.5553
G1 X126.1 Y105.5 E99.6996
G1 X98.9 Y105.5 E101.9896
G1 X98.9 Y107.214 E102.1339
G1 X126.1 Y107.214 E104.4239
G1 X126.1 Y108.929 E104.5682
G1 X98.9 Y108.929 E106.8582
G1 X98.9 Y110.643 E107.0025
G1 X126.1 Y110.643 E109.2924
G1 X126.1 Y112.357 E109.4368
G1 X98.9 Y112.357 E111.7267
G1 X98.9 Y114.071 E111.8711
G1 X126.1 Y114.071 E114.161
G1 X126.1 Y115.786 E114.3053
G1 X98.9 Y115.786 E116.5953
G1 X98.9 Y117.5 E116.7396
G1 X126.1 Y117.5 E119.0296
G1 X126.1 Y119.214 E119.1739
G1 X98.9 Y119.214 E121.4639
G1 X98.9 Y120.929 E121.6082
G1 X126.1 Y120.929 E123.8982
G1 X126.1 Y122.643 E124.0425
G1 X98.9 Y122.643 E126.3324
G1 X98.9 Y124.357 E126.4768
G1 X126.1 Y124.357 E128.7667
G1 X126.1 Y126.071 E128.9111
G1 X98.9 Y126.071 E131.201
G1 X98.9 Y127.786 E131.3453
G1 X126.1 Y127.786 E133.6353
G1 X126.1 Y129.5 E133.7796
G1 X98.9 Y129.5 E136.0696
G1 X98.9 Y131.214 E136.2139
G1 X126.1 Y131.214 E138.5039
G1 X126.1 Y132.929 E138.6482
G1 X98.9 Y132.929 E140.9382
G1 X98.9 Y134.643 E141.0825
G1 X126.1 Y134.643 E143.3724
G1 X126.1 Y136.357 E143.5168
G1 X98.9 Y136.357 E145.8067
G1 X98.9 Y138.071 E145.9511
G1 X126.1 Y138.071 E148.241
G1 X126.1 Y139.786 E148.3853
G1 X98.9 Y139.786 E150.6753
G1 X98.9 Y141.5 E150.8196
G1 X126.1 Y141.5 E153.1096
G1 X126.1 Y143.214 E153.2539
G1 X98.9 Y143.214 E155.5439
G1 X98.9 Y144.929 E155.6882
G1 X126.1 Y144.929 E157.9782
G1 X126.1 Y146.643 E158.1225
G1 X98.9 Y146.643 E160.4124
G1 X98.9 Y148.357 E160.5568
G1 X126.1 Y148.357 E162.8467
G1 X126.1 Y150.071 E162.9911
G1 X98.9 Y150.071 E165.281
G1 X98.9 Y151.786 E165.4253
G1 X126.1 Y151.786 E167.7153
G1 X126.1 Y153.5 E167.8596
G1 X98.9 Y153.5 E170.1496
G1 X98.9 Y155.214 E170.2939
G1 X126.1 Y155.214 E172.5839
G1 X126.1 Y156.929 E172.7282
G1 X98.9 Y156.929 E175.0182
G1 X98.9 Y158.643 E175.1625
G1 X126.1 Y158.643 E177.4524
G1 X126.1 Y160.357 E177.5968
G1 X98.9 Y160.357 E179.8867
G1 X98.9 Y162.071 E180.0311
G1 X126.1 Y162.071 E182.321
G1 X126.1 Y163.786 E182.4653
G1 X98.9 Y163.786 E184.7553
G1 X98.9 Y165.5 E184.8996
G1 X126.1 Y165.5 E187.1896
G1 X126.1 Y167.214 E187.3339
G1 X98.9 Y167.214 E189.6239
G1 X98.9 Y168.929 E189.7682
G1 X126.1 Y168.929 E192.0582
G1 X126.1 Y170.643 E192.2025
G1 X98.9 Y170.643 E194.4924
G1 X98.9 Y172.357 E194.6368
G1 X126.1 Y172.357 E196.9267
G1 X126.1 Y174.071 E197.0711
G1 X98.9 Y174.071 E199.361
G1 X98.9 Y175.786 E199.5053
G1 X126.1 Y175.786 E201.7953
G1 X126.1 Y177.5 E201.9396
G1 X98.9 Y177.5 E204.2296
G1 X98.9 Y179.214 E204.3739
G1 X126.1 Y179.214 E206.6639
G1 X126.1 Y180.929 E206.8082
G1 X98.9 Y180.929 E209.0982
G1 X98.9 Y182.643 E209.2425
G1 X126.1 Y182.643 E211.5324
G1 X126.1 Y184.357 E211.6768
G1 X98.9 Y184.357 E213.9667
G1 X98.9 Y186.071 E214.1111
G1 X126.1 Y186.071 E216.401
G1 X126.1 Y187.786 E216.5453
G1 X98.9 Y187.786 E218.8353
G1 X98.9 Y188.991 E218.9368
G1 X99.409 Y189.5 E218.9974
G1 X125.591 Y189.5 E221.2017
G1 X123.991 Y191.1 E221.3922
G1 X101.009 Y191.1 E223.327
G1 X99.409 Y189.5 E223.5175
G92 E0
G1 E-2 F1800
; layer 2, Z = 0.75
G1 X98.3 Y189.24 F4800
G1 Z0.75 F1002
G1 E0 F1800
G92 E0
G1 X98.3 Y35.76 E12.9214 F900
G1 X100.76 Y33.3 E13.2143
G1 X124.24 Y33.3 E15.191
G1 X126.7 Y35.76 E15.484
G1 X126.7 Y189.24 E28.4054
G1 X124.24 Y191.7 E28.6983
G1 X100.76 Y191.7 E30.675
G1 X98.3 Y189.24 E30.9679
G1 X99.409 Y189.5 F4800
G92 E0
G1 X101.009 Y191.1 E0.1905 F900
G1 X123.991 Y191.1 E2.1254
G1 X125.591 Y189.5 E2.3159
G1 X99.409 Y189.5 E4.5202
G1 X98.9 Y188.991 E4.5807
G1 X98.9 Y187.786 E4.6822
G1 X126.1 Y187.786 E6.9722
G1 X126.1 Y186.071 E7.1165
G1 X98.9 Y186.071 E9.4065
G1 X98.9 Y184.357 E9.5508
G1 X126.1 Y184.357 E11.8408
G1 X126.1 Y182.643 E11.9851
G1 X98.9 Y182.643 E14.275
G1 X98.9 Y180.929 E14.4194
G1 X126.1 Y180.929 E16.7093
G1 X126.1 Y179.214 E16.8537
G1 X98.9 Y179.214 E19.1436
G1 X98.9 Y177.5 E19.2879
G1 X126.1 Y177.5 E21.5779
G1 X126.1 Y175.786 E21.7222
G1 X98.9 Y175.786 E24.0122
G1 X98.9 Y174.071 E24.1565
G1 X126.1 Y174.071 E26.4465
G1 X126.1 Y172.357 E26.5908
G1 X98.9 Y172.357 E28.8808
G1 X98.9 Y170.643 E29.0251
G1 X126.1 Y170.643 E31.315
G1 X126.1 Y168.929 E31.4594
G1 X98.9 Y168.929 E33.7493
G1 X98.9 Y167.214 E33.8937
G1 X126.1 Y167.214 E36.1836
G1 X126.1 Y165.5 E36.3279
G1 X98.9 Y165.5 E38.6179
G1 X98.9 Y163.786 E38.7622
G1 X126.1 Y163.786 E41.0522
G1 X126.1 Y162.071 E41.1965
G1 X98.9 Y162.071 E43.4865
G1 X98.9 Y160.357 E43.6308
G1 X126.1 Y160.357 E45.9208
G1 X126.1 Y158.643 E46.0651
G1 X98.9 Y158.643 E48.355
G1 X98.9 Y156.929 E48.4994
G1 X126.1 Y156.929 E50.7893
G1 X126.1 Y155.214 E50.9337
G1 X98.9 Y155.214 E53.2236
G1 X98.9 Y153.5 E53.3679
G1 X126.1 Y153.5 E55.6579
G1 X126.1 Y151.786 E55.8022
G1 X98.9 Y151.786 E58.0922
G1 X98.9 Y150.071 E58.2365
G1 X126.1 Y150.071 E60.5265
G1 X126.1 Y148.357 E60.6708
G1 X98.9 Y148.357 E62.9608
G1 X98.9 Y146.643 E63.1051
G1 X126.1 Y146.643 E65.395
G1 X126.1 Y144.929 E65.5394
G1 X98.9 Y144.929 E67.8293
G1 X98.9 Y143.214 E67.9737
G1 X126.1 Y143.214 E70.2636
G1 X126.1 Y141.5 E70.4079
G1 X98.9 Y141.5 E72.6979
G1 X98.9 Y139.786 E72.8422
G1 X126.1 Y139.786 E75.1322
G1 X126.1 Y138.071 E75.2765
G1 X98.9 Y138.071 E77.5665
G1 X98.9 Y136.357 E77.7108
G1 X126.1 Y136.357 E80.0008
G1 X126.1 Y134.643 E80.1451
G1 X98.9 Y134.643 E82.435
G1 X98.9 Y132.929 E82.5794
G1 X126.1 Y132.929 E84.8693
G1 X126.1 Y131.214 E85.0137
G1 X98.9 Y131.214 E87.3036
G1 X98.9 Y129.5 E87.4479
G1 X126.1 Y129.5 E89.7379
G1 X126.1 Y127.786 E89.8822
G1 X98.9 Y127.786 E92.1722
G1 X98.9 Y126.071 E92.3165
G1 X126.1 Y126.071 E94.6065
G1 X126.1 Y124.357 E94.7508
G1 X98.9 Y124.357 E97.0408
G1 X98.9 Y122.643 E97.1851
G1 X126.1 Y122.643 E99.475
G1 X126.1 Y120.929 E99.6194
G1 X98.9 Y120.929 E101.9093
G1 X98.9 Y119.214 E102.0536
G1 X126.1 Y119.214 E104.3436
G1 X126.1 Y117.5 E104.4879
G1 X98.9 Y117.5 E106.7779
G1 X98.9 Y115.786 E106.9222
G1 X126.1 Y115.786 E109.2122
G1 X126.1 Y114.071 E109.3565
G1 X98.9 Y114.071 E111.6465
G1 X98.9 Y112.357 E111.7908
G1 X126.1 Y112.357 E114.0808
G1 X126.1 Y110.643 E114.2251
G1 X98.9 Y110.643 E116.515
G1 X98.9 Y108.929 E116.6594
G1 X126.1 Y108.929 E118.9493
G1 X126.1 Y107.214 E119.0936
G1 X98.9 Y107.214 E121.3836
G1 X98.9 Y105.5 E121.5279
G1 X126.1 Y105.5 E123.8179
G1 X126.1 Y103.786 E123.9622
G1 X98.9 Y103.786 E126.2522
G1 X98.9 Y102.071 E126.3965
G1 X126.1 Y102.071 E128.6865
G1 X126.1 Y100.357 E128.8308
G1 X98.9 Y100.357 E131.1208
G1 X98.9 Y98.643 E131.2651
G1 X126.1 Y98.643 E133.555
G1 X126.1 Y96.929 E133.6994
G1 X98.9 Y96.929 E135.9893
