; G-Code generated by Simplify3D(TM) Version 2.2.0
; Dec 28, 2014 at 10:12:41 PM
; Settings Summary
;   processName,PLA
;   applyToModels,Window_Attachment
;   profileLabel,-- Select Printer Profile --
;   printMaterial,PLA
;   printQuality,High
;   extruderName,Extruder 1
;   extruderToolheadNumber,0
;   extruderDiameter,0.4
;   extruderAutoWidth,1
;   extruderWidth,0.48
;   extrusionMultiplier,1
;   extruderUseRetract,1
;   extruderRetractionDistance,1
;   extruderExtraRestartDistance,0
;   extruderRetractionZLift,0
;   extruderRetractionSpeed,1800
;   extruderUseCoasting,0
;   extruderCoastingDistance,0.2
;   extruderUseWipe,0
;   extruderWipeDistance,5
;   primaryExtruder,0
;   layerHeight,0.1
;   topSolidLayers,4
;   bottomSolidLayers,4
;   perimeterOutlines,3
;   printPerimetersInsideOut,1
;   startPointOption,2
;   startPointOriginX,0
;   startPointOriginY,0
;   startPointOriginZ,300
;   sequentialIslands,0
;   spiralVaseMode,0
;   firstLayerHeightPercentage,90
;   firstLayerWidthPercentage,100
;   firstLayerUnderspeed,0.5
;   useRaft,0
;   raftExtruder,0
;   raftLayers,3
;   raftOffset,3
;   raftSeparationDistance,0.14
;   raftInfill,85
;   disableRaftBaseLayers,0
;   useSkirt,1
;   skirtExtruder,0
;   skirtLayers,2
;   skirtOutlines,4
;   skirtOffset,8
;   infillExtruder,0
;   externalInfillPattern,Rectilinear
;   infillPercentage,40
;   outlineOverlapPercentage,15
;   infillExtrusionWidthPercentage,100
;   minInfillLength,5
;   infillLayerInterval,1
;   randomInfillStartPoint,0
;   infillAngles,45,-45
;   generateSupport,1
;   supportExtruder,0
;   supportInfill,40
;   supportExtraInflation,0
;   denseSupportLayers,0
;   denseSupportInfill,70
;   supportLayerInterval,1
;   supportHorizontalPartOffset,0.3
;   supportUpperSeparationLayers,1
;   supportLowerSeparationLayers,1
;   supportGridSpacing,3
;   maxOverhangAngle,45
;   supportAngles,0
;   temperatureName,Extruder 1 Temperature,Heated Bed
;   temperatureNumber,0,0
;   temperatureSetpointCount,1,1
;   temperatureSetpointLayers,1,1
;   temperatureSetpointTemperatures,195,60
;   temperatureStabilizeAtStartup,1,1
;   temperatureHeatedBed,0,1
;   temperatureRelayBetweenLayers,0,0
;   temperatureRelayBetweenLoops,0,0
;   fanLayers,1,2
;   fanSpeeds,0,100
;   blipFanToFullPower,0
;   adjustSpeedForCooling,1
;   minSpeedLayerTime,15
;   minCoolingSpeedSlowdown,20
;   increaseFanForCooling,0
;   minFanLayerTime,45
;   maxCoolingFanSpeed,100
;   increaseFanForBridging,0
;   bridgingFanSpeed,100
;   use5D,1
;   relativeEdistances,0
;   allowEaxisZeroing,1
;   independentExtruderAxes,0
;   includeM10123,0
;   stickySupport,1
;   detectArcs,0
;   arcReplaceG2G3,0
;   arcRadialCompensation,1
;   gcodeXoffset,0
;   gcodeYoffset,0
;   gcodeZoffset,0
;   overrideMachineDefinition,0
;   machineTypeOverride,0
;   strokeXoverride,250
;   strokeYoverride,250
;   strokeZoverride,250
;   originOffsetXoverride,0
;   originOffsetYoverride,0
;   originOffsetZoverride,0
;   homeXdirOverride,-1
;   homeYdirOverride,-1
;   homeZdirOverride,-1
;   flipXoverride,1
;   flipYoverride,-1
;   flipZoverride,1
;   startingGcode,G28 ; home all axes
;   layerChangeGcode,
;   toolChangeGcode,
;   endingGcode,M104 S0 ; turn off extruder,M140 S0 ; turn off bed,M84 ; disable motors,G28 ; home all axes
;   createX3G,0
;   celebration,0
;   celebrationSong,Random Song
;   createMB5G,0
;   postProcessing,
;   defaultSpeed,6000
;   outlineUnderspeed,0.5
;   solidInfillUnderspeed,0.8
;   supportUnderspeed,0.8
;   rapidXYspeed,10000
;   rapidZspeed,1000
;   minBridgingArea,50
;   bridgingExtrusionMultiplier,1
;   bridgingSpeedMultiplier,1
;   filamentDiameter,3
;   filamentPricePerKg,46
;   useMinPrintHeight,0
;   minPrintHeight,0
;   useMaxPrintHeight,0
;   maxPrintHeight,0
;   useDiaphragm,0
;   diaphragmLayerInterval,20
;   robustSlicing,1
;   mergeAllIntoSolid,0
;   onlyRetractWhenCrossingOutline,1
;   retractBetweenLayers,1
;   useRetractionMinTravel,0
;   retractionMinTravel,3
;   useRetractionOozeRate,0
;   retractionOozeRate,100
;   onlyWipeOutlines,1
;   toolChangeRetractionDistance,12
;   toolChangeExtraRestartDistance,-0.5
;   toolChangeRetractionSpeed,600
;   allowThinWallGapFill,1
;   thinWallAllowedOverlapPercentage,10
G90
M82
M106 S0
M140 S60
M190 S60
M104 S195 T0
M109 S195 T0
G28 ; home all axes
G92 E0
G1 E-1 F1800
; layer 1, Z = 0.09
T0
; tool H0.1 W0.48
G1 X92.735 Y93.076 F10000
G1 Z0.09 F1000
G1 E0 F540
G92 E0
G1 X93.352 Y92.82 E0.0045 F3000
G1 X156.648 Y92.82 E0.4344
G1 X157.265 Y93.076 E0.4389
G1 X162.424 Y98.235 E0.4884
G1 X162.68 Y98.852 E0.493
G1 X162.68 Y151.148 E0.8481
G1 X162.424 Y151.765 E0.8526
G1 X157.265 Y156.924 E0.9022
G1 X156.648 Y157.18 E0.9067
G1 X93.352 Y157.18 E1.3365
G1 X92.735 Y156.924 E1.3411
G1 X87.576 Y151.765 E1.3906
G1 X87.32 Y151.148 E1.3952
G1 X87.32 Y98.852 E1.7503
G1 X87.576 Y98.235 E1.7548
G1 X92.735 Y93.076 E1.8044
G1 X93.007 Y93.483 F10000
G92 E0
G1 X93.448 Y93.3 E0.0032 F3000
G1 X156.552 Y93.3 E0.4318
G1 X156.993 Y93.483 E0.435
G1 X162.017 Y98.507 E0.4832
G1 X162.2 Y98.948 E0.4865
G1 X162.2 Y151.052 E0.8403
G1 X162.017 Y151.493 E0.8436
G1 X156.993 Y156.517 E0.8918
G1 X156.552 Y156.7 E0.895
G1 X93.448 Y156.7 E1.3236
G1 X93.007 Y156.517 E1.3268
G1 X87.983 Y151.493 E1.3751
G1 X87.8 Y151.052 E1.3783
G1 X87.8 Y98.948 E1.7321
G1 X87.983 Y98.507 E1.7354
G1 X93.007 Y93.483 E1.7836
G1 X93.278 Y93.89 F10000
G92 E0
G1 X93.543 Y93.78 E0.0019 F3000
G1 X156.457 Y93.78 E0.4292
G1 X156.722 Y93.89 E0.4311
G1 X161.61 Y98.778 E0.4781
G1 X161.72 Y99.043 E0.48
G1 X161.72 Y150.957 E0.8325
G1 X161.61 Y151.222 E0.8345
G1 X156.722 Y156.11 E0.8814
G1 X156.457 Y156.22 E0.8834
G1 X93.543 Y156.22 E1.3106
G1 X93.278 Y156.11 E1.3125
G1 X88.39 Y151.222 E1.3595
G1 X88.28 Y150.957 E1.3614
G1 X88.28 Y99.043 E1.714
G1 X88.39 Y98.778 E1.7159
G1 X93.278 Y93.89 E1.7629
G1 X93.55 Y94.297 F10000
G92 E0
G1 X93.639 Y94.26 E0.0006 F3000
G1 X156.361 Y94.26 E0.4266
G1 X156.45 Y94.297 E0.4272
G1 X161.203 Y99.05 E0.4729
G1 X161.24 Y99.139 E0.4735
G1 X161.24 Y150.861 E0.8248
G1 X161.203 Y150.95 E0.8254
G1 X156.45 Y155.703 E0.8711
G1 X156.361 Y155.74 E0.8717
G1 X93.639 Y155.74 E1.2976
G1 X93.55 Y155.703 E1.2983
G1 X88.797 Y150.95 E1.3439
G1 X88.76 Y150.861 E1.3446
G1 X88.76 Y99.139 E1.6958
G1 X88.797 Y99.05 E1.6965
G1 X93.55 Y94.297 E1.7421
G92 E0
G1 E-1 F1800
G1 X98.2 Y103.7 F10000
G1 E0 F1800
G92 E0
G1 X151.8 Y103.7 E0.364 F2500
G1 X151.8 Y146.3 E0.6533
G1 X98.2 Y146.3 E1.0172
G1 X98.2 Y103.7 E1.3065
G1 X97.72 Y103.22 F10000
G92 E0
G1 X152.28 Y103.22 E0.3705 F2000
G1 X152.28 Y146.78 E0.6663
G1 X97.72 Y146.78 E1.0368
G1 X97.72 Y103.22 E1.3326
G1 X97.24 Y102.74 F10000
G92 E0
G1 X152.76 Y102.74 E0.377 F1500
G1 X152.76 Y147.26 E0.6793
G1 X97.24 Y147.26 E1.0563
G1 X97.24 Y102.74 E1.3587
G1 X98.608 Y104.311 F10000
G92 E0
G1 X98.811 Y104.108 E0.002 F2400
G1 X99.49 Y104.108 E0.0066
G1 X98.608 Y104.99 E0.015
G1 X98.608 Y105.669 E0.0196
G1 X100.169 Y104.108 E0.0346
G1 X100.848 Y104.108 E0.0392
G1 X98.608 Y106.348 E0.0608
G1 X98.608 Y107.027 E0.0654
G1 X101.527 Y104.108 E0.0934
G1 X102.205 Y104.108 E0.098
G1 X98.608 Y107.705 E0.1326
G1 X98.608 Y108.384 E0.1372
G1 X102.884 Y104.108 E0.1782
G1 X103.563 Y104.108 E0.1828
G1 X98.608 Y109.063 E0.2304
G1 X98.608 Y109.742 E0.235
G1 X104.242 Y104.108 E0.2891
G1 X104.921 Y104.108 E0.2937
G1 X98.608 Y110.421 E0.3544
G1 X98.608 Y111.1 E0.359
G1 X105.6 Y104.108 E0.4261
G1 X106.278 Y104.108 E0.4307
G1 X98.608 Y111.778 E0.5044
G1 X98.608 Y112.457 E0.509
G1 X106.957 Y104.108 E0.5892
G1 X107.636 Y104.108 E0.5938
G1 X98.608 Y113.136 E0.6805
G1 X98.608 Y113.815 E0.6851
G1 X108.315 Y104.108 E0.7783
G1 X108.994 Y104.108 E0.7829
G1 X98.608 Y114.494 E0.8827
G1 X98.608 Y115.173 E0.8873
G1 X109.673 Y104.108 E0.9935
G1 X110.351 Y104.108 E0.9981
G1 X98.608 Y115.851 E1.1109
G1 X98.608 Y116.53 E1.1155
G1 X111.03 Y104.108 E1.2348
G1 X111.709 Y104.108 E1.2394
G1 X98.608 Y117.209 E1.3653
G1 X98.608 Y117.888 E1.3699
G1 X112.388 Y104.108 E1.5022
G1 X113.067 Y104.108 E1.5068
G1 X98.608 Y118.567 E1.6457
G1 X98.608 Y119.245 E1.6503
G1 X113.745 Y104.108 E1.7956
G1 X114.424 Y104.108 E1.8002
G1 X98.608 Y119.924 E1.9521
G1 X98.608 Y120.603 E1.9567
G1 X115.103 Y104.108 E2.1152
G1 X115.782 Y104.108 E2.1198
G1 X98.608 Y121.282 E2.2847
G1 X98.608 Y121.961 E2.2893
G1 X116.461 Y104.108 E2.4607
G1 X117.14 Y104.108 E2.4654
G1 X98.608 Y122.64 E2.6433
G1 X98.608 Y123.318 E2.6479
G1 X117.818 Y104.108 E2.8324
G1 X118.497 Y104.108 E2.837
G1 X98.608 Y123.997 E3.028
G1 X98.608 Y124.676 E3.0326
G1 X119.176 Y104.108 E3.2302
G1 X119.855 Y104.108 E3.2348
G1 X98.608 Y125.355 E3.4388
G1 X98.608 Y126.034 E3.4434
G1 X120.534 Y104.108 E3.654
G1 X121.213 Y104.108 E3.6586
G1 X98.608 Y126.713 E3.8757
G1 X98.608 Y127.391 E3.8803
G1 X121.891 Y104.108 E4.1039
G1 X122.57 Y104.108 E4.1085
G1 X98.608 Y128.07 E4.3386
G1 X98.608 Y128.749 E4.3432
G1 X123.249 Y104.108 E4.5799
G1 X123.928 Y104.108 E4.5845
G1 X98.608 Y129.428 E4.8276
G1 X98.608 Y130.107 E4.8322
G1 X124.607 Y104.108 E5.0819
G1 X125.285 Y104.108 E5.0865
G1 X98.608 Y130.785 E5.3427
G1 X98.608 Y131.464 E5.3473
G1 X125.964 Y104.108 E5.61
G1 X126.643 Y104.108 E5.6146
G1 X98.608 Y132.143 E5.8839
G1 X98.608 Y132.822 E5.8885
G1 X127.322 Y104.108 E6.1642
G1 X128.001 Y104.108 E6.1688
G1 X98.608 Y133.501 E6.4511
G1 X98.608 Y134.18 E6.4557
G1 X128.68 Y104.108 E6.7445
G1 X129.358 Y104.108 E6.7491
G1 X98.608 Y134.858 E7.0444
G1 X98.608 Y135.537 E7.049
G1 X130.037 Y104.108 E7.3509
G1 X130.716 Y104.108 E7.3555
G1 X98.608 Y136.216 E7.6638
G1 X98.608 Y136.895 E7.6684
G1 X131.395 Y104.108 E7.9833
G1 X132.074 Y104.108 E7.9879
G1 X98.608 Y137.574 E8.3093
G1 X98.608 Y138.253 E8.3139
G1 X132.753 Y104.108 E8.6418
G1 X133.431 Y104.108 E8.6464
G1 X98.608 Y138.931 E8.9808
G1 X98.608 Y139.61 E8.9854
G1 X134.11 Y104.108 E9.3264
G1 X134.789 Y104.108 E9.331
G1 X98.608 Y140.289 E9.6784
G1 X98.608 Y140.968 E9.6831
G1 X135.468 Y104.108 E10.037
G1 X136.147 Y104.108 E10.0416
G1 X98.608 Y141.647 E10.4021
G1 X98.608 Y142.325 E10.4068
G1 X136.825 Y104.108 E10.7738
G1 X137.504 Y104.108 E10.7784
G1 X98.608 Y143.004 E11.1519
G1 X98.608 Y143.683 E11.1565
G1 X138.183 Y104.108 E11.5366
G1 X138.862 Y104.108 E11.5412
G1 X98.608 Y144.362 E11.9278
G1 X98.608 Y145.041 E11.9324
G1 X139.541 Y104.108 E12.3255
G1 X140.22 Y104.108 E12.3301
G1 X98.608 Y145.72 E12.7297
G1 X98.608 Y145.892 E12.7309
G1 X99.114 Y145.892 E12.7343
G1 X140.898 Y104.108 E13.1356
G1 X141.577 Y104.108 E13.1402
G1 X99.793 Y145.892 E13.5414
G1 X100.472 Y145.892 E13.546
G1 X142.256 Y104.108 E13.9473
G1 X142.935 Y104.108 E13.9519
G1 X101.151 Y145.892 E14.3532
G1 X101.83 Y145.892 E14.3578
G1 X143.614 Y104.108 E14.7591
G1 X144.292 Y104.108 E14.7637
G1 X102.508 Y145.892 E15.1649
G1 X103.187 Y145.892 E15.1696
G1 X144.971 Y104.108 E15.5708
G1 X145.65 Y104.108 E15.5754
G1 X103.866 Y145.892 E15.9767
G1 X104.545 Y145.892 E15.9813
G1 X146.329 Y104.108 E16.3826
G1 X147.008 Y104.108 E16.3872
G1 X105.224 Y145.892 E16.7885
G1 X105.903 Y145.892 E16.7931
G1 X147.687 Y104.108 E17.1943
G1 X148.365 Y104.108 E17.1989
G1 X106.581 Y145.892 E17.6002
G1 X107.26 Y145.892 E17.6048
G1 X149.044 Y104.108 E18.0061
G1 X149.723 Y104.108 E18.0107
G1 X107.939 Y145.892 E18.412
G1 X108.618 Y145.892 E18.4166
G1 X150.402 Y104.108 E18.8178
G1 X151.081 Y104.108 E18.8224
G1 X109.297 Y145.892 E19.2237
G1 X109.976 Y145.892 E19.2283
G1 X151.392 Y104.476 E19.6261
G1 X151.392 Y105.154 E19.6307
G1 X110.654 Y145.892 E20.0219
G1 X111.333 Y145.892 E20.0265
G1 X151.392 Y105.833 E20.4112
G1 X151.392 Y106.512 E20.4158
G1 X112.012 Y145.892 E20.794
G1 X112.691 Y145.892 E20.7986
G1 X151.392 Y107.191 E21.1703
G1 X151.392 Y107.87 E21.1749
G1 X113.37 Y145.892 E21.54
G1 X114.048 Y145.892 E21.5446
G1 X151.392 Y108.548 E21.9032
G1 X151.392 Y109.227 E21.9079
G1 X114.727 Y145.892 E22.26
G1 X115.406 Y145.892 E22.2646
G1 X151.392 Y109.906 E22.6102
G1 X151.392 Y110.585 E22.6148
G1 X116.085 Y145.892 E22.9538
G1 X116.764 Y145.892 E22.9584
G1 X151.392 Y111.264 E23.291
G1 X151.392 Y111.943 E23.2956
G1 X117.443 Y145.892 E23.6216
G1 X118.121 Y145.892 E23.6262
G1 X151.392 Y112.621 E23.9458
G1 X151.392 Y113.3 E23.9504
G1 X118.8 Y145.892 E24.2634
G1 X119.479 Y145.892 E24.268
G1 X151.392 Y113.979 E24.5744
G1 X151.392 Y114.658 E24.579
G1 X120.158 Y145.892 E24.879
G1 X120.837 Y145.892 E24.8836
G1 X151.392 Y115.337 E25.177
G1 X151.392 Y116.016 E25.1816
G1 X121.516 Y145.892 E25.4686
G1 X122.194 Y145.892 E25.4732
G1 X151.392 Y116.694 E25.7536
G1 X151.392 Y117.373 E25.7582
G1 X122.873 Y145.892 E26.0321
G1 X123.552 Y145.892 E26.0367
G1 X151.392 Y118.052 E26.304
G1 X151.392 Y118.731 E26.3086
G1 X124.231 Y145.892 E26.5695
G1 X124.91 Y145.892 E26.5741
G1 X151.392 Y119.41 E26.8284
G1 X151.392 Y120.088 E26.833
G1 X125.588 Y145.892 E27.0808
G1 X126.267 Y145.892 E27.0854
G1 X151.392 Y120.767 E27.3267
G1 X151.392 Y121.446 E27.3313
G1 X126.946 Y145.892 E27.5661
G1 X127.625 Y145.892 E27.5707
G1 X151.392 Y122.125 E27.7989
G1 X151.392 Y122.804 E27.8035
G1 X128.304 Y145.892 E28.0253
G1 X128.983 Y145.892 E28.0299
G1 X151.392 Y123.483 E28.2451
G1 X151.392 Y124.161 E28.2497
G1 X129.661 Y145.892 E28.4584
G1 X130.34 Y145.892 E28.463
G1 X151.392 Y124.84 E28.6652
G1 X151.392 Y125.519 E28.6698
G1 X131.019 Y145.892 E28.8654
G1 X131.698 Y145.892 E28.87
G1 X151.392 Y126.198 E29.0592
G1 X151.392 Y126.877 E29.0638
G1 X132.377 Y145.892 E29.2464
G1 X133.055 Y145.892 E29.251
G1 X151.392 Y127.555 E29.4271
G1 X151.392 Y128.234 E29.4317
G1 X133.734 Y145.892 E29.6013
G1 X134.413 Y145.892 E29.6059
G1 X151.392 Y128.913 E29.7689
G1 X151.392 Y129.592 E29.7735
G1 X135.092 Y145.892 E29.9301
G1 X135.771 Y145.892 E29.9347
G1 X151.392 Y130.271 E30.0847
G1 X151.392 Y130.95 E30.0893
G1 X136.45 Y145.892 E30.2328
G1 X137.128 Y145.892 E30.2374
G1 X151.392 Y131.628 E30.3744
G1 X151.392 Y132.307 E30.379
G1 X137.807 Y145.892 E30.5095
G1 X138.486 Y145.892 E30.5141
G1 X151.392 Y132.986 E30.638
G1 X151.392 Y133.665 E30.6426
G1 X139.165 Y145.892 E30.76
G1 X139.844 Y145.892 E30.7647
G1 X151.392 Y134.344 E30.8756
G1 X151.392 Y135.023 E30.8802
G1 X140.523 Y145.892 E30.9845
G1 X141.201 Y145.892 E30.9892
G1 X151.392 Y135.701 E31.087
G1 X151.392 Y136.38 E31.0916
G1 X141.88 Y145.892 E31.183
G1 X142.559 Y145.892 E31.1876
G1 X151.392 Y137.059 E31.2724
G1 X151.392 Y137.738 E31.277
G1 X143.238 Y145.892 E31.3553
G1 X143.917 Y145.892 E31.3599
G1 X151.392 Y138.417 E31.4317
G1 X151.392 Y139.095 E31.4363
G1 X144.595 Y145.892 E31.5016
G1 X145.274 Y145.892 E31.5062
G1 X151.392 Y139.774 E31.565
G1 X151.392 Y140.453 E31.5696
G1 X145.953 Y145.892 E31.6218
G1 X146.632 Y145.892 E31.6264
G1 X151.392 Y141.132 E31.6721
G1 X151.392 Y141.811 E31.6767
G1 X147.311 Y145.892 E31.7159
G1 X147.99 Y145.892 E31.7205
G1 X151.392 Y142.49 E31.7532
G1 X151.392 Y143.168 E31.7578
G1 X148.668 Y145.892 E31.784
G1 X149.347 Y145.892 E31.7886
G1 X151.392 Y143.847 E31.8082
G1 X151.392 Y144.526 E31.8128
G1 X150.026 Y145.892 E31.826
G1 X150.705 Y145.892 E31.8306
G1 X151.392 Y145.205 E31.8372
G1 X151.392 Y145.884 E31.8418
G1 X151.384 Y145.892 E31.8419
G1 X151.392 Y145.892 E31.8419
G1 X151.392 Y145.884 E31.842
G92 E0
G1 E-1 F1800
; layer 2, Z = 0.19
M106 S255
G1 X162.68 Y151.148 F10000
G1 Z0.19 F1000
G1 E0 F1800
G92 E0
G1 X162.424 Y151.765 E0.0045 F6000
G1 X157.265 Y156.924 E0.0541
G1 X156.648 Y157.18 E0.0586
G1 X93.352 Y157.18 E0.4884
G1 X92.735 Y156.924 E0.493
G1 X87.576 Y151.765 E0.5425
G1 X87.32 Y151.148 E0.5471
G1 X87.32 Y98.852 E0.9022
G1 X87.576 Y98.235 E0.9067
G1 X92.735 Y93.076 E0.9563
G1 X93.352 Y92.82 E0.9608
G1 X156.648 Y92.82 E1.3906
G1 X157.265 Y93.076 E1.3952
G1 X162.424 Y98.235 E1.4447
G1 X162.68 Y98.852 E1.4492
G1 X162.68 Y151.148 E1.8044
G1 X162.2 Y151.052 F10000
G92 E0
G1 X162.017 Y151.493 E0.0032 F6000
G1 X156.993 Y156.517 E0.0515
G1 X156.552 Y156.7 E0.0547
G1 X93.448 Y156.7 E0.4832
G1 X93.007 Y156.517 E0.4865
G1 X87.983 Y151.493 E0.5347
G1 X87.8 Y151.052 E0.538
G1 X87.8 Y98.948 E0.8918
G1 X87.983 Y98.507 E0.895
G1 X93.007 Y93.483 E0.9433
G1 X93.448 Y93.3 E0.9465
G1 X156.552 Y93.3 E1.3751
G1 X156.993 Y93.483 E1.3783
G1 X162.017 Y98.507 E1.4265
G1 X162.2 Y98.948 E1.4298
