; G-Code generated by Simplify3D(TM) Version 2.2.0
; Mar 8, 2015 at 4:25:35 PM
; Settings Summary
;   processName,PETG
;   applyToModels,Window_Attachment
;   profileLabel,Prusa Mendel
;   printMaterial,PLA
;   printQuality,Fast
;   extruderName,Primary Extruder
;   extruderToolheadNumber,0
;   extruderDiameter,0.4
;   extruderAutoWidth,1
;   extruderWidth,0.48
;   extrusionMultiplier,0.9
;   extruderUseRetract,1
;   extruderRetractionDistance,2
;   extruderExtraRestartDistance,0
;   extruderRetractionZLift,0
;   extruderRetractionSpeed,1800
;   extruderUseCoasting,1
;   extruderCoastingDistance,0.2
;   extruderUseWipe,0
;   extruderWipeDistance,5
;   primaryExtruder,0
;   layerHeight,0.2
;   topSolidLayers,3
;   bottomSolidLayers,3
;   perimeterOutlines,2
;   printPerimetersInsideOut,1
;   startPointOption,2
;   startPointOriginX,0
;   startPointOriginY,0
;   startPointOriginZ,300
;   sequentialIslands,0
;   spiralVaseMode,0
;   firstLayerHeightPercentage,100
;   firstLayerWidthPercentage,100
;   firstLayerUnderspeed,0.5
;   useRaft,0
;   raftExtruder,0
;   raftLayers,3
;   raftOffset,3
;   raftSeparationDistance,0.14
;   raftInfill,85
;   disableRaftBaseLayers,0
;   useSkirt,1
;   skirtExtruder,0
;   skirtLayers,1
;   skirtOutlines,2
;   skirtOffset,4
;   infillExtruder,0
;   externalInfillPattern,Rectilinear
;   infillPercentage,15
;   outlineOverlapPercentage,15
;   infillExtrusionWidthPercentage,100
;   minInfillLength,5
;   infillLayerInterval,1
;   randomInfillStartPoint,0
;   infillAngles,45,-45
;   generateSupport,0
;   supportExtruder,0
;   supportInfill,25
;   supportExtraInflation,0
;   denseSupportLayers,0
;   denseSupportInfill,70
;   supportLayerInterval,1
;   supportHorizontalPartOffset,0.3
;   supportUpperSeparationLayers,1
;   supportLowerSeparationLayers,1
;   supportGridSpacing,2
;   maxOverhangAngle,45
;   supportAngles,0
;   temperatureName,Primary Extruder,Heated Bed
;   temperatureNumber,0,1
;   temperatureSetpointCount,1,1
;   temperatureSetpointLayers,1,1
;   temperatureSetpointTemperatures,250,70
;   temperatureStabilizeAtStartup,1,1
;   temperatureHeatedBed,0,1
;   temperatureRelayBetweenLayers,0,0
;   temperatureRelayBetweenLoops,0,0
;   fanLayers,1,2
;   fanSpeeds,0,100
;   blipFanToFullPower,1
;   adjustSpeedForCooling,1
;   minSpeedLayerTime,15
;   minCoolingSpeedSlowdown,20
;   increaseFanForCooling,0
;   minFanLayerTime,45
;   maxCoolingFanSpeed,100
;   increaseFanForBridging,0
;   bridgingFanSpeed,100
;   use5D,1
;   relativeEdistances,0
;   allowEaxisZeroing,1
;   independentExtruderAxes,0
;   includeM10123,0
;   stickySupport,1
;   detectArcs,0
;   arcReplaceG2G3,0
;   arcRadialCompensation,1
;   gcodeXoffset,0
;   gcodeYoffset,0
;   gcodeZoffset,0
;   overrideMachineDefinition,0
;   machineTypeOverride,0
;   strokeXoverride,200
;   strokeYoverride,200
;   strokeZoverride,100
;   originOffsetXoverride,0
;   originOffsetYoverride,0
;   originOffsetZoverride,0
;   homeXdirOverride,-1
;   homeYdirOverride,-1
;   homeZdirOverride,-1
;   flipXoverride,1
;   flipYoverride,-1
;   flipZoverride,1
;   startingGcode,G28 ;,G29 ; ABL
;   layerChangeGcode,
;   toolChangeGcode,
;   endingGcode,M104 S0 ; turn off extruder,M140 S0 ; turn off bed,G28 X ;,G28 Y ; h,M84 ; disable motors
;   createX3G,0
;   celebration,0
;   celebrationSong,Random Song
;   createMB5G,0
;   postProcessing,
;   defaultSpeed,2400
;   outlineUnderspeed,0.5
;   solidInfillUnderspeed,0.8
;   supportUnderspeed,0.8
;   rapidXYspeed,4800
;   rapidZspeed,1002
;   minBridgingArea,50
;   bridgingExtrusionMultiplier,1
;   bridgingSpeedMultiplier,1
;   filamentDiameter,1.75
;   filamentPricePerKg,46
;   useMinPrintHeight,0
;   minPrintHeight,0
;   useMaxPrintHeight,0
;   maxPrintHeight,0
;   useDiaphragm,0
;   diaphragmLayerInterval,20
;   robustSlicing,1
;   mergeAllIntoSolid,0
;   onlyRetractWhenCrossingOutline,1
;   retractBetweenLayers,1
;   useRetractionMinTravel,0
;   retractionMinTravel,3
;   useRetractionOozeRate,0
;   retractionOozeRate,6000
;   onlyWipeOutlines,1
;   toolChangeRetractionDistance,12
;   toolChangeExtraRestartDistance,-0.5
;   toolChangeRetractionSpeed,600
;   allowThinWallGapFill,1
;   thinWallAllowedOverlapPercentage,10
G90
M82
M106 S0
M140 S70
M190 S70
M104 S250 T0
M109 S250 T0
G28 ;
G29 ; ABL
G92 E0
G1 E-2 F1800
; layer 1, Z = 0.2
T0
; tool H0.2 W0.48
G1 X97.78 Y35.672 F4800
G1 Z0.2 F1002
G1 E0 F540
G92 E0
G1 X97.89 Y35.407 E0.0103 F1200
G1 X100.435 Y32.862 E0.1396
G1 X100.7 Y32.752 E0.1499
G1 X124.3 Y32.752 E0.9976
G1 X124.565 Y32.862 E1.0079
G1 X127.11 Y35.407 E1.1372
G1 X127.22 Y35.672 E1.1475
G1 X127.22 Y189.272 E6.665
G1 X127.11 Y189.537 E6.6753
G1 X124.565 Y192.083 E6.8046
G1 X124.3 Y192.192 E6.8149
G1 X100.7 Y192.192 E7.6626
G1 X100.435 Y192.083 E7.6729
G1 X97.89 Y189.537 E7.8022
G1 X97.78 Y189.272 E7.8125
G1 X97.78 Y35.872 E13.3228
G1 X97.78 Y35.672 F1200
G1 X98.26 Y35.768 F4800
G92 E0
G1 X98.297 Y35.679 E0.0034 F1200
G1 X100.707 Y33.269 E0.1259
G1 X100.795 Y33.232 E0.1293
G1 X124.205 Y33.232 E0.9702
G1 X124.293 Y33.269 E0.9736
G1 X126.703 Y35.679 E1.0961
G1 X126.74 Y35.768 E1.0995
G1 X126.74 Y189.177 E6.6101
G1 X126.703 Y189.265 E6.6136
G1 X124.293 Y191.676 E6.736
G1 X124.205 Y191.712 E6.7394
G1 X100.795 Y191.712 E7.5803
G1 X100.707 Y191.676 E7.5838
G1 X98.297 Y189.265 E7.7062
G1 X98.26 Y189.177 E7.7096
G1 X98.26 Y35.968 E13.2131
G1 X98.26 Y35.768 F1200
G92 E0
G1 E-2 F1800
G1 X103.22 Y38.192 F4800
G1 E0 F1800
G92 E0
G1 X121.78 Y38.192 E0.6667 F900
G1 X121.78 Y186.752 E6.0031
G1 X103.22 Y186.752 E6.6698
G1 X103.22 Y38.392 E11.999
G1 X103.22 Y38.192 F900
G1 X102.74 Y37.712 F4800
G92 E0
G1 X122.26 Y37.712 E0.7012 F600
G1 X122.26 Y187.232 E6.0721
G1 X102.74 Y187.232 E6.7733
G1 X102.74 Y37.912 E12.137
G1 X102.74 Y37.712 F600
G1 X103.628 Y39.085 F4800
G92 E0
G1 X104.113 Y38.6 E0.0246 F960
G1 X104.791 Y38.6 E0.049
G1 X103.628 Y39.764 E0.1081
G1 X103.628 Y40.442 E0.1325
G1 X105.47 Y38.6 E0.2261
G1 X106.149 Y38.6 E0.2505
G1 X103.628 Y41.121 E0.3785
G1 X103.628 Y41.8 E0.4029
G1 X106.828 Y38.6 E0.5655
G1 X107.507 Y38.6 E0.5898
G1 X103.628 Y42.479 E0.7869
G1 X103.628 Y43.158 E0.8113
G1 X108.186 Y38.6 E1.0428
G1 X108.864 Y38.6 E1.0672
G1 X103.628 Y43.837 E1.3332
G1 X103.628 Y44.515 E1.3576
G1 X109.543 Y38.6 E1.658
G1 X110.222 Y38.6 E1.6824
G1 X103.628 Y45.194 E2.0174
G1 X103.628 Y45.873 E2.0418
G1 X110.901 Y38.6 E2.4112
G1 X111.58 Y38.6 E2.4356
G1 X103.628 Y46.552 E2.8396
G1 X103.628 Y47.231 E2.864
G1 X112.258 Y38.6 E3.3024
G1 X112.937 Y38.6 E3.3268
G1 X103.628 Y47.909 E3.7997
G1 X103.628 Y48.588 E3.8241
G1 X113.616 Y38.6 E4.3315
G1 X114.295 Y38.6 E4.3558
G1 X103.628 Y49.267 E4.8977
G1 X103.628 Y49.946 E4.9221
G1 X114.974 Y38.6 E5.4985
G1 X115.653 Y38.6 E5.5228
G1 X103.628 Y50.625 E6.1337
G1 X103.628 Y51.304 E6.1581
G1 X116.331 Y38.6 E6.8034
G1 X117.01 Y38.6 E6.8278
G1 X103.628 Y51.982 E7.5076
G1 X103.628 Y52.661 E7.532
G1 X117.689 Y38.6 E8.2463
G1 X118.368 Y38.6 E8.2707
G1 X103.628 Y53.34 E9.0194
G1 X103.628 Y54.019 E9.0438
G1 X119.047 Y38.6 E9.8271
G1 X119.725 Y38.6 E9.8515
G1 X103.628 Y54.698 E10.6692
G1 X103.628 Y55.376 E10.6936
G1 X120.404 Y38.6 E11.5459
G1 X121.083 Y38.6 E11.5702
G1 X103.628 Y56.055 E12.457
G1 X103.628 Y56.734 E12.4813
G1 X121.372 Y38.99 E13.3827
G1 X121.372 Y39.669 E13.4071
G1 X103.628 Y57.413 E14.3085
G1 X103.628 Y58.092 E14.3329
G1 X121.372 Y40.348 E15.2343
G1 X121.372 Y41.027 E15.2587
G1 X103.628 Y58.771 E16.1601
G1 X103.628 Y59.449 E16.1844
G1 X121.372 Y41.705 E17.0858
G1 X121.372 Y42.384 E17.1102
G1 X103.628 Y60.128 E18.0116
G1 X103.628 Y60.807 E18.036
G1 X121.372 Y43.063 E18.9374
G1 X121.372 Y43.742 E18.9618
G1 X103.628 Y61.486 E19.8632
G1 X103.628 Y62.165 E19.8876
G1 X121.372 Y44.421 E20.789
G1 X121.372 Y45.1 E20.8133
G1 X103.628 Y62.844 E21.7147
G1 X103.628 Y63.522 E21.7391
G1 X121.372 Y45.778 E22.6405
G1 X121.372 Y46.457 E22.6649
G1 X103.628 Y64.201 E23.5663
G1 X103.628 Y64.88 E23.5907
G1 X121.372 Y47.136 E24.4921
G1 X121.372 Y47.815 E24.5164
G1 X103.628 Y65.559 E25.4178
G1 X103.628 Y66.238 E25.4422
G1 X121.372 Y48.494 E26.3436
G1 X121.372 Y49.172 E26.368
G1 X103.628 Y66.916 E27.2694
G1 X103.628 Y67.595 E27.2938
G1 X121.372 Y49.851 E28.1952
G1 X121.372 Y50.53 E28.2196
G1 X103.628 Y68.274 E29.1209
G1 X103.628 Y68.953 E29.1453
G1 X121.372 Y51.209 E30.0467
G1 X121.372 Y51.888 E30.0711
G1 X103.628 Y69.632 E30.9725
G1 X103.628 Y70.311 E30.9969
G1 X121.372 Y52.567 E31.8983
G1 X121.372 Y53.245 E31.9227
G1 X103.628 Y70.989 E32.8241
G1 X103.628 Y71.668 E32.8484
G1 X121.372 Y53.924 E33.7498
G1 X121.372 Y54.603 E33.7742
G1 X103.628 Y72.347 E34.6756
G1 X103.628 Y73.026 E34.7
G1 X121.372 Y55.282 E35.6014
G1 X121.372 Y55.961 E35.6258
G1 X103.628 Y73.705 E36.5272
G1 X103.628 Y74.384 E36.5515
G1 X121.372 Y56.64 E37.4529
G1 X121.372 Y57.318 E37.4773
G1 X103.628 Y75.062 E38.3787
G1 X103.628 Y75.741 E38.4031
G1 X121.372 Y57.997 E39.3045
G1 X121.372 Y58.676 E39.3289
G1 X103.628 Y76.42 E40.2303
G1 X103.628 Y77.099 E40.2547
G1 X121.372 Y59.355 E41.156
G1 X121.372 Y60.034 E41.1804
G1 X103.628 Y77.778 E42.0818
G1 X103.628 Y78.456 E42.1062
G1 X121.372 Y60.712 E43.0076
G1 X121.372 Y61.391 E43.032
G1 X103.628 Y79.135 E43.9334
G1 X103.628 Y79.814 E43.9578
G1 X121.372 Y62.07 E44.8592
G1 X121.372 Y62.749 E44.8835
G1 X103.628 Y80.493 E45.7849
G1 X103.628 Y81.172 E45.8093
G1 X121.372 Y63.428 E46.7107
G1 X121.372 Y64.107 E46.7351
G1 X103.628 Y81.851 E47.6365
G1 X103.628 Y82.529 E47.6609
G1 X121.372 Y64.785 E48.5623
G1 X121.372 Y65.464 E48.5866
G1 X103.628 Y83.208 E49.488
G1 X103.628 Y83.887 E49.5124
G1 X121.372 Y66.143 E50.4138
G1 X121.372 Y66.822 E50.4382
G1 X103.628 Y84.566 E51.3396
G1 X103.628 Y85.245 E51.364
G1 X121.372 Y67.501 E52.2654
G1 X121.372 Y68.18 E52.2898
G1 X103.628 Y85.924 E53.1912
G1 X103.628 Y86.602 E53.2155
G1 X121.372 Y68.858 E54.1169
G1 X121.372 Y69.537 E54.1413
G1 X103.628 Y87.281 E55.0427
G1 X103.628 Y87.96 E55.0671
G1 X121.372 Y70.216 E55.9685
G1 X121.372 Y70.895 E55.9929
G1 X103.628 Y88.639 E56.8943
G1 X103.628 Y89.318 E56.9186
G1 X121.372 Y71.574 E57.82
G1 X121.372 Y72.252 E57.8444
G1 X103.628 Y89.996 E58.7458
G1 X103.628 Y90.675 E58.7702
G1 X121.372 Y72.931 E59.6716
G1 X121.372 Y73.61 E59.696
G1 X103.628 Y91.354 E60.5974
G1 X103.628 Y92.033 E60.6218
G1 X121.372 Y74.289 E61.5231
G1 X121.372 Y74.968 E61.5475
G1 X103.628 Y92.712 E62.4489
G1 X103.628 Y93.391 E62.4733
G1 X121.372 Y75.647 E63.3747
G1 X121.372 Y76.325 E63.3991
G1 X103.628 Y94.069 E64.3005
G1 X103.628 Y94.748 E64.3249
G1 X121.372 Y77.004 E65.2263
G1 X121.372 Y77.683 E65.2506
G1 X103.628 Y95.427 E66.152
G1 X103.628 Y96.106 E66.1764
G1 X121.372 Y78.362 E67.0778
G1 X121.372 Y79.041 E67.1022
G1 X103.628 Y96.785 E68.0036
G1 X103.628 Y97.463 E68.028
G1 X121.372 Y79.719 E68.9294
G1 X121.372 Y80.398 E68.9537
G1 X103.628 Y98.142 E69.8551
G1 X103.628 Y98.821 E69.8795
G1 X121.372 Y81.077 E70.7809
G1 X121.372 Y81.756 E70.8053
G1 X103.628 Y99.5 E71.7067
G1 X103.628 Y100.179 E71.7311
G1 X121.372 Y82.435 E72.6325
G1 X121.372 Y83.114 E72.6569
G1 X103.628 Y100.858 E73.5582
G1 X103.628 Y101.536 E73.5826
G1 X121.372 Y83.792 E74.484
G1 X121.372 Y84.471 E74.5084
G1 X103.628 Y102.215 E75.4098
G1 X103.628 Y102.894 E75.4342
G1 X121.372 Y85.15 E76.3356
G1 X121.372 Y85.829 E76.36
G1 X103.628 Y103.573 E77.2614
G1 X103.628 Y104.252 E77.2857
G1 X121.372 Y86.508 E78.1871
G1 X121.372 Y87.187 E78.2115
G1 X103.628 Y104.931 E79.1129
G1 X103.628 Y105.609 E79.1373
G1 X121.372 Y87.865 E80.0387
G1 X121.372 Y88.544 E80.0631
G1 X103.628 Y106.288 E80.9645
G1 X103.628 Y106.967 E80.9889
G1 X121.372 Y89.223 E81.8902
G1 X121.372 Y89.902 E81.9146
G1 X103.628 Y107.646 E82.816
G1 X103.628 Y108.325 E82.8404
G1 X121.372 Y90.581 E83.7418
G1 X121.372 Y91.259 E83.7662
G1 X103.628 Y109.003 E84.6676
G1 X103.628 Y109.682 E84.692
G1 X121.372 Y91.938 E85.5934
G1 X121.372 Y92.617 E85.6177
G1 X103.628 Y110.361 E86.5191
G1 X103.628 Y111.04 E86.5435
G1 X121.372 Y93.296 E87.4449
G1 X121.372 Y93.975 E87.4693
G1 X103.628 Y111.719 E88.3707
G1 X103.628 Y112.398 E88.3951
G1 X121.372 Y94.654 E89.2965
G1 X121.372 Y95.332 E89.3208
G1 X103.628 Y113.076 E90.2222
G1 X103.628 Y113.755 E90.2466
G1 X121.372 Y96.011 E91.148
G1 X121.372 Y96.69 E91.1724
G1 X103.628 Y114.434 E92.0738
G1 X103.628 Y115.113 E92.0982
G1 X121.372 Y97.369 E92.9996
G1 X121.372 Y98.048 E93.024
G1 X103.628 Y115.792 E93.9253
G1 X103.628 Y116.471 E93.9497
G1 X121.372 Y98.727 E94.8511
G1 X121.372 Y99.405 E94.8755
G1 X103.628 Y117.149 E95.7769
G1 X103.628 Y117.828 E95.8013
G1 X121.372 Y100.084 E96.7027
G1 X121.372 Y100.763 E96.7271
G1 X103.628 Y118.507 E97.6285
G1 X103.628 Y119.186 E97.6528
G1 X121.372 Y101.442 E98.5542
G1 X121.372 Y102.121 E98.5786
G1 X103.628 Y119.865 E99.48
G1 X103.628 Y120.543 E99.5044
G1 X121.372 Y102.799 E100.4058
G1 X121.372 Y103.478 E100.4302
G1 X103.628 Y121.222 E101.3316
G1 X103.628 Y121.901 E101.3559
G1 X121.372 Y104.157 E102.2573
G1 X121.372 Y104.836 E102.2817
G1 X103.628 Y122.58 E103.1831
G1 X103.628 Y123.259 E103.2075
G1 X121.372 Y105.515 E104.1089
G1 X121.372 Y106.194 E104.1333
G1 X103.628 Y123.938 E105.0347
G1 X103.628 Y124.616 E105.0591
G1 X121.372 Y106.872 E105.9604
G1 X121.372 Y107.551 E105.9848
G1 X103.628 Y125.295 E106.8862
G1 X103.628 Y125.974 E106.9106
G1 X121.372 Y108.23 E107.812
G1 X121.372 Y108.909 E107.8364
G1 X103.628 Y126.653 E108.7378
G1 X103.628 Y127.332 E108.7622
G1 X121.372 Y109.588 E109.6636
G1 X121.372 Y110.267 E109.6879
G1 X103.628 Y128.011 E110.5893
G1 X103.628 Y128.689 E110.6137
G1 X121.372 Y110.945 E111.5151
G1 X121.372 Y111.624 E111.5395
G1 X103.628 Y129.368 E112.4409
G1 X103.628 Y130.047 E112.4653
G1 X121.372 Y112.303 E113.3667
G1 X121.372 Y112.982 E113.3911
G1 X103.628 Y130.726 E114.2924
G1 X103.628 Y131.405 E114.3168
G1 X121.372 Y113.661 E115.2182
G1 X121.372 Y114.339 E115.2426
G1 X103.628 Y132.083 E116.144
G1 X103.628 Y132.762 E116.1684
G1 X121.372 Y115.018 E117.0698
G1 X121.372 Y115.697 E117.0942
G1 X103.628 Y133.441 E117.9956
G1 X103.628 Y134.12 E118.0199
G1 X121.372 Y116.376 E118.9213
G1 X121.372 Y117.055 E118.9457
G1 X103.628 Y134.799 E119.8471
G1 X103.628 Y135.478 E119.8715
G1 X121.372 Y117.734 E120.7729
G1 X121.372 Y118.412 E120.7973
G1 X103.628 Y136.156 E121.6987
G1 X103.628 Y136.835 E121.723
G1 X121.372 Y119.091 E122.6244
G1 X121.372 Y119.77 E122.6488
G1 X103.628 Y137.514 E123.5502
G1 X103.628 Y138.193 E123.5746
G1 X121.372 Y120.449 E124.476
G1 X121.372 Y121.128 E124.5004
G1 X103.628 Y138.872 E125.4018
G1 X103.628 Y139.55 E125.4262
G1 X121.372 Y121.806 E126.3275
G1 X121.372 Y122.485 E126.3519
G1 X103.628 Y140.229 E127.2533
G1 X103.628 Y140.908 E127.2777
G1 X121.372 Y123.164 E128.1791
G1 X121.372 Y123.843 E128.2035
G1 X103.628 Y141.587 E129.1049
G1 X103.628 Y142.266 E129.1293
G1 X121.372 Y124.522 E130.0307
G1 X121.372 Y125.201 E130.055
G1 X103.628 Y142.945 E130.9564
G1 X103.628 Y143.623 E130.9808
G1 X121.372 Y125.879 E131.8822
G1 X121.372 Y126.558 E131.9066
G1 X103.628 Y144.302 E132.808
G1 X103.628 Y144.981 E132.8324
G1 X121.372 Y127.237 E133.7338
G1 X121.372 Y127.916 E133.7581
G1 X103.628 Y145.66 E134.6595
G1 X103.628 Y146.339 E134.6839
G1 X121.372 Y128.595 E135.5853
G1 X121.372 Y129.274 E135.6097
G1 X103.628 Y147.018 E136.5111
G1 X103.628 Y147.696 E136.5355
G1 X121.372 Y129.952 E137.4369
G1 X121.372 Y130.631 E137.4613
G1 X103.628 Y148.375 E138.3627
G1 X103.628 Y149.054 E138.387
G1 X121.372 Y131.31 E139.2884
G1 X121.372 Y131.989 E139.3128
G1 X103.628 Y149.733 E140.2142
G1 X103.628 Y150.412 E140.2386
G1 X121.372 Y132.668 E141.14
G1 X121.372 Y133.346 E141.1644
G1 X103.628 Y151.09 E142.0658
G1 X103.628 Y151.769 E142.0901
G1 X121.372 Y134.025 E142.9915
G1 X121.372 Y134.704 E143.0159
G1 X103.628 Y152.448 E143.9173
G1 X103.628 Y153.127 E143.9417
G1 X121.372 Y135.383 E144.8431
G1 X121.372 Y136.062 E144.8675
G1 X103.628 Y153.806 E145.7689
G1 X103.628 Y154.485 E145.7933
G1 X121.372 Y136.741 E146.6946
G1 X121.372 Y137.419 E146.719
G1 X103.628 Y155.163 E147.6204
G1 X103.628 Y155.842 E147.6448
G1 X121.372 Y138.098 E148.5462
G1 X121.372 Y138.777 E148.5706
G1 X103.628 Y156.521 E149.472
G1 X103.628 Y157.2 E149.4964
G1 X121.372 Y139.456 E150.3978
