; G-Code generated by Simplify3D(TM) Version 2.2.0
; Mar 14, 2015 at 11:43:04 AM
; Settings Summary
;   processName,ABS
;   applyToModels,Window_Attachment
;   profileLabel,Prusa Mendel
;   printMaterial,ABS
;   printQuality,Fast
;   extruderName,Primary Extruder
;   extruderToolheadNumber,0
;   extruderDiameter,0.4
;   extruderAutoWidth,1
;   extruderWidth,0.48
;   extrusionMultiplier,1
;   extruderUseRetract,1
;   extruderRetractionDistance,1
;   extruderExtraRestartDistance,0
;   extruderRetractionZLift,0
;   extruderRetractionSpeed,1800
;   extruderUseCoasting,0
;   extruderCoastingDistance,0.2
;   extruderUseWipe,0
;   extruderWipeDistance,5
;   primaryExtruder,0
;   layerHeight,0.12
;   topSolidLayers,3
;   bottomSolidLayers,3
;   perimeterOutlines,3
;   printPerimetersInsideOut,1
;   startPointOption,2
;   startPointOriginX,0
;   startPointOriginY,0
;   startPointOriginZ,300
;   sequentialIslands,0
;   spiralVaseMode,0
;   firstLayerHeightPercentage,90
;   firstLayerWidthPercentage,100
;   firstLayerUnderspeed,0.5
;   useRaft,0
;   raftExtruder,0
;   raftLayers,3
;   raftOffset,3
;   raftSeparationDistance,0.14
;   raftInfill,85
;   disableRaftBaseLayers,0
;   useSkirt,1
;   skirtExtruder,0
;   skirtLayers,1
;   skirtOutlines,4
;   skirtOffset,4
;   infillExtruder,0
;   externalInfillPattern,Rectilinear
;   infillPercentage,15
;   outlineOverlapPercentage,15
;   infillExtrusionWidthPercentage,100
;   minInfillLength,5
;   infillLayerInterval,1
;   randomInfillStartPoint,0
;   infillAngles,45,-45
;   generateSupport,1
;   supportExtruder,0
;   supportInfill,25
;   supportExtraInflation,0
;   denseSupportLayers,0
;   denseSupportInfill,70
;   supportLayerInterval,1
;   supportHorizontalPartOffset,0.3
;   supportUpperSeparationLayers,1
;   supportLowerSeparationLayers,1
;   supportGridSpacing,4
;   maxOverhangAngle,45
;   supportAngles,0
;   temperatureName,Primary Extruder,Heated Bed
;   temperatureNumber,0,1
;   temperatureSetpointCount,1,1
;   temperatureSetpointLayers,1,1
;   temperatureSetpointTemperatures,240,100
;   temperatureStabilizeAtStartup,1,1
;   temperatureHeatedBed,0,1
;   temperatureRelayBetweenLayers,0,0
;   temperatureRelayBetweenLoops,0,0
;   fanLayers,1
;   fanSpeeds,0
;   blipFanToFullPower,1
;   adjustSpeedForCooling,1
;   minSpeedLayerTime,15
;   minCoolingSpeedSlowdown,20
;   increaseFanForCooling,0
;   minFanLayerTime,45
;   maxCoolingFanSpeed,100
;   increaseFanForBridging,0
;   bridgingFanSpeed,100
;   use5D,1
;   relativeEdistances,0
;   allowEaxisZeroing,1
;   independentExtruderAxes,0
;   includeM10123,0
;   stickySupport,1
;   detectArcs,0
;   arcReplaceG2G3,0
;   arcRadialCompensation,1
;   gcodeXoffset,0
;   gcodeYoffset,0
;   gcodeZoffset,0
;   overrideMachineDefinition,0
;   machineTypeOverride,0
;   strokeXoverride,200
;   strokeYoverride,200
;   strokeZoverride,100
;   originOffsetXoverride,0
;   originOffsetYoverride,0
;   originOffsetZoverride,0
;   homeXdirOverride,-1
;   homeYdirOverride,-1
;   homeZdirOverride,-1
;   flipXoverride,1
;   flipYoverride,-1
;   flipZoverride,1
;   startingGcode,G28 ;,G29 ; ABL
;   layerChangeGcode,
;   toolChangeGcode,
;   endingGcode,M104 S0 ; turn off extruder,M140 S0 ; turn off bed,G28 X ;,G28 Y ; ,M84 ; disable motors
;   createX3G,0
;   celebration,0
;   celebrationSong,Random Song
;   createMB5G,0
;   postProcessing,
;   defaultSpeed,3600
;   outlineUnderspeed,0.5
;   solidInfillUnderspeed,0.8
;   supportUnderspeed,0.8
;   rapidXYspeed,4800
;   rapidZspeed,1002
;   minBridgingArea,50
;   bridgingExtrusionMultiplier,1
;   bridgingSpeedMultiplier,1
;   filamentDiameter,1.75
;   filamentPricePerKg,46
;   useMinPrintHeight,0
;   minPrintHeight,0
;   useMaxPrintHeight,0
;   maxPrintHeight,0
;   useDiaphragm,0
;   diaphragmLayerInterval,20
;   robustSlicing,1
;   mergeAllIntoSolid,0
;   onlyRetractWhenCrossingOutline,1
;   retractBetweenLayers,1
;   useRetractionMinTravel,0
;   retractionMinTravel,3
;   useRetractionOozeRate,0
;   retractionOozeRate,6000
;   onlyWipeOutlines,1
;   toolChangeRetractionDistance,12
;   toolChangeExtraRestartDistance,-0.5
;   toolChangeRetractionSpeed,600
;   allowThinWallGapFill,1
;   thinWallAllowedOverlapPercentage,10
G90
M82
M106 S0
M140 S100
M190 S100
M104 S240 T0
M109 S240 T0
G28 ;
G29 ; ABL
G92 E0
G1 E-1 F1800
; layer 1, Z = 0.108
T0
; tool H0.12 W0.48
G1 X75.997 Y32.999 F4800
G1 Z0.108 F1002
G1 E0 F540
G92 E0
G1 X78.812 Y30.184 E0.0954 F1800
G1 X79.43 Y29.928 E0.1114
G1 X103.412 Y29.928 E0.6857
G1 X104.029 Y30.184 E0.7017
G1 X106.845 Y32.999 E0.797
G1 X107.101 Y33.617 E0.813
G1 X107.101 Y187.099 E4.4885
G1 X106.845 Y187.716 E4.5045
G1 X104.029 Y190.532 E4.5999
G1 X103.412 Y190.788 E4.6159
G1 X79.43 Y190.788 E5.1902
G1 X78.812 Y190.532 E5.2062
G1 X75.997 Y187.716 E5.3016
G1 X75.741 Y187.099 E5.3176
G1 X75.741 Y33.617 E8.993
G1 X75.997 Y32.999 E9.009
G92 E0
G1 E-1 F1800
G1 X117.899 Y37.845 F4800
G1 E0 F1800
G92 E0
G1 X118.155 Y37.228 E0.016 F1800
G1 X120.971 Y34.412 E0.1114
G1 X121.588 Y34.156 E0.1274
G1 X145.57 Y34.156 E0.7017
G1 X146.188 Y34.412 E0.7177
G1 X149.003 Y37.228 E0.813
G1 X149.259 Y37.845 E0.829
G1 X149.259 Y191.327 E4.5045
G1 X149.003 Y191.945 E4.5205
G1 X146.188 Y194.761 E4.6159
G1 X145.57 Y195.016 E4.6319
G1 X121.588 Y195.016 E5.2062
G1 X120.971 Y194.761 E5.2222
G1 X118.155 Y191.945 E5.3176
G1 X117.899 Y191.327 E5.3336
G1 X117.899 Y37.845 E9.009
G1 X118.379 Y37.941 F4800
G92 E0
G1 X118.562 Y37.5 E0.0114 F1800
G1 X121.242 Y34.819 E0.1022
G1 X121.683 Y34.636 E0.1137
G1 X145.475 Y34.636 E0.6834
G1 X145.916 Y34.819 E0.6948
G1 X148.596 Y37.5 E0.7856
G1 X148.779 Y37.941 E0.797
G1 X148.779 Y191.232 E4.4679
G1 X148.596 Y191.673 E4.4794
G1 X145.916 Y194.354 E4.5702
G1 X145.475 Y194.536 E4.5816
G1 X121.683 Y194.536 E5.1513
G1 X121.242 Y194.354 E5.1628
G1 X118.562 Y191.673 E5.2535
G1 X118.379 Y191.232 E5.265
G1 X118.379 Y37.941 E8.9359
G1 X106.621 Y33.712 F4800
G92 E0
G1 X106.621 Y187.003 E3.6709 F1800
G1 X106.438 Y187.444 E3.6823
G1 X103.758 Y190.125 E3.7731
G1 X103.316 Y190.308 E3.7846
G1 X79.525 Y190.308 E4.3543
G1 X79.084 Y190.125 E4.3657
G1 X76.404 Y187.444 E4.4565
G1 X76.221 Y187.003 E4.4679
G1 X76.221 Y33.712 E8.1388
G1 X76.404 Y33.271 E8.1503
G1 X79.084 Y30.591 E8.2411
G1 X79.525 Y30.408 E8.2525
G1 X103.316 Y30.408 E8.8222
G1 X103.758 Y30.591 E8.8337
G1 X106.438 Y33.271 E8.9244
G1 X106.621 Y33.712 E8.9359
G1 X106.141 Y33.808 F4800
G92 E0
G1 X106.141 Y186.908 E3.6663 F1800
G1 X106.031 Y187.173 E3.6732
G1 X103.486 Y189.718 E3.7594
G1 X103.221 Y189.828 E3.7663
G1 X79.621 Y189.828 E4.3314
G1 X79.356 Y189.718 E4.3383
G1 X76.811 Y187.173 E4.4245
G1 X76.701 Y186.908 E4.4314
G1 X76.701 Y33.808 E8.0977
G1 X76.811 Y33.543 E8.1046
G1 X79.356 Y30.998 E8.1908
G1 X79.621 Y30.888 E8.1976
G1 X103.221 Y30.888 E8.7628
G1 X103.486 Y30.998 E8.7696
G1 X106.031 Y33.543 E8.8559
G1 X106.141 Y33.808 E8.8627
G1 X118.859 Y38.036 F4800
G92 E0
G1 X118.969 Y37.772 E0.0069 F1800
G1 X121.514 Y35.226 E0.0931
G1 X121.779 Y35.116 E0.0999
G1 X145.379 Y35.116 E0.6651
G1 X145.644 Y35.226 E0.672
G1 X148.189 Y37.772 E0.7582
G1 X148.299 Y38.036 E0.765
G1 X148.299 Y191.137 E4.4314
G1 X148.189 Y191.401 E4.4382
G1 X145.644 Y193.947 E4.5244
G1 X145.379 Y194.056 E4.5313
G1 X121.779 Y194.056 E5.0965
G1 X121.514 Y193.947 E5.1033
G1 X118.969 Y191.401 E5.1895
G1 X118.859 Y191.137 E5.1964
G1 X118.859 Y38.036 E8.8627
G1 X119.339 Y38.132 F4800
G92 E0
G1 X119.376 Y38.044 E0.0023 F1800
G1 X121.786 Y35.633 E0.0839
G1 X121.874 Y35.596 E0.0862
G1 X145.284 Y35.596 E0.6468
G1 X145.372 Y35.633 E0.6491
G1 X147.782 Y38.044 E0.7307
G1 X147.819 Y38.132 E0.733
G1 X147.819 Y191.041 E4.3948
G1 X147.782 Y191.129 E4.3971
G1 X145.372 Y193.54 E4.4787
G1 X145.284 Y193.576 E4.481
G1 X121.874 Y193.576 E5.0416
G1 X121.786 Y193.54 E5.0439
G1 X119.376 Y191.129 E5.1255
G1 X119.339 Y191.041 E5.1278
G1 X119.339 Y38.132 E8.7896
G1 X105.661 Y33.903 F4800
G92 E0
G1 X105.661 Y186.812 E3.6618 F1800
G1 X105.624 Y186.901 E3.664
G1 X103.214 Y189.311 E3.7457
G1 X103.126 Y189.348 E3.748
G1 X79.716 Y189.348 E4.3086
G1 X79.628 Y189.311 E4.3108
G1 X77.217 Y186.901 E4.3925
G1 X77.181 Y186.812 E4.3948
G1 X77.181 Y33.903 E8.0565
G1 X77.217 Y33.815 E8.0588
G1 X79.628 Y31.404 E8.1405
G1 X79.716 Y31.368 E8.1427
G1 X103.126 Y31.368 E8.7033
G1 X103.214 Y31.404 E8.7056
G1 X105.624 Y33.815 E8.7873
G1 X105.661 Y33.903 E8.7895
G92 E0
G1 E-1 F1800
G1 X100.221 Y36.808 F4800
G1 E0 F1800
G92 E0
G1 X100.221 Y183.908 E3.5226 F1500
G1 X82.621 Y183.908 E3.9441
G1 X82.621 Y36.808 E7.4668
G1 X100.221 Y36.808 E7.8882
G1 X100.701 Y36.328 F4800
G92 E0
G1 X100.701 Y184.388 E3.5456 F1200
G1 X82.141 Y184.388 E3.9901
G1 X82.141 Y36.328 E7.5357
G1 X100.701 Y36.328 E7.9802
G1 X101.181 Y35.848 F4800
G92 E0
G1 X101.181 Y184.868 E3.5686 F900
G1 X81.661 Y184.868 E4.0361
G1 X81.661 Y35.848 E7.6047
G1 X101.181 Y35.848 E8.0722
G1 X83.029 Y37.419 F4800
G92 E0
G1 X83.232 Y37.216 E0.0069 F1440
G1 X83.911 Y37.216 E0.0231
G1 X83.029 Y38.098 E0.053
G1 X83.029 Y38.777 E0.0693
G1 X84.59 Y37.216 E0.1221
G1 X85.269 Y37.216 E0.1384
G1 X83.029 Y39.456 E0.2143
G1 X83.029 Y40.135 E0.2305
G1 X85.948 Y37.216 E0.3294
G1 X86.626 Y37.216 E0.3456
G1 X83.029 Y40.813 E0.4674
G1 X83.029 Y41.492 E0.4837
G1 X87.305 Y37.216 E0.6285
G1 X87.984 Y37.216 E0.6448
G1 X83.029 Y42.171 E0.8126
G1 X83.029 Y42.85 E0.8289
G1 X88.663 Y37.216 E1.0197
G1 X89.342 Y37.216 E1.0359
G1 X83.029 Y43.529 E1.2497
G1 X83.029 Y44.208 E1.266
G1 X90.021 Y37.216 E1.5027
G1 X90.699 Y37.216 E1.519
G1 X83.029 Y44.886 E1.7788
G1 X83.029 Y45.565 E1.795
G1 X91.378 Y37.216 E2.0778
G1 X92.057 Y37.216 E2.094
G1 X83.029 Y46.244 E2.3998
G1 X83.029 Y46.923 E2.4161
G1 X92.736 Y37.216 E2.7448
G1 X93.415 Y37.216 E2.761
G1 X83.029 Y47.602 E3.1128
G1 X83.029 Y48.28 E3.129
G1 X94.093 Y37.216 E3.5038
G1 X94.772 Y37.216 E3.52
G1 X83.029 Y48.959 E3.9177
G1 X83.029 Y49.638 E3.934
G1 X95.451 Y37.216 E4.3547
G1 X96.13 Y37.216 E4.3709
G1 X83.029 Y50.317 E4.8146
G1 X83.029 Y50.996 E4.8309
G1 X96.809 Y37.216 E5.2975
G1 X97.488 Y37.216 E5.3138
G1 X83.029 Y51.675 E5.8035
G1 X83.029 Y52.353 E5.8197
G1 X98.166 Y37.216 E6.3324
G1 X98.845 Y37.216 E6.3486
G1 X83.029 Y53.032 E6.8843
G1 X83.029 Y53.711 E6.9005
G1 X99.524 Y37.216 E7.4592
G1 X99.813 Y37.216 E7.4661
G1 X99.813 Y37.606 E7.4754
G1 X83.029 Y54.39 E8.0438
G1 X83.029 Y55.069 E8.0601
G1 X99.813 Y38.285 E8.6285
G1 X99.813 Y38.963 E8.6448
G1 X83.029 Y55.747 E9.2132
G1 X83.029 Y56.426 E9.2294
G1 X99.813 Y39.642 E9.7979
G1 X99.813 Y40.321 E9.8141
G1 X83.029 Y57.105 E10.3825
G1 X83.029 Y57.784 E10.3988
G1 X99.813 Y41 E10.9672
G1 X99.813 Y41.679 E10.9835
G1 X83.029 Y58.463 E11.5519
G1 X83.029 Y59.142 E11.5681
G1 X99.813 Y42.358 E12.1365
G1 X99.813 Y43.036 E12.1528
G1 X83.029 Y59.82 E12.7212
G1 X83.029 Y60.499 E12.7375
G1 X99.813 Y43.715 E13.3059
G1 X99.813 Y44.394 E13.3222
G1 X83.029 Y61.178 E13.8906
G1 X83.029 Y61.857 E13.9068
G1 X99.813 Y45.073 E14.4752
G1 X99.813 Y45.752 E14.4915
G1 X83.029 Y62.536 E15.0599
G1 X83.029 Y63.215 E15.0762
G1 X99.813 Y46.431 E15.6446
G1 X99.813 Y47.109 E15.6608
G1 X83.029 Y63.893 E16.2293
G1 X83.029 Y64.572 E16.2455
G1 X99.813 Y47.788 E16.8139
G1 X99.813 Y48.467 E16.8302
G1 X83.029 Y65.251 E17.3986
G1 X83.029 Y65.93 E17.4149
G1 X99.813 Y49.146 E17.9833
G1 X99.813 Y49.825 E17.9995
G1 X83.029 Y66.609 E18.568
G1 X83.029 Y67.287 E18.5842
G1 X99.813 Y50.503 E19.1526
G1 X99.813 Y51.182 E19.1689
G1 X83.029 Y67.966 E19.7373
G1 X83.029 Y68.645 E19.7536
G1 X99.813 Y51.861 E20.322
G1 X99.813 Y52.54 E20.3382
G1 X83.029 Y69.324 E20.9066
G1 X83.029 Y70.003 E20.9229
G1 X99.813 Y53.219 E21.4913
G1 X99.813 Y53.898 E21.5076
G1 X83.029 Y70.682 E22.076
G1 X83.029 Y71.36 E22.0922
G1 X99.813 Y54.576 E22.6607
G1 X99.813 Y55.255 E22.6769
G1 X83.029 Y72.039 E23.2453
G1 X83.029 Y72.718 E23.2616
G1 X99.813 Y55.934 E23.83
G1 X99.813 Y56.613 E23.8463
G1 X83.029 Y73.397 E24.4147
G1 X83.029 Y74.076 E24.4309
G1 X99.813 Y57.292 E24.9994
G1 X99.813 Y57.971 E25.0156
G1 X83.029 Y74.755 E25.584
G1 X83.029 Y75.433 E25.6003
G1 X99.813 Y58.649 E26.1687
G1 X99.813 Y59.328 E26.185
G1 X83.029 Y76.112 E26.7534
G1 X83.029 Y76.791 E26.7696
G1 X99.813 Y60.007 E27.338
G1 X99.813 Y60.686 E27.3543
G1 X83.029 Y77.47 E27.9227
G1 X83.029 Y78.149 E27.939
G1 X99.813 Y61.365 E28.5074
G1 X99.813 Y62.043 E28.5236
G1 X83.029 Y78.827 E29.0921
G1 X83.029 Y79.506 E29.1083
G1 X99.813 Y62.722 E29.6767
G1 X99.813 Y63.401 E29.693
G1 X83.029 Y80.185 E30.2614
G1 X83.029 Y80.864 E30.2777
G1 X99.813 Y64.08 E30.8461
G1 X99.813 Y64.759 E30.8623
G1 X83.029 Y81.543 E31.4308
G1 X83.029 Y82.222 E31.447
G1 X99.813 Y65.438 E32.0154
G1 X99.813 Y66.116 E32.0317
G1 X83.029 Y82.9 E32.6001
G1 X83.029 Y83.579 E32.6164
G1 X99.813 Y66.795 E33.1848
G1 X99.813 Y67.474 E33.201
G1 X83.029 Y84.258 E33.7694
G1 X83.029 Y84.937 E33.7857
G1 X99.813 Y68.153 E34.3541
G1 X99.813 Y68.832 E34.3704
G1 X83.029 Y85.616 E34.9388
G1 X83.029 Y86.295 E34.955
G1 X99.813 Y69.511 E35.5235
G1 X99.813 Y70.189 E35.5397
G1 X83.029 Y86.973 E36.1081
G1 X83.029 Y87.652 E36.1244
G1 X99.813 Y70.868 E36.6928
G1 X99.813 Y71.547 E36.7091
G1 X83.029 Y88.331 E37.2775
G1 X83.029 Y89.01 E37.2937
G1 X99.813 Y72.226 E37.8622
G1 X99.813 Y72.905 E37.8784
G1 X83.029 Y89.689 E38.4468
G1 X83.029 Y90.367 E38.4631
G1 X99.813 Y73.583 E39.0315
G1 X99.813 Y74.262 E39.0478
G1 X83.029 Y91.046 E39.6162
G1 X83.029 Y91.725 E39.6324
G1 X99.813 Y74.941 E40.2008
G1 X99.813 Y75.62 E40.2171
G1 X83.029 Y92.404 E40.7855
G1 X83.029 Y93.083 E40.8018
G1 X99.813 Y76.299 E41.3702
G1 X99.813 Y76.978 E41.3864
G1 X83.029 Y93.762 E41.9549
G1 X83.029 Y94.44 E41.9711
G1 X99.813 Y77.656 E42.5395
G1 X99.813 Y78.335 E42.5558
G1 X83.029 Y95.119 E43.1242
G1 X83.029 Y95.798 E43.1405
G1 X99.813 Y79.014 E43.7089
G1 X99.813 Y79.693 E43.7251
G1 X83.029 Y96.477 E44.2936
G1 X83.029 Y97.156 E44.3098
G1 X99.813 Y80.372 E44.8782
G1 X99.813 Y81.05 E44.8945
G1 X83.029 Y97.834 E45.4629
G1 X83.029 Y98.513 E45.4792
G1 X99.813 Y81.729 E46.0476
G1 X99.813 Y82.408 E46.0638
G1 X83.029 Y99.192 E46.6322
G1 X83.029 Y99.871 E46.6485
G1 X99.813 Y83.087 E47.2169
G1 X99.813 Y83.766 E47.2332
G1 X83.029 Y100.55 E47.8016
G1 X83.029 Y101.229 E47.8178
G1 X99.813 Y84.445 E48.3863
G1 X99.813 Y85.123 E48.4025
G1 X83.029 Y101.907 E48.9709
G1 X83.029 Y102.586 E48.9872
G1 X99.813 Y85.802 E49.5556
G1 X99.813 Y86.481 E49.5719
G1 X83.029 Y103.265 E50.1403
G1 X83.029 Y103.944 E50.1565
G1 X99.813 Y87.16 E50.725
G1 X99.813 Y87.839 E50.7412
G1 X83.029 Y104.623 E51.3096
G1 X83.029 Y105.302 E51.3259
G1 X99.813 Y88.518 E51.8943
G1 X99.813 Y89.196 E51.9106
G1 X83.029 Y105.98 E52.479
G1 X83.029 Y106.659 E52.4952
G1 X99.813 Y89.875 E53.0636
G1 X99.813 Y90.554 E53.0799
G1 X83.029 Y107.338 E53.6483
G1 X83.029 Y108.017 E53.6646
G1 X99.813 Y91.233 E54.233
G1 X99.813 Y91.912 E54.2493
G1 X83.029 Y108.696 E54.8177
G1 X83.029 Y109.374 E54.8339
G1 X99.813 Y92.59 E55.4023
G1 X99.813 Y93.269 E55.4186
G1 X83.029 Y110.053 E55.987
G1 X83.029 Y110.732 E56.0033
G1 X99.813 Y93.948 E56.5717
G1 X99.813 Y94.627 E56.5879
G1 X83.029 Y111.411 E57.1564
G1 X83.029 Y112.09 E57.1726
G1 X99.813 Y95.306 E57.741
G1 X99.813 Y95.985 E57.7573
G1 X83.029 Y112.769 E58.3257
G1 X83.029 Y113.447 E58.342
G1 X99.813 Y96.663 E58.9104
G1 X99.813 Y97.342 E58.9266
G1 X83.029 Y114.126 E59.4951
G1 X83.029 Y114.805 E59.5113
G1 X99.813 Y98.021 E60.0797
G1 X99.813 Y98.7 E60.096
G1 X83.029 Y115.484 E60.6644
G1 X83.029 Y116.163 E60.6807
G1 X99.813 Y99.379 E61.2491
G1 X99.813 Y100.058 E61.2653
G1 X83.029 Y116.842 E61.8337
G1 X83.029 Y117.52 E61.85
G1 X99.813 Y100.736 E62.4184
G1 X99.813 Y101.415 E62.4347
G1 X83.029 Y118.199 E63.0031
G1 X83.029 Y118.878 E63.0193
G1 X99.813 Y102.094 E63.5878
G1 X99.813 Y102.773 E63.604
G1 X83.029 Y119.557 E64.1724
G1 X83.029 Y120.236 E64.1887
G1 X99.813 Y103.452 E64.7571
G1 X99.813 Y104.13 E64.7734
G1 X83.029 Y120.914 E65.3418
G1 X83.029 Y121.593 E65.358
G1 X99.813 Y104.809 E65.9265
G1 X99.813 Y105.488 E65.9427
G1 X83.029 Y122.272 E66.5111
G1 X83.029 Y122.951 E66.5274
G1 X99.813 Y106.167 E67.0958
G1 X99.813 Y106.846 E67.1121
G1 X83.029 Y123.63 E67.6805
G1 X83.029 Y124.309 E67.6967
G1 X99.813 Y107.525 E68.2651
