; G-Code generated by Simplify3D(TM) Version 2.2.0
; Jan 4, 2015 at 2:49:23 PM
; Settings Summary
;   processName,Nylon_Experimental
;   applyToModels,Window_Attachment
;   profileLabel,-- Select Printer Profile --
;   printMaterial,Nylon
;   printQuality,High
;   extruderName,Extruder 1
;   extruderToolheadNumber,0
;   extruderDiameter,0.4
;   extruderAutoWidth,0
;   extruderWidth,0.48
;   extrusionMultiplier,1
;   extruderUseRetract,1
;   extruderRetractionDistance,4
;   extruderExtraRestartDistance,0
;   extruderRetractionZLift,0
;   extruderRetractionSpeed,3000
;   extruderUseCoasting,1
;   extruderCoastingDistance,0.4
;   extruderUseWipe,1
;   extruderWipeDistance,5
;   primaryExtruder,0
;   layerHeight,0.2
;   topSolidLayers,3
;   bottomSolidLayers,3
;   perimeterOutlines,2
;   printPerimetersInsideOut,1
;   startPointOption,2
;   startPointOriginX,0
;   startPointOriginY,0
;   startPointOriginZ,300
;   sequentialIslands,0
;   spiralVaseMode,0
;   firstLayerHeightPercentage,100
;   firstLayerWidthPercentage,110
;   firstLayerUnderspeed,0.5
;   useRaft,1
;   raftExtruder,0
;   raftLayers,3
;   raftOffset,3
;   raftSeparationDistance,0.25
;   raftInfill,40
;   disableRaftBaseLayers,0
;   useSkirt,1
;   skirtExtruder,0
;   skirtLayers,1
;   skirtOutlines,4
;   skirtOffset,10
;   infillExtruder,0
;   externalInfillPattern,Rectilinear
;   infillPercentage,20
;   outlineOverlapPercentage,15
;   infillExtrusionWidthPercentage,100
;   minInfillLength,5
;   infillLayerInterval,1
;   randomInfillStartPoint,0
;   infillAngles,45,-45
;   generateSupport,0
;   supportExtruder,0
;   supportInfill,40
;   supportExtraInflation,0
;   denseSupportLayers,0
;   denseSupportInfill,70
;   supportLayerInterval,1
;   supportHorizontalPartOffset,0.3
;   supportUpperSeparationLayers,1
;   supportLowerSeparationLayers,1
;   supportGridSpacing,4
;   maxOverhangAngle,45
;   supportAngles,0
;   temperatureName,Extruder 1 Temperature,Heated Bed
;   temperatureNumber,0,0
;   temperatureSetpointCount,1,1
;   temperatureSetpointLayers,1,1
;   temperatureSetpointTemperatures,245,58
;   temperatureStabilizeAtStartup,1,1
;   temperatureHeatedBed,0,1
;   temperatureRelayBetweenLayers,0,0
;   temperatureRelayBetweenLoops,0,0
;   fanLayers,1
;   fanSpeeds,0
;   blipFanToFullPower,0
;   adjustSpeedForCooling,1
;   minSpeedLayerTime,15
;   minCoolingSpeedSlowdown,20
;   increaseFanForCooling,0
;   minFanLayerTime,45
;   maxCoolingFanSpeed,100
;   increaseFanForBridging,0
;   bridgingFanSpeed,100
;   use5D,1
;   relativeEdistances,0
;   allowEaxisZeroing,1
;   independentExtruderAxes,0
;   includeM10123,0
;   stickySupport,1
;   detectArcs,0
;   arcReplaceG2G3,0
;   arcRadialCompensation,1
;   gcodeXoffset,0
;   gcodeYoffset,0
;   gcodeZoffset,0
;   overrideMachineDefinition,0
;   machineTypeOverride,0
;   strokeXoverride,250
;   strokeYoverride,250
;   strokeZoverride,250
;   originOffsetXoverride,0
;   originOffsetYoverride,0
;   originOffsetZoverride,0
;   homeXdirOverride,-1
;   homeYdirOverride,-1
;   homeZdirOverride,-1
;   flipXoverride,1
;   flipYoverride,-1
;   flipZoverride,1
;   startingGcode,G28 ; home all axes
;   layerChangeGcode,
;   toolChangeGcode,
;   endingGcode,M104 S0 ; turn off extruder,M140 S0 ; turn off bed,M84 ; disable motors,G28 ; home all axes
;   createX3G,0
;   celebration,0
;   celebrationSong,Random Song
;   createMB5G,0
;   postProcessing,
;   defaultSpeed,6000
;   outlineUnderspeed,0.25
;   solidInfillUnderspeed,0.7
;   supportUnderspeed,0.8
;   rapidXYspeed,10000
;   rapidZspeed,1000
;   minBridgingArea,50
;   bridgingExtrusionMultiplier,1
;   bridgingSpeedMultiplier,1
;   filamentDiameter,2.9
;   filamentPricePerKg,46
;   useMinPrintHeight,0
;   minPrintHeight,0
;   useMaxPrintHeight,0
;   maxPrintHeight,0
;   useDiaphragm,0
;   diaphragmLayerInterval,20
;   robustSlicing,1
;   mergeAllIntoSolid,0
;   onlyRetractWhenCrossingOutline,1
;   retractBetweenLayers,1
;   useRetractionMinTravel,0
;   retractionMinTravel,3
;   useRetractionOozeRate,0
;   retractionOozeRate,100
;   onlyWipeOutlines,1
;   toolChangeRetractionDistance,12
;   toolChangeExtraRestartDistance,-0.5
;   toolChangeRetractionSpeed,600
;   allowThinWallGapFill,1
;   thinWallAllowedOverlapPercentage,10
G90
M82
M106 S0
M140 S58
M190 S58
M104 S245 T0
M109 S245 T0
G28 ; home all axes
G92 E0
G1 E-4 F3000
; layer 1, Z = 0.5
T0
; tool H0.5 W0.528
G1 X100.217 Y98.693 F10000
G1 Z0.5 F1000
G1 E0 F900
G92 E0
G1 X106.193 Y92.717 E0.3378 F3000
G1 X106.469 Y92.534 E0.351
G1 X110.45 Y90.885 E0.5232
G1 X110.774 Y90.82 E0.5365
G1 X139.226 Y90.82 E1.6736
G1 X139.55 Y90.885 E1.6869
G1 X143.531 Y92.534 E1.8591
G1 X143.807 Y92.717 E1.8723
G1 X149.783 Y98.693 E2.2101
G1 X149.966 Y98.969 E2.2233
G1 X151.615 Y102.95 E2.3956
G1 X151.68 Y103.274 E2.4088
G1 X151.68 Y146.726 E4.1455
G1 X151.615 Y147.05 E4.1587
G1 X149.966 Y151.031 E4.3309
G1 X149.783 Y151.307 E4.3442
G1 X143.807 Y157.283 E4.6819
G1 X143.531 Y157.466 E4.6952
G1 X139.55 Y159.115 E4.8674
G1 X139.226 Y159.18 E4.8806
G1 X110.774 Y159.18 E6.0178
G1 X110.45 Y159.115 E6.031
G1 X106.469 Y157.466 E6.2032
G1 X106.193 Y157.283 E6.2165
G1 X100.217 Y151.307 E6.5543
G1 X100.034 Y151.031 E6.5675
G1 X98.385 Y147.05 E6.7397
G1 X98.32 Y146.726 E6.7529
G1 X98.32 Y103.274 E8.4896
G1 X98.385 Y102.95 E8.5029
G1 X100.007 Y99.032 E8.6723
G1 X100.034 Y98.969 F3000
G1 X100.217 Y98.693 F3000
G1 X100.59 Y98.999 F10000
G92 E0
G1 X106.499 Y93.09 E0.334 F3000
G1 X106.696 Y92.959 E0.3435
G1 X110.59 Y91.346 E0.5119
G1 X110.822 Y91.3 E0.5214
G1 X139.178 Y91.3 E1.6547
G1 X139.41 Y91.346 E1.6642
G1 X143.304 Y92.959 E1.8326
G1 X143.501 Y93.09 E1.8421
G1 X149.41 Y98.999 E2.1761
G1 X149.541 Y99.196 E2.1855
G1 X151.154 Y103.09 E2.354
G1 X151.2 Y103.322 E2.3634
G1 X151.2 Y146.678 E4.0963
G1 X151.154 Y146.91 E4.1058
G1 X149.541 Y150.804 E4.2742
G1 X149.41 Y151.001 E4.2837
G1 X143.501 Y156.91 E4.6177
G1 X143.304 Y157.041 E4.6271
G1 X139.41 Y158.654 E4.7956
G1 X139.178 Y158.7 E4.805
G1 X110.822 Y158.7 E5.9384
G1 X110.59 Y158.654 E5.9479
G1 X106.696 Y157.041 E6.1163
G1 X106.499 Y156.91 E6.1258
G1 X100.59 Y151.001 E6.4598
G1 X100.459 Y150.804 E6.4692
G1 X98.846 Y146.91 E6.6377
G1 X98.8 Y146.678 E6.6471
G1 X98.8 Y103.322 E8.38
G1 X98.846 Y103.09 E8.3895
G1 X100.396 Y99.347 E8.5514
G1 X100.459 Y99.196 F3000
G1 X100.59 Y98.999 F3000
G1 X100.963 Y99.305 F10000
G92 E0
G1 X106.805 Y93.463 E0.3302 F3000
G1 X106.923 Y93.384 E0.3359
G1 X110.73 Y91.808 E0.5006
G1 X110.869 Y91.78 E0.5062
G1 X139.131 Y91.78 E1.6358
G1 X139.27 Y91.808 E1.6415
G1 X143.077 Y93.384 E1.8062
G1 X143.195 Y93.463 E1.8118
G1 X149.037 Y99.305 E2.1421
G1 X149.116 Y99.423 E2.1477
G1 X150.692 Y103.23 E2.3124
G1 X150.72 Y103.369 E2.3181
G1 X150.72 Y146.631 E4.0472
G1 X150.692 Y146.77 E4.0529
G1 X149.116 Y150.577 E4.2176
G1 X149.037 Y150.695 E4.2232
G1 X143.195 Y156.537 E4.5535
G1 X143.077 Y156.616 E4.5591
G1 X139.27 Y158.192 E4.7238
G1 X139.131 Y158.22 E4.7295
G1 X110.869 Y158.22 E5.8591
G1 X110.73 Y158.192 E5.8647
G1 X106.923 Y156.616 E6.0294
G1 X106.805 Y156.537 E6.0351
G1 X100.963 Y150.695 E6.3653
G1 X100.884 Y150.577 E6.371
G1 X99.308 Y146.77 E6.5356
G1 X99.28 Y146.631 E6.5413
G1 X99.28 Y103.369 E8.2704
G1 X99.308 Y103.23 E8.2761
G1 X100.786 Y99.662 E8.4305
G1 X100.884 Y99.423 F3000
G1 X100.963 Y99.305 F3000
G1 X101.336 Y99.611 F10000
G92 E0
G1 X107.111 Y93.836 E0.3264 F3000
G1 X107.151 Y93.81 E0.3283
G1 X110.87 Y92.269 E0.4892
G1 X110.916 Y92.26 E0.4911
G1 X139.084 Y92.26 E1.6169
G1 X139.13 Y92.269 E1.6188
G1 X142.849 Y93.81 E1.7797
G1 X142.889 Y93.836 E1.7816
G1 X148.664 Y99.611 E2.1081
G1 X148.69 Y99.651 E2.11
G1 X150.231 Y103.37 E2.2708
G1 X150.24 Y103.416 E2.2727
G1 X150.24 Y146.584 E3.9981
G1 X150.231 Y146.63 E4
G1 X148.69 Y150.349 E4.1609
G1 X148.664 Y150.389 E4.1628
G1 X142.889 Y156.164 E4.4892
G1 X142.849 Y156.19 E4.4911
G1 X139.13 Y157.731 E4.652
G1 X139.084 Y157.74 E4.6539
G1 X110.916 Y157.74 E5.7797
G1 X110.87 Y157.731 E5.7816
G1 X107.151 Y156.19 E5.9425
G1 X107.111 Y156.164 E5.9444
G1 X101.336 Y150.389 E6.2708
G1 X101.31 Y150.349 E6.2727
G1 X99.769 Y146.63 E6.4336
G1 X99.76 Y146.584 E6.4355
G1 X99.76 Y103.416 E8.1608
G1 X99.769 Y103.37 E8.1627
G1 X101.175 Y99.977 E8.3095
G1 X101.31 Y99.651 F3000
G1 X101.336 Y99.611 F3000
; tool H0.5 W0.88
G1 X110.4 Y105.595 F10000
G92 E0
G1 X113.095 Y102.9 E0.2539 F750
G1 X136.905 Y102.9 E1.84
G1 X139.6 Y105.595 E2.0938
G1 X139.6 Y144.405 E4.6792
G1 X136.905 Y147.1 E4.933
G1 X113.095 Y147.1 E6.5192
G1 X110.4 Y144.405 E6.773
G1 X110.4 Y105.995 E9.3317
G1 X110.4 Y105.595 F750
G1 X113.095 Y102.9 F750
G1 X114.284 Y102.9 F750
G1 X111.626 Y105.5 F10000
G92 E0
G1 X138.374 Y105.5 E1.7818 F750
G1 X138.8 Y105.926 E1.8219
G1 X138.8 Y107.786 E1.9458
G1 X111.2 Y107.786 E3.7844
G1 X111.2 Y110.071 E3.9366
G1 X138.8 Y110.071 E5.7752
G1 X138.8 Y112.357 E5.9274
G1 X111.2 Y112.357 E7.766
G1 X111.2 Y114.643 E7.9183
G1 X138.8 Y114.643 E9.7568
G1 X138.8 Y116.929 E9.9091
G1 X111.2 Y116.929 E11.7476
G1 X111.2 Y119.214 E11.8999
G1 X138.8 Y119.214 E13.7384
G1 X138.8 Y121.5 E13.8907
G1 X111.2 Y121.5 E15.7292
G1 X111.2 Y123.786 E15.8815
G1 X138.8 Y123.786 E17.7201
G1 X138.8 Y126.071 E17.8723
G1 X111.2 Y126.071 E19.7109
G1 X111.2 Y128.357 E19.8631
G1 X138.8 Y128.357 E21.7017
G1 X138.8 Y130.643 E21.8539
G1 X111.2 Y130.643 E23.6925
G1 X111.2 Y132.929 E23.8448
G1 X138.8 Y132.929 E25.6833
G1 X138.8 Y135.214 E25.8356
G1 X111.2 Y135.214 E27.6741
G1 X111.2 Y137.5 E27.8264
G1 X138.8 Y137.5 E29.6649
G1 X138.8 Y139.786 E29.8172
G1 X111.2 Y139.786 E31.6557
G1 X111.2 Y142.071 E31.808
G1 X138.8 Y142.071 E33.6466
G1 X138.8 Y144.074 E33.78
G1 X138.517 Y144.357 E33.8066
G1 X111.483 Y144.357 E35.6075
G1 X113.426 Y146.3 E35.7905
G1 X136.574 Y146.3 E37.3325
G1 X138.234 Y144.64 E37.4889
G1 X138.517 Y144.357 F750
G92 E0
G1 E-4 F3000
; layer 2, Z = 1
; tool H0.5 W0.8
G1 X139.6 Y144.405 F10000
G1 Z1 F1000
G1 E0 F3000
G92 E0
G1 X136.905 Y147.1 E0.2308 F1500
G1 X113.095 Y147.1 E1.6727
G1 X110.4 Y144.405 E1.9035
G1 X110.4 Y105.595 E4.2538
G1 X113.095 Y102.9 E4.4846
G1 X136.905 Y102.9 E5.9265
G1 X139.6 Y105.595 E6.1573
G1 X139.6 Y144.005 E8.4834
G1 X139.6 Y144.405 F1500
G1 X136.905 Y147.1 F1500
G1 X135.716 Y147.1 F1500
G1 X138.517 Y144.357 F10000
G92 E0
G1 X136.574 Y146.3 E0.1664 F1500
G1 X113.426 Y146.3 E1.5682
G1 X111.483 Y144.357 E1.7346
G1 X138.517 Y144.357 E3.3717
G1 X138.8 Y144.074 E3.396
G1 X138.8 Y142.071 E3.5172
G1 X111.2 Y142.071 E5.1886
G1 X111.2 Y139.786 E5.3271
G1 X138.8 Y139.786 E6.9985
G1 X138.8 Y137.5 E7.1369
G1 X111.2 Y137.5 E8.8083
G1 X111.2 Y135.214 E8.9467
G1 X138.8 Y135.214 E10.6181
G1 X138.8 Y132.929 E10.7565
G1 X111.2 Y132.929 E12.428
G1 X111.2 Y130.643 E12.5664
G1 X138.8 Y130.643 E14.2378
G1 X138.8 Y128.357 E14.3762
G1 X111.2 Y128.357 E16.0476
G1 X111.2 Y126.071 E16.186
G1 X138.8 Y126.071 E17.8574
G1 X138.8 Y123.786 E17.9959
G1 X111.2 Y123.786 E19.6673
G1 X111.2 Y121.5 E19.8057
G1 X138.8 Y121.5 E21.4771
G1 X138.8 Y119.214 E21.6155
G1 X111.2 Y119.214 E23.2869
G1 X111.2 Y116.929 E23.4254
G1 X138.8 Y116.929 E25.0968
G1 X138.8 Y114.643 E25.2352
G1 X111.2 Y114.643 E26.9066
G1 X111.2 Y112.357 E27.045
G1 X138.8 Y112.357 E28.7164
G1 X138.8 Y110.071 E28.8548
G1 X111.2 Y110.071 E30.5263
G1 X111.2 Y107.786 E30.6647
G1 X138.8 Y107.786 E32.3361
G1 X138.8 Y105.926 E32.4487
G1 X138.374 Y105.5 E32.4852
G1 X112.026 Y105.5 E34.0808
G1 X111.626 Y105.5 F1500
G92 E0
G1 E-4 F3000
; layer 3, Z = 1.37647
; tool H0.376 W0.64
G1 X110.76 Y105.121 F10000
G1 Z1.376 F1000
G1 E0 F3000
G92 E0
G1 X110.76 Y144.879 E1.4502 F3000
G1 X112.04 Y146.159 E1.5163
G1 X112.04 Y103.841 E3.0599
G1 X113.061 Y102.82 E3.1126
G1 X113.32 Y102.82 E3.122
G1 X113.32 Y147.18 E4.7402
G1 X114.6 Y147.18 E4.7868
G1 X114.6 Y102.82 E6.405
G1 X115.88 Y102.82 E6.4517
G1 X115.88 Y147.18 E8.0698
G1 X117.16 Y147.18 E8.1165
G1 X117.16 Y102.82 E9.7347
G1 X118.44 Y102.82 E9.7813
G1 X118.44 Y147.18 E11.3995
G1 X119.72 Y147.18 E11.4462
G1 X119.72 Y102.82 E13.0643
G1 X121 Y102.82 E13.111
G1 X121 Y147.18 E14.7292
G1 X122.28 Y147.18 E14.7758
G1 X122.28 Y102.82 E16.394
G1 X123.56 Y102.82 E16.4407
G1 X123.56 Y147.18 E18.0588
G1 X124.84 Y147.18 E18.1055
G1 X124.84 Y102.82 E19.7237
G1 X126.12 Y102.82 E19.7704
G1 X126.12 Y147.18 E21.3885
G1 X127.4 Y147.18 E21.4352
G1 X127.4 Y102.82 E23.0533
G1 X128.68 Y102.82 E23.1
G1 X128.68 Y147.18 E24.7182
G1 X129.96 Y147.18 E24.7649
G1 X129.96 Y102.82 E26.383
G1 X131.24 Y102.82 E26.4297
G1 X131.24 Y147.18 E28.0478
G1 X132.52 Y147.18 E28.0945
G1 X132.52 Y102.82 E29.7127
G1 X133.8 Y102.82 E29.7594
G1 X133.8 Y147.18 E31.3775
G1 X135.08 Y147.18 E31.4242
G1 X135.08 Y102.82 E33.0423
G1 X136.36 Y102.82 E33.089
G1 X136.36 Y147.18 E34.7072
G1 X136.939 Y147.18 E34.7283
G1 X137.64 Y146.479 E34.7644
G1 X137.64 Y103.521 E36.3314
G1 X138.92 Y104.801 E36.3974
G1 X138.92 Y145.199 E37.871
G1 X139.68 Y144.439 E37.9102
G1 X139.68 Y105.561 E39.3284
G1 X139.203 Y105.084 E39.353
G1 X138.92 Y104.801 F3000
G92 E0
G1 E-4 F3000
; layer 4, Z = 1.59869
; tool H0.222 W0.4
G1 X135.166 Y104.7 F10000
G1 Z1.599 F1000
G1 E0 F3000
G92 E0
G1 X136.524 Y105.064 E0.0189 F6000
G1 X137.8 Y106.34 E0.0432
G1 X137.8 Y106.441 E0.0446
G1 X131.302 Y104.7 E0.1351
G1 X127.438 Y104.7 E0.1871
G1 X137.8 Y107.476 E0.3315
G1 X137.8 Y108.512 E0.3454
G1 X123.574 Y104.7 E0.5436
G1 X119.711 Y104.7 E0.5956
G1 X137.8 Y109.547 E0.8476
G1 X137.8 Y110.582 E0.8615
G1 X115.847 Y104.7 E1.1674
G1 X113.84 Y104.7 E1.1944
G1 X113.448 Y105.092 E1.2019
G1 X137.8 Y111.618 E1.5411
G1 X137.8 Y112.653 E1.5551
G1 X112.631 Y105.909 E1.9057
G1 X112.2 Y106.34 E1.9139
G1 X112.2 Y106.829 E1.9205
G1 X137.8 Y113.688 E2.2772
G1 X137.8 Y114.723 E2.2911
G1 X112.2 Y107.864 E2.6478
G1 X112.2 Y108.899 E2.6617
G1 X137.8 Y115.759 E3.0184
G1 X137.8 Y116.794 E3.0323
G1 X112.2 Y109.934 E3.389
G1 X112.2 Y110.97 E3.4029
G1 X137.8 Y117.829 E3.7595
G1 X137.8 Y118.864 E3.7735
G1 X112.2 Y112.005 E4.1301
G1 X112.2 Y113.04 E4.1441
G1 X137.8 Y119.9 E4.5007
G1 X137.8 Y120.935 E4.5147
G1 X112.2 Y114.076 E4.8713
G1 X112.2 Y115.111 E4.8853
G1 X137.8 Y121.97 E5.2419
G1 X137.8 Y123.006 E5.2559
G1 X112.2 Y116.146 E5.6125
G1 X112.2 Y117.181 E5.6265
G1 X137.8 Y124.041 E5.9831
G1 X137.8 Y125.076 E5.9971
G1 X112.2 Y118.217 E6.3537
G1 X112.2 Y119.252 E6.3676
G1 X137.8 Y126.111 E6.7243
G1 X137.8 Y127.147 E6.7382
G1 X112.2 Y120.287 E7.0949
G1 X112.2 Y121.322 E7.1088
G1 X137.8 Y128.182 E7.4655
G1 X137.8 Y129.217 E7.4794
G1 X112.2 Y122.358 E7.8361
G1 X112.2 Y123.393 E7.85
G1 X137.8 Y130.253 E8.2067
G1 X137.8 Y131.288 E8.2206
G1 X112.2 Y124.428 E8.5773
G1 X112.2 Y125.464 E8.5912
G1 X137.8 Y132.323 E8.9479
G1 X137.8 Y133.358 E8.9618
G1 X112.2 Y126.499 E9.3185
G1 X112.2 Y127.534 E9.3324
G1 X137.8 Y134.394 E9.6891
G1 X137.8 Y135.429 E9.703
G1 X112.2 Y128.569 E10.0597
G1 X112.2 Y129.605 E10.0736
G1 X137.8 Y136.464 E10.4303
G1 X137.8 Y137.499 E10.4442
G1 X112.2 Y130.64 E10.8009
G1 X112.2 Y131.675 E10.8148
G1 X137.8 Y138.535 E11.1714
G1 X137.8 Y139.57 E11.1854
G1 X112.2 Y132.711 E11.542
G1 X112.2 Y133.746 E11.556
G1 X137.8 Y140.605 E11.9126
G1 X137.8 Y141.641 E11.9266
G1 X112.2 Y134.781 E12.2832
G1 X112.2 Y135.816 E12.2972
G1 X137.8 Y142.676 E12.6538
G1 X137.8 Y143.66 E12.6671
G1 X137.76 Y143.7 E12.6678
G1 X112.2 Y136.852 E13.0239
G1 X112.2 Y137.887 E13.0379
G1 X136.943 Y144.517 E13.3826
G1 X136.16 Y145.3 E13.3975
G1 X136.002 Y145.3 E13.3996
G1 X112.2 Y138.922 E13.7312
G1 X112.2 Y139.957 E13.7452
G1 X132.139 Y145.3 E14.023
G1 X128.275 Y145.3 E14.075
G1 X112.2 Y140.993 E14.2989
G1 X112.2 Y142.028 E14.3128
G1 X124.411 Y145.3 E14.483
G1 X120.548 Y145.3 E14.535
G1 X112.2 Y143.063 E14.6513
G1 X112.2 Y143.66 E14.6593
G1 X112.799 Y144.259 E14.6707
G1 X116.684 Y145.3 E14.7248
G1 X113.84 Y145.3 E14.7631
G1 X113.082 Y144.542 E14.7775
G1 X112.799 Y144.259 F6000
G92 E0
G1 E-4 F3000
; layer 5, Z = 1.82092
G1 X112.799 Y144.259 F10000
G1 Z1.821 F1000
G1 E0 F3000
G92 E0
G1 X113.84 Y145.3 E0.0198 F6000
G1 X116.684 Y145.3 E0.0581
G1 X112.799 Y144.259 E0.1122
G1 X112.2 Y143.66 E0.1236
G1 X112.2 Y143.063 E0.1316
G1 X120.548 Y145.3 E0.2479
G1 X124.411 Y145.3 E0.2999
G1 X112.2 Y142.028 E0.4701
G1 X112.2 Y140.993 E0.484
G1 X128.275 Y145.3 E0.7079
