; G-Code generated by Simplify3D(TM) Version 2.2.0
; Jan 2, 2015 at 8:48:18 PM
; Settings Summary
;   processName,Nylon_Experimental
;   applyToModels,Motor_Housing
;   profileLabel,-- Select Printer Profile --
;   printMaterial,Nylon
;   printQuality,High
;   extruderName,Extruder 1
;   extruderToolheadNumber,0
;   extruderDiameter,0.4
;   extruderAutoWidth,0
;   extruderWidth,0.48
;   extrusionMultiplier,1
;   extruderUseRetract,1
;   extruderRetractionDistance,4
;   extruderExtraRestartDistance,0
;   extruderRetractionZLift,0
;   extruderRetractionSpeed,3000
;   extruderUseCoasting,1
;   extruderCoastingDistance,0.4
;   extruderUseWipe,1
;   extruderWipeDistance,5
;   primaryExtruder,0
;   layerHeight,0.2
;   topSolidLayers,3
;   bottomSolidLayers,3
;   perimeterOutlines,2
;   printPerimetersInsideOut,1
;   startPointOption,2
;   startPointOriginX,0
;   startPointOriginY,0
;   startPointOriginZ,300
;   sequentialIslands,0
;   spiralVaseMode,0
;   firstLayerHeightPercentage,100
;   firstLayerWidthPercentage,110
;   firstLayerUnderspeed,0.5
;   useRaft,1
;   raftExtruder,0
;   raftLayers,3
;   raftOffset,3
;   raftSeparationDistance,0.2
;   raftInfill,60
;   disableRaftBaseLayers,0
;   useSkirt,1
;   skirtExtruder,0
;   skirtLayers,1
;   skirtOutlines,4
;   skirtOffset,10
;   infillExtruder,0
;   externalInfillPattern,Rectilinear
;   infillPercentage,20
;   outlineOverlapPercentage,15
;   infillExtrusionWidthPercentage,100
;   minInfillLength,5
;   infillLayerInterval,1
;   randomInfillStartPoint,0
;   infillAngles,45,-45
;   generateSupport,0
;   supportExtruder,0
;   supportInfill,40
;   supportExtraInflation,0
;   denseSupportLayers,0
;   denseSupportInfill,70
;   supportLayerInterval,1
;   supportHorizontalPartOffset,0.3
;   supportUpperSeparationLayers,1
;   supportLowerSeparationLayers,1
;   supportGridSpacing,4
;   maxOverhangAngle,45
;   supportAngles,0
;   temperatureName,Extruder 1 Temperature,Heated Bed
;   temperatureNumber,0,0
;   temperatureSetpointCount,1,1
;   temperatureSetpointLayers,1,1
;   temperatureSetpointTemperatures,245,58
;   temperatureStabilizeAtStartup,1,1
;   temperatureHeatedBed,0,1
;   temperatureRelayBetweenLayers,0,0
;   temperatureRelayBetweenLoops,0,0
;   fanLayers,1
;   fanSpeeds,0
;   blipFanToFullPower,0
;   adjustSpeedForCooling,1
;   minSpeedLayerTime,15
;   minCoolingSpeedSlowdown,20
;   increaseFanForCooling,0
;   minFanLayerTime,45
;   maxCoolingFanSpeed,100
;   increaseFanForBridging,0
;   bridgingFanSpeed,100
;   use5D,1
;   relativeEdistances,0
;   allowEaxisZeroing,1
;   independentExtruderAxes,0
;   includeM10123,0
;   stickySupport,1
;   detectArcs,0
;   arcReplaceG2G3,0
;   arcRadialCompensation,1
;   gcodeXoffset,0
;   gcodeYoffset,0
;   gcodeZoffset,0
;   overrideMachineDefinition,0
;   machineTypeOverride,0
;   strokeXoverride,250
;   strokeYoverride,250
;   strokeZoverride,250
;   originOffsetXoverride,0
;   originOffsetYoverride,0
;   originOffsetZoverride,0
;   homeXdirOverride,-1
;   homeYdirOverride,-1
;   homeZdirOverride,-1
;   flipXoverride,1
;   flipYoverride,-1
;   flipZoverride,1
;   startingGcode,G28 ; home all axes
;   layerChangeGcode,
;   toolChangeGcode,
;   endingGcode,M104 S0 ; turn off extruder,M140 S0 ; turn off bed,M84 ; disable motors,G28 ; home all axes
;   createX3G,0
;   celebration,0
;   celebrationSong,Random Song
;   createMB5G,0
;   postProcessing,
;   defaultSpeed,6000
;   outlineUnderspeed,0.25
;   solidInfillUnderspeed,0.7
;   supportUnderspeed,0.8
;   rapidXYspeed,10000
;   rapidZspeed,1000
;   minBridgingArea,50
;   bridgingExtrusionMultiplier,1
;   bridgingSpeedMultiplier,1
;   filamentDiameter,2.9
;   filamentPricePerKg,46
;   useMinPrintHeight,0
;   minPrintHeight,0
;   useMaxPrintHeight,0
;   maxPrintHeight,0
;   useDiaphragm,0
;   diaphragmLayerInterval,20
;   robustSlicing,1
;   mergeAllIntoSolid,0
;   onlyRetractWhenCrossingOutline,1
;   retractBetweenLayers,1
;   useRetractionMinTravel,0
;   retractionMinTravel,3
;   useRetractionOozeRate,0
;   retractionOozeRate,100
;   onlyWipeOutlines,1
;   toolChangeRetractionDistance,12
;   toolChangeExtraRestartDistance,-0.5
;   toolChangeRetractionSpeed,600
;   allowThinWallGapFill,1
;   thinWallAllowedOverlapPercentage,10
G90
M82
M106 S0
M140 S58
M190 S58
M104 S245 T0
M109 S245 T0
G28 ; home all axes
G92 E0
G1 E-4 F3000
; layer 1, Z = 0.5
T0
; tool H0.5 W0.528
G1 X85.218 Y81.193 F10000
G1 Z0.5 F1000
G1 E0 F900
G92 E0
G1 X91.194 Y75.217 E0.3378 F3000
G1 X91.469 Y75.034 E0.351
G1 X95.45 Y73.385 E0.5232
G1 X95.774 Y73.32 E0.5365
G1 X154.226 Y73.32 E2.8727
G1 X154.55 Y73.385 E2.8859
G1 X158.531 Y75.034 E3.0581
G1 X158.807 Y75.217 E3.0714
G1 X164.783 Y81.193 E3.4092
G1 X164.966 Y81.469 E3.4224
G1 X166.615 Y85.45 E3.5946
G1 X166.68 Y85.774 E3.6078
G1 X166.68 Y164.226 E6.7434
G1 X166.615 Y164.55 E6.7566
G1 X164.966 Y168.531 E6.9289
G1 X164.783 Y168.807 E6.9421
G1 X158.807 Y174.783 E7.2799
G1 X158.531 Y174.966 E7.2931
G1 X154.55 Y176.615 E7.4654
G1 X154.226 Y176.68 E7.4786
G1 X95.774 Y176.68 E9.8148
G1 X95.45 Y176.615 E9.828
G1 X91.469 Y174.966 E10.0002
G1 X91.194 Y174.783 E10.0135
G1 X85.218 Y168.807 E10.3513
G1 X85.034 Y168.531 E10.3645
G1 X83.385 Y164.55 E10.5367
G1 X83.32 Y164.226 E10.5499
G1 X83.32 Y85.774 E13.6855
G1 X83.385 Y85.45 E13.6988
G1 X85.007 Y81.532 E13.8682
G1 X85.034 Y81.469 F3000
G1 X85.218 Y81.193 F3000
G1 X85.59 Y81.499 F10000
G92 E0
G1 X91.499 Y75.59 E0.334 F3000
G1 X91.696 Y75.459 E0.3435
G1 X95.59 Y73.846 E0.5119
G1 X95.822 Y73.8 E0.5214
G1 X154.178 Y73.8 E2.8538
G1 X154.41 Y73.846 E2.8632
G1 X158.304 Y75.459 E3.0317
G1 X158.501 Y75.59 E3.0411
G1 X164.41 Y81.499 E3.3751
G1 X164.541 Y81.696 E3.3846
G1 X166.154 Y85.59 E3.553
G1 X166.2 Y85.822 E3.5625
G1 X166.2 Y164.178 E6.6943
G1 X166.154 Y164.41 E6.7037
G1 X164.541 Y168.304 E6.8722
G1 X164.41 Y168.501 E6.8816
G1 X158.501 Y174.41 E7.2157
G1 X158.304 Y174.541 E7.2251
G1 X154.41 Y176.154 E7.3935
G1 X154.178 Y176.2 E7.403
G1 X95.822 Y176.2 E9.7354
G1 X95.59 Y176.154 E9.7449
G1 X91.696 Y174.541 E9.9133
G1 X91.499 Y174.41 E9.9228
G1 X85.59 Y168.501 E10.2568
G1 X85.459 Y168.304 E10.2662
G1 X83.846 Y164.41 E10.4347
G1 X83.8 Y164.178 E10.4441
G1 X83.8 Y85.822 E13.5759
G1 X83.846 Y85.59 E13.5854
G1 X85.396 Y81.847 E13.7473
G1 X85.459 Y81.696 F3000
G1 X85.59 Y81.499 F3000
G1 X85.963 Y81.805 F10000
G92 E0
G1 X91.805 Y75.963 E0.3302 F3000
G1 X91.923 Y75.884 E0.3359
G1 X95.73 Y74.308 E0.5006
G1 X95.869 Y74.28 E0.5062
G1 X154.131 Y74.28 E2.8349
G1 X154.27 Y74.308 E2.8406
G1 X158.077 Y75.884 E3.0052
G1 X158.195 Y75.963 E3.0109
G1 X164.037 Y81.805 E3.3411
G1 X164.116 Y81.923 E3.3468
G1 X165.692 Y85.73 E3.5115
G1 X165.72 Y85.869 E3.5171
G1 X165.72 Y164.131 E6.6452
G1 X165.692 Y164.27 E6.6508
G1 X164.116 Y168.077 E6.8155
G1 X164.037 Y168.195 E6.8212
G1 X158.195 Y174.037 E7.1514
G1 X158.077 Y174.116 E7.1571
G1 X154.27 Y175.692 E7.3217
G1 X154.131 Y175.72 E7.3274
G1 X95.869 Y175.72 E9.6561
G1 X95.73 Y175.692 E9.6617
G1 X91.923 Y174.116 E9.8264
G1 X91.805 Y174.037 E9.8321
G1 X85.963 Y168.195 E10.1623
G1 X85.884 Y168.077 E10.168
G1 X84.308 Y164.27 E10.3326
G1 X84.28 Y164.131 E10.3383
G1 X84.28 Y85.869 E13.4663
G1 X84.308 Y85.73 E13.472
G1 X85.786 Y82.162 E13.6264
G1 X85.884 Y81.923 F3000
G1 X85.963 Y81.805 F3000
G1 X86.336 Y82.111 F10000
G92 E0
G1 X92.111 Y76.336 E0.3264 F3000
G1 X92.151 Y76.31 E0.3283
G1 X95.87 Y74.769 E0.4892
G1 X95.916 Y74.76 E0.4911
G1 X154.084 Y74.76 E2.816
G1 X154.13 Y74.769 E2.8179
G1 X157.849 Y76.31 E2.9788
G1 X157.889 Y76.336 E2.9807
G1 X163.664 Y82.111 E3.3071
G1 X163.69 Y82.151 E3.309
G1 X165.231 Y85.87 E3.4699
G1 X165.24 Y85.916 E3.4718
G1 X165.24 Y164.084 E6.596
G1 X165.231 Y164.13 E6.5979
G1 X163.69 Y167.849 E6.7588
G1 X163.664 Y167.889 E6.7607
G1 X157.889 Y173.664 E7.0872
G1 X157.849 Y173.69 E7.0891
G1 X154.13 Y175.231 E7.2499
G1 X154.084 Y175.24 E7.2518
G1 X95.916 Y175.24 E9.5767
G1 X95.87 Y175.231 E9.5786
G1 X92.151 Y173.69 E9.7395
G1 X92.111 Y173.664 E9.7414
G1 X86.336 Y167.889 E10.0678
G1 X86.31 Y167.849 E10.0697
G1 X84.769 Y164.13 E10.2306
G1 X84.76 Y164.084 E10.2325
G1 X84.76 Y85.916 E13.3567
G1 X84.769 Y85.87 E13.3586
G1 X86.175 Y82.477 E13.5054
G1 X86.31 Y82.151 F3000
G1 X86.336 Y82.111 F3000
; tool H0.5 W0.88
G1 X95.4 Y88.095 F10000
G92 E0
G1 X98.095 Y85.4 E0.2539 F750
G1 X151.905 Y85.4 E3.8384
G1 X154.6 Y88.095 E4.0923
G1 X154.6 Y161.905 E9.0091
G1 X151.905 Y164.6 E9.263
G1 X98.095 Y164.6 E12.8475
G1 X95.4 Y161.905 E13.1014
G1 X95.4 Y88.495 E17.9916
G1 X95.4 Y88.095 F750
G1 X98.095 Y85.4 F750
G1 X99.284 Y85.4 F750
G1 X96.626 Y88 F10000
G92 E0
G1 X153.374 Y88 E3.7802 F750
G1 X153.8 Y88.426 E3.8204
G1 X153.8 Y90.286 E3.9442
G1 X96.2 Y90.286 E7.7812
G1 X96.2 Y92.571 E7.9335
G1 X153.8 Y92.571 E11.7704
G1 X153.8 Y94.857 E11.9227
G1 X96.2 Y94.857 E15.7597
G1 X96.2 Y97.143 E15.9119
G1 X153.8 Y97.143 E19.7489
G1 X153.8 Y99.429 E19.9012
G1 X96.2 Y99.429 E23.7382
G1 X96.2 Y101.714 E23.8904
G1 X153.8 Y101.714 E27.7274
G1 X153.8 Y104 E27.8797
G1 X96.2 Y104 E31.7166
G1 X96.2 Y106.286 E31.8689
G1 X153.8 Y106.286 E35.7059
G1 X153.8 Y108.571 E35.8581
G1 X96.2 Y108.571 E39.6951
G1 X96.2 Y110.857 E39.8474
G1 X153.8 Y110.857 E43.6843
G1 X153.8 Y113.143 E43.8366
G1 X96.2 Y113.143 E47.6736
G1 X96.2 Y115.429 E47.8258
G1 X153.8 Y115.429 E51.6628
G1 X153.8 Y117.714 E51.8151
G1 X96.2 Y117.714 E55.6521
G1 X96.2 Y120 E55.8043
G1 X153.8 Y120 E59.6413
G1 X153.8 Y122.286 E59.7936
G1 X96.2 Y122.286 E63.6305
G1 X96.2 Y124.571 E63.7828
G1 X153.8 Y124.571 E67.6198
G1 X153.8 Y126.857 E67.772
G1 X96.2 Y126.857 E71.609
G1 X96.2 Y129.143 E71.7613
G1 X153.8 Y129.143 E75.5982
G1 X153.8 Y131.429 E75.7505
G1 X96.2 Y131.429 E79.5875
G1 X96.2 Y133.714 E79.7397
G1 X153.8 Y133.714 E83.5767
G1 X153.8 Y136 E83.729
G1 X96.2 Y136 E87.566
G1 X96.2 Y138.286 E87.7182
G1 X153.8 Y138.286 E91.5552
G1 X153.8 Y140.571 E91.7074
G1 X96.2 Y140.571 E95.5444
G1 X96.2 Y142.857 E95.6967
G1 X153.8 Y142.857 E99.5337
G1 X153.8 Y145.143 E99.6859
G1 X96.2 Y145.143 E103.5229
G1 X96.2 Y147.429 E103.6752
G1 X153.8 Y147.429 E107.5121
G1 X153.8 Y149.714 E107.6644
G1 X96.2 Y149.714 E111.5014
G1 X96.2 Y152 E111.6536
G1 X153.8 Y152 E115.4906
G1 X153.8 Y154.286 E115.6429
G1 X96.2 Y154.286 E119.4798
G1 X96.2 Y156.571 E119.6321
G1 X153.8 Y156.571 E123.4691
G1 X153.8 Y158.857 E123.6213
G1 X96.2 Y158.857 E127.4583
G1 X96.2 Y161.143 E127.6106
G1 X153.8 Y161.143 E131.4476
G1 X153.8 Y161.574 E131.4763
G1 X151.945 Y163.429 E131.651
G1 X98.055 Y163.429 E135.2409
G1 X98.426 Y163.8 E135.2759
G1 X151.574 Y163.8 E138.8163
G1 X151.663 Y163.711 E138.8247
G1 X151.945 Y163.429 F750
G92 E0
G1 E-4 F3000
; layer 2, Z = 1
; tool H0.5 W0.8
G1 X151.905 Y164.6 F10000
G1 Z1 F1000
G1 E0 F3000
G92 E0
G1 X98.095 Y164.6 E3.2587 F1500
G1 X95.4 Y161.905 E3.4895
G1 X95.4 Y88.095 E7.9593
G1 X98.095 Y85.4 E8.1901
G1 X151.905 Y85.4 E11.4488
G1 X154.6 Y88.095 E11.6796
G1 X154.6 Y161.905 E16.1494
G1 X152.188 Y164.317 E16.356
G1 X151.905 Y164.6 F1500
G1 X146.905 Y164.6 F1500
G1 X151.945 Y163.429 F10000
G92 E0
G1 X151.574 Y163.8 E0.0318 F1500
G1 X98.426 Y163.8 E3.2504
G1 X98.055 Y163.429 E3.2822
G1 X151.945 Y163.429 E6.5457
G1 X153.8 Y161.574 E6.7045
G1 X153.8 Y161.143 E6.7307
G1 X96.2 Y161.143 E10.2188
G1 X96.2 Y158.857 E10.3572
G1 X153.8 Y158.857 E13.8454
G1 X153.8 Y156.571 E13.9838
G1 X96.2 Y156.571 E17.472
G1 X96.2 Y154.286 E17.6104
G1 X153.8 Y154.286 E21.0986
G1 X153.8 Y152 E21.237
G1 X96.2 Y152 E24.7251
G1 X96.2 Y149.714 E24.8636
G1 X153.8 Y149.714 E28.3517
G1 X153.8 Y147.429 E28.4901
G1 X96.2 Y147.429 E31.9783
G1 X96.2 Y145.143 E32.1167
G1 X153.8 Y145.143 E35.6049
G1 X153.8 Y142.857 E35.7433
G1 X96.2 Y142.857 E39.2314
G1 X96.2 Y140.571 E39.3699
G1 X153.8 Y140.571 E42.858
G1 X153.8 Y138.286 E42.9964
G1 X96.2 Y138.286 E46.4846
G1 X96.2 Y136 E46.623
G1 X153.8 Y136 E50.1112
G1 X153.8 Y133.714 E50.2496
G1 X96.2 Y133.714 E53.7378
G1 X96.2 Y131.429 E53.8762
G1 X153.8 Y131.429 E57.3643
G1 X153.8 Y129.143 E57.5028
G1 X96.2 Y129.143 E60.9909
G1 X96.2 Y126.857 E61.1293
G1 X153.8 Y126.857 E64.6175
G1 X153.8 Y124.571 E64.7559
G1 X96.2 Y124.571 E68.2441
G1 X96.2 Y122.286 E68.3825
G1 X153.8 Y122.286 E71.8707
G1 X153.8 Y120 E72.0091
G1 X96.2 Y120 E75.4972
G1 X96.2 Y117.714 E75.6357
G1 X153.8 Y117.714 E79.1238
G1 X153.8 Y115.429 E79.2622
G1 X96.2 Y115.429 E82.7504
G1 X96.2 Y113.143 E82.8888
G1 X153.8 Y113.143 E86.377
G1 X153.8 Y110.857 E86.5154
G1 X96.2 Y110.857 E90.0036
G1 X96.2 Y108.571 E90.142
G1 X153.8 Y108.571 E93.6301
G1 X153.8 Y106.286 E93.7686
G1 X96.2 Y106.286 E97.2567
G1 X96.2 Y104 E97.3951
G1 X153.8 Y104 E100.8833
G1 X153.8 Y101.714 E101.0217
G1 X96.2 Y101.714 E104.5099
G1 X96.2 Y99.429 E104.6483
G1 X153.8 Y99.429 E108.1364
G1 X153.8 Y97.143 E108.2749
G1 X96.2 Y97.143 E111.763
G1 X96.2 Y94.857 E111.9014
G1 X153.8 Y94.857 E115.3896
G1 X153.8 Y92.571 E115.528
G1 X96.2 Y92.571 E119.0162
G1 X96.2 Y90.286 E119.1546
G1 X153.8 Y90.286 E122.6428
G1 X153.8 Y88.426 E122.7554
G1 X153.374 Y88 E122.7919
G1 X97.025 Y88 E126.2043
G1 X96.626 Y88 F1500
G92 E0
G1 E-4 F3000
; layer 3, Z = 1.37647
; tool H0.376 W0.64
G1 X95.76 Y87.622 F10000
G1 Z1.376 F1000
G1 E0 F3000
G92 E0
G1 X95.76 Y162.378 E2.7269 F3000
G1 X97.04 Y163.658 E2.793
G1 X97.04 Y86.342 E5.6133
G1 X98.062 Y85.32 E5.666
G1 X98.32 Y85.32 E5.6754
G1 X98.32 Y164.68 E8.5703
G1 X99.6 Y164.68 E8.617
G1 X99.6 Y85.32 E11.5118
G1 X100.88 Y85.32 E11.5585
G1 X100.88 Y164.68 E14.4534
G1 X102.16 Y164.68 E14.5001
G1 X102.16 Y85.32 E17.3949
G1 X103.44 Y85.32 E17.4416
G1 X103.44 Y164.68 E20.3365
G1 X104.72 Y164.68 E20.3832
G1 X104.72 Y85.32 E23.278
G1 X106 Y85.32 E23.3247
G1 X106 Y164.68 E26.2196
G1 X107.28 Y164.68 E26.2663
G1 X107.28 Y85.32 E29.1611
G1 X108.56 Y85.32 E29.2078
G1 X108.56 Y164.68 E32.1027
G1 X109.84 Y164.68 E32.1493
G1 X109.84 Y85.32 E35.0442
G1 X111.12 Y85.32 E35.0909
G1 X111.12 Y164.68 E37.9857
G1 X112.4 Y164.68 E38.0324
G1 X112.4 Y85.32 E40.9273
G1 X113.68 Y85.32 E40.974
G1 X113.68 Y164.68 E43.8688
G1 X114.96 Y164.68 E43.9155
G1 X114.96 Y85.32 E46.8104
G1 X116.24 Y85.32 E46.8571
G1 X116.24 Y164.68 E49.7519
G1 X117.52 Y164.68 E49.7986
G1 X117.52 Y85.32 E52.6935
G1 X118.8 Y85.32 E52.7402
G1 X118.8 Y164.68 E55.635
G1 X120.08 Y164.68 E55.6817
G1 X120.08 Y85.32 E58.5766
G1 X121.36 Y85.32 E58.6233
G1 X121.36 Y164.68 E61.5181
G1 X122.64 Y164.68 E61.5648
G1 X122.64 Y85.32 E64.4597
G1 X123.92 Y85.32 E64.5064
G1 X123.92 Y164.68 E67.4012
G1 X125.2 Y164.68 E67.4479
G1 X125.2 Y85.32 E70.3428
G1 X126.48 Y85.32 E70.3894
G1 X126.48 Y164.68 E73.2843
G1 X127.76 Y164.68 E73.331
G1 X127.76 Y85.32 E76.2258
G1 X129.04 Y85.32 E76.2725
G1 X129.04 Y164.68 E79.1674
G1 X130.32 Y164.68 E79.2141
G1 X130.32 Y85.32 E82.1089
G1 X131.6 Y85.32 E82.1556
G1 X131.6 Y164.68 E85.0505
G1 X132.88 Y164.68 E85.0972
G1 X132.88 Y85.32 E87.992
G1 X134.16 Y85.32 E88.0387
G1 X134.16 Y164.68 E90.9336
G1 X135.44 Y164.68 E90.9803
G1 X135.44 Y85.32 E93.8751
G1 X136.72 Y85.32 E93.9218
G1 X136.72 Y164.68 E96.8167
G1 X138 Y164.68 E96.8634
G1 X138 Y85.32 E99.7582
G1 X139.28 Y85.32 E99.8049
G1 X139.28 Y164.68 E102.6998
G1 X140.56 Y164.68 E102.7465
G1 X140.56 Y85.32 E105.6413
G1 X141.84 Y85.32 E105.688
G1 X141.84 Y164.68 E108.5829
G1 X143.12 Y164.68 E108.6295
G1 X143.12 Y85.32 E111.5244
G1 X144.4 Y85.32 E111.5711
G1 X144.4 Y164.68 E114.4659
G1 X145.68 Y164.68 E114.5126
G1 X145.68 Y85.32 E117.4075
G1 X146.96 Y85.32 E117.4542
G1 X146.96 Y164.68 E120.349
G1 X148.24 Y164.68 E120.3957
G1 X148.24 Y85.32 E123.2906
G1 X149.52 Y85.32 E123.3373
G1 X149.52 Y164.68 E126.2321
G1 X150.8 Y164.68 E126.2788
G1 X150.8 Y85.32 E129.1737
G1 X151.939 Y85.32 E129.2152
G1 X152.08 Y85.461 E129.2225
G1 X152.08 Y164.539 E132.107
G1 X153.36 Y163.259 E132.1731
G1 X153.36 Y86.741 E134.9642
G1 X154.64 Y88.021 E135.0303
G1 X154.64 Y161.979 E137.728
G1 X154.68 Y161.939 E137.7301
G1 X154.68 Y88.402 E140.4125
G1 X154.68 Y88.061 F3000
G1 X154.64 Y88.021 F3000
G92 E0
G1 E-4 F3000
; layer 4, Z = 1.59869
; tool H0.222 W0.4
G1 X149.522 Y87.2 F10000
G1 Z1.599 F1000
G1 E0 F3000
G92 E0
G1 X151.759 Y87.8 E0.0312 F6000
G1 X152.702 Y88.742 E0.0491
G1 X146.946 Y87.2 E0.1293
G1 X144.37 Y87.2 E0.164
G1 X152.8 Y89.459 E0.2814
