; G-Code generated by Simplify3D(TM) Version 2.2.0
; Jan 4, 2015 at 10:05:40 AM
; Settings Summary
;   processName,Nylon_Experimental
;   applyToModels,Motor_Housing
;   profileLabel,-- Select Printer Profile --
;   printMaterial,Nylon
;   printQuality,High
;   extruderName,Extruder 1
;   extruderToolheadNumber,0
;   extruderDiameter,0.4
;   extruderAutoWidth,0
;   extruderWidth,0.48
;   extrusionMultiplier,1
;   extruderUseRetract,1
;   extruderRetractionDistance,4
;   extruderExtraRestartDistance,0
;   extruderRetractionZLift,0
;   extruderRetractionSpeed,3000
;   extruderUseCoasting,1
;   extruderCoastingDistance,0.4
;   extruderUseWipe,1
;   extruderWipeDistance,5
;   primaryExtruder,0
;   layerHeight,0.2
;   topSolidLayers,3
;   bottomSolidLayers,3
;   perimeterOutlines,2
;   printPerimetersInsideOut,1
;   startPointOption,2
;   startPointOriginX,0
;   startPointOriginY,0
;   startPointOriginZ,300
;   sequentialIslands,0
;   spiralVaseMode,0
;   firstLayerHeightPercentage,100
;   firstLayerWidthPercentage,110
;   firstLayerUnderspeed,0.5
;   useRaft,0
;   raftExtruder,0
;   raftLayers,3
;   raftOffset,3
;   raftSeparationDistance,0.2
;   raftInfill,60
;   disableRaftBaseLayers,0
;   useSkirt,1
;   skirtExtruder,0
;   skirtLayers,1
;   skirtOutlines,4
;   skirtOffset,10
;   infillExtruder,0
;   externalInfillPattern,Rectilinear
;   infillPercentage,20
;   outlineOverlapPercentage,15
;   infillExtrusionWidthPercentage,100
;   minInfillLength,5
;   infillLayerInterval,1
;   randomInfillStartPoint,0
;   infillAngles,45,-45
;   generateSupport,0
;   supportExtruder,0
;   supportInfill,40
;   supportExtraInflation,0
;   denseSupportLayers,0
;   denseSupportInfill,70
;   supportLayerInterval,1
;   supportHorizontalPartOffset,0.3
;   supportUpperSeparationLayers,1
;   supportLowerSeparationLayers,1
;   supportGridSpacing,4
;   maxOverhangAngle,45
;   supportAngles,0
;   temperatureName,Extruder 1 Temperature,Heated Bed
;   temperatureNumber,0,0
;   temperatureSetpointCount,1,1
;   temperatureSetpointLayers,1,1
;   temperatureSetpointTemperatures,245,58
;   temperatureStabilizeAtStartup,1,1
;   temperatureHeatedBed,0,1
;   temperatureRelayBetweenLayers,0,0
;   temperatureRelayBetweenLoops,0,0
;   fanLayers,1
;   fanSpeeds,0
;   blipFanToFullPower,0
;   adjustSpeedForCooling,1
;   minSpeedLayerTime,15
;   minCoolingSpeedSlowdown,20
;   increaseFanForCooling,0
;   minFanLayerTime,45
;   maxCoolingFanSpeed,100
;   increaseFanForBridging,0
;   bridgingFanSpeed,100
;   use5D,1
;   relativeEdistances,0
;   allowEaxisZeroing,1
;   independentExtruderAxes,0
;   includeM10123,0
;   stickySupport,1
;   detectArcs,0
;   arcReplaceG2G3,0
;   arcRadialCompensation,1
;   gcodeXoffset,0
;   gcodeYoffset,0
;   gcodeZoffset,0
;   overrideMachineDefinition,0
;   machineTypeOverride,0
;   strokeXoverride,250
;   strokeYoverride,250
;   strokeZoverride,250
;   originOffsetXoverride,0
;   originOffsetYoverride,0
;   originOffsetZoverride,0
;   homeXdirOverride,-1
;   homeYdirOverride,-1
;   homeZdirOverride,-1
;   flipXoverride,1
;   flipYoverride,-1
;   flipZoverride,1
;   startingGcode,G28 ; home all axes
;   layerChangeGcode,
;   toolChangeGcode,
;   endingGcode,M104 S0 ; turn off extruder,M140 S0 ; turn off bed,M84 ; disable motors,G28 ; home all axes
;   createX3G,0
;   celebration,0
;   celebrationSong,Random Song
;   createMB5G,0
;   postProcessing,
;   defaultSpeed,6000
;   outlineUnderspeed,0.25
;   solidInfillUnderspeed,0.7
;   supportUnderspeed,0.8
;   rapidXYspeed,10000
;   rapidZspeed,1000
;   minBridgingArea,50
;   bridgingExtrusionMultiplier,1
;   bridgingSpeedMultiplier,1
;   filamentDiameter,2.9
;   filamentPricePerKg,46
;   useMinPrintHeight,0
;   minPrintHeight,0
;   useMaxPrintHeight,0
;   maxPrintHeight,0
;   useDiaphragm,0
;   diaphragmLayerInterval,20
;   robustSlicing,1
;   mergeAllIntoSolid,0
;   onlyRetractWhenCrossingOutline,1
;   retractBetweenLayers,1
;   useRetractionMinTravel,0
;   retractionMinTravel,3
;   useRetractionOozeRate,0
;   retractionOozeRate,100
;   onlyWipeOutlines,1
;   toolChangeRetractionDistance,12
;   toolChangeExtraRestartDistance,-0.5
;   toolChangeRetractionSpeed,600
;   allowThinWallGapFill,1
;   thinWallAllowedOverlapPercentage,10
G90
M82
M106 S0
M140 S58
M190 S58
M104 S245 T0
M109 S245 T0
G28 ; home all axes
G92 E0
G1 E-4 F3000
; layer 1, Z = 0.2
T0
; tool H0.2 W0.528
G1 X92.486 Y88.593 F10000
G1 Z0.2 F1000
G1 E0 F900
G92 E0
G1 X93.104 Y88.337 E0.0107 F3000
G1 X122.362 Y88.337 E0.4784
G1 X122.444 Y88.303 E0.4799
G1 X137.896 Y88.303 E0.7269
G1 X138.514 Y88.559 E0.7376
G1 X139.67 Y89.715 E0.7637
G1 X140.826 Y88.559 E0.7899
G1 X141.444 Y88.303 E0.8006
G1 X156.896 Y88.303 E1.0476
G1 X157.514 Y88.559 E1.0583
G1 X163.844 Y94.889 E1.2014
G1 X164.1 Y95.507 E1.2121
G1 X164.1 Y122.483 E1.6434
G1 X163.844 Y123.101 E1.6541
G1 X160.633 Y126.311 E1.7267
G1 X160.633 Y134.459 E1.8569
G1 X160.378 Y135.077 E1.8676
G1 X154.047 Y141.407 E2.0107
G1 X153.43 Y141.663 E2.0214
G1 X141.444 Y141.663 E2.2131
G1 X140.826 Y141.407 E2.2237
G1 X139.67 Y140.251 E2.2499
G1 X138.514 Y141.407 E2.276
G1 X137.896 Y141.663 E2.2867
G1 X134.26 Y141.663 E2.3448
G1 X134.26 Y154.493 E2.55
G1 X134.004 Y155.111 E2.5606
G1 X127.674 Y161.441 E2.7038
G1 X127.056 Y161.697 E2.7145
G1 X93.104 Y161.697 E3.2573
G1 X92.486 Y161.441 E3.268
G1 X86.156 Y155.111 E3.4111
G1 X85.9 Y154.493 E3.4218
G1 X85.9 Y95.541 E4.3643
G1 X86.156 Y94.923 E4.375
G1 X92.204 Y88.875 E4.5117
G1 X92.486 Y88.593 F3000
G1 X92.758 Y89 F10000
G92 E0
G1 X93.199 Y88.817 E0.0076 F3000
G1 X122.458 Y88.817 E0.4754
G1 X122.539 Y88.783 E0.4768
G1 X137.801 Y88.783 E0.7208
G1 X138.242 Y88.966 E0.7284
G1 X139.67 Y90.394 E0.7607
G1 X141.098 Y88.966 E0.793
G1 X141.539 Y88.783 E0.8006
G1 X156.801 Y88.783 E1.0446
G1 X157.242 Y88.966 E1.0523
G1 X163.437 Y95.161 E1.1923
G1 X163.62 Y95.602 E1.2
G1 X163.62 Y122.388 E1.6282
G1 X163.437 Y122.829 E1.6358
G1 X160.153 Y126.113 E1.7101
G1 X160.153 Y134.364 E1.842
G1 X159.971 Y134.805 E1.8496
G1 X153.775 Y141 E1.9897
G1 X153.334 Y141.183 E1.9973
G1 X141.539 Y141.183 E2.1859
G1 X141.098 Y141 E2.1936
G1 X139.67 Y139.572 E2.2258
G1 X138.242 Y141 E2.2581
G1 X137.801 Y141.183 E2.2658
G1 X133.78 Y141.183 E2.33
G1 X133.78 Y154.398 E2.5413
G1 X133.597 Y154.839 E2.5489
G1 X127.402 Y161.034 E2.689
G1 X126.961 Y161.217 E2.6966
G1 X93.199 Y161.217 E3.2364
G1 X92.758 Y161.034 E3.244
G1 X86.563 Y154.839 E3.3841
G1 X86.38 Y154.398 E3.3917
G1 X86.38 Y95.636 E4.3312
G1 X86.563 Y95.195 E4.3388
G1 X92.475 Y89.282 E4.4725
G1 X92.758 Y89 F3000
G1 X93.03 Y89.406 F10000
G92 E0
G1 X93.295 Y89.297 E0.0046 F3000
G1 X122.553 Y89.297 E0.4723
G1 X122.635 Y89.263 E0.4738
G1 X137.705 Y89.263 E0.7147
G1 X137.97 Y89.373 E0.7193
G1 X139.67 Y91.073 E0.7577
G1 X141.37 Y89.373 E0.7961
G1 X141.634 Y89.263 E0.8007
G1 X156.705 Y89.263 E1.0417
G1 X156.97 Y89.373 E1.0462
G1 X163.03 Y95.433 E1.1833
G1 X163.14 Y95.698 E1.1878
G1 X163.14 Y122.292 E1.613
G1 X163.03 Y122.557 E1.6176
G1 X159.673 Y125.914 E1.6935
G1 X159.673 Y134.269 E1.8271
G1 X159.564 Y134.533 E1.8317
G1 X153.503 Y140.594 E1.9687
G1 X153.239 Y140.703 E1.9733
G1 X141.634 Y140.703 E2.1588
G1 X141.37 Y140.594 E2.1634
G1 X139.67 Y138.894 E2.2018
G1 X137.97 Y140.594 E2.2402
G1 X137.705 Y140.703 E2.2448
G1 X133.3 Y140.703 E2.3152
G1 X133.3 Y154.302 E2.5326
G1 X133.191 Y154.567 E2.5372
G1 X127.13 Y160.627 E2.6743
G1 X126.866 Y160.737 E2.6788
G1 X93.295 Y160.737 E3.2155
G1 X93.03 Y160.627 E3.2201
G1 X86.97 Y154.567 E3.3571
G1 X86.86 Y154.302 E3.3617
G1 X86.86 Y95.731 E4.2981
G1 X86.97 Y95.467 E4.3027
G1 X92.747 Y89.689 E4.4333
G1 X93.03 Y89.406 F3000
G1 X93.302 Y89.813 F10000
G92 E0
G1 X93.39 Y89.777 E0.0015 F3000
G1 X122.649 Y89.777 E0.4693
G1 X122.73 Y89.743 E0.4707
G1 X137.61 Y89.743 E0.7086
G1 X137.698 Y89.78 E0.7101
G1 X139.67 Y91.752 E0.7547
G1 X141.642 Y89.78 E0.7993
G1 X141.73 Y89.743 E0.8008
G1 X156.61 Y89.743 E1.0387
G1 X156.698 Y89.78 E1.0402
G1 X162.623 Y95.705 E1.1742
G1 X162.66 Y95.793 E1.1757
G1 X162.66 Y122.197 E1.5978
G1 X162.623 Y122.285 E1.5994
G1 X159.193 Y125.715 E1.6769
G1 X159.193 Y134.173 E1.8121
G1 X159.157 Y134.261 E1.8137
G1 X153.231 Y140.187 E1.9476
G1 X153.143 Y140.223 E1.9492
G1 X141.73 Y140.223 E2.1316
G1 X141.642 Y140.187 E2.1332
G1 X139.67 Y138.215 E2.1777
G1 X137.698 Y140.187 E2.2223
G1 X137.61 Y140.223 E2.2239
G1 X132.82 Y140.223 E2.3004
G1 X132.82 Y154.207 E2.524
G1 X132.784 Y154.295 E2.5255
G1 X126.858 Y160.22 E2.6595
G1 X126.77 Y160.257 E2.661
G1 X93.39 Y160.257 E3.1947
G1 X93.302 Y160.22 E3.1962
G1 X87.377 Y154.295 E3.3302
G1 X87.34 Y154.207 E3.3317
G1 X87.34 Y95.827 E4.265
G1 X87.377 Y95.739 E4.2666
G1 X93.019 Y90.096 E4.3941
G1 X93.302 Y89.813 F3000
G92 E0
G1 E-4 F3000
G1 X98.316 Y105.753 F10000
G1 E0 F3000
G92 E0
G1 X98.316 Y109.168 E0.0546 F750
G1 X98.222 Y109.481 E0.0598
G1 X98.196 Y109.692 E0.0632
G1 X98.196 Y109.897 E0.0665
G1 X98.219 Y110.102 E0.0698
G1 X98.265 Y110.302 E0.0731
G1 X98.316 Y110.442 E0.0755
G1 X98.316 Y114.281 E0.1368
G1 X101.844 Y114.281 E0.1932
G1 X101.844 Y105.753 E0.3296
G1 X98.716 Y105.753 E0.3796
G1 X98.316 Y105.753 F750
G92 E0
G1 E-4 F3000
G1 X98.316 Y109.168 F750
G1 X98.222 Y109.481 F750
G1 X98.196 Y109.692 F750
G1 X98.196 Y109.897 F750
G1 X98.219 Y110.102 F750
G1 X98.265 Y110.302 F750
G1 X98.316 Y110.442 F750
G1 X98.316 Y110.722 F750
G1 X118.316 Y105.753 F10000
G1 E0 F3000
G92 E0
G1 X118.316 Y109.168 E0.0546 F750
G1 X118.222 Y109.481 E0.0598
G1 X118.196 Y109.692 E0.0632
G1 X118.196 Y109.897 E0.0665
G1 X118.219 Y110.102 E0.0698
G1 X118.265 Y110.302 E0.0731
G1 X118.316 Y110.442 E0.0755
G1 X118.316 Y114.281 E0.1368
G1 X121.844 Y114.281 E0.1932
G1 X121.844 Y105.753 E0.3296
G1 X118.716 Y105.753 E0.3796
G1 X118.316 Y105.753 F750
G1 X118.316 Y109.168 F750
G1 X118.222 Y109.481 F750
G1 X118.196 Y109.692 F750
G1 X118.196 Y109.897 F750
G1 X118.219 Y110.102 F750
G1 X118.265 Y110.302 F750
G1 X118.316 Y110.442 F750
G1 X118.316 Y110.722 F750
G1 X98.372 Y100.809 F10000
G92 E0
G1 X121.788 Y100.809 E0.3744 F1875
G1 X121.788 Y105.225 E0.445
G1 X117.788 Y105.225 E0.5089
G1 X117.788 Y109.09 E0.5707
G1 X117.703 Y109.372 E0.5754
G1 X117.669 Y109.659 E0.58
G1 X117.668 Y109.926 E0.5843
G1 X117.698 Y110.192 E0.5886
G1 X117.758 Y110.452 E0.5928
G1 X117.788 Y110.535 E0.5943
G1 X117.788 Y114.809 E0.6626
G1 X121.788 Y114.809 E0.7265
G1 X121.788 Y149.225 E1.2768
G1 X98.372 Y149.225 E1.6511
G1 X98.372 Y114.809 E2.2013
G1 X102.372 Y114.809 E2.2653
G1 X102.372 Y105.225 E2.4185
G1 X98.372 Y105.225 E2.4825
G1 X98.372 Y101.209 E2.5467
G1 X98.372 Y100.809 F1875
G1 X97.844 Y100.281 F10000
G92 E0
G1 X122.316 Y100.281 E0.3912 F750
G1 X122.316 Y149.753 E1.1822
G1 X97.844 Y149.753 E1.5734
G1 X97.844 Y100.681 E2.358
G1 X97.844 Y100.281 F750
G1 X102.844 Y100.281 F750
G1 X98.821 Y101.517 F10000
G92 E0
G1 X99.08 Y101.258 E0.0059 F2100
G1 X99.827 Y101.258 E0.0178
G1 X98.821 Y102.264 E0.0405
G1 X98.821 Y103.01 E0.0525
G1 X100.574 Y101.258 E0.0921
G1 X101.32 Y101.258 E0.104
G1 X98.821 Y103.757 E0.1606
G1 X98.821 Y104.504 E0.1725
G1 X102.067 Y101.258 E0.2459
G1 X102.814 Y101.258 E0.2578
G1 X99.295 Y104.776 E0.3374
G1 X100.042 Y104.776 E0.3493
G1 X103.56 Y101.258 E0.4289
G1 X104.307 Y101.258 E0.4408
G1 X100.789 Y104.776 E0.5203
G1 X101.535 Y104.776 E0.5323
G1 X105.054 Y101.258 E0.6118
G1 X105.8 Y101.258 E0.6238
G1 X102.282 Y104.776 E0.7033
G1 X102.821 Y104.776 E0.7119
G1 X102.821 Y104.984 E0.7153
G1 X106.547 Y101.258 E0.7995
G1 X107.294 Y101.258 E0.8114
G1 X102.821 Y105.731 E0.9126
G1 X102.821 Y106.477 E0.9245
G1 X108.041 Y101.258 E1.0425
G1 X108.787 Y101.258 E1.0545
G1 X102.821 Y107.224 E1.1894
G1 X102.821 Y107.971 E1.2013
G1 X109.534 Y101.258 E1.3531
G1 X110.281 Y101.258 E1.365
G1 X102.821 Y108.717 E1.5337
G1 X102.821 Y109.464 E1.5456
G1 X111.027 Y101.258 E1.7312
G1 X111.774 Y101.258 E1.7431
G1 X102.821 Y110.211 E1.9455
G1 X102.821 Y110.958 E1.9575
G1 X112.521 Y101.258 E2.1768
G1 X113.268 Y101.258 E2.1887
G1 X102.821 Y111.704 E2.4249
G1 X102.821 Y112.451 E2.4368
G1 X114.014 Y101.258 E2.6899
G1 X114.761 Y101.258 E2.7019
G1 X102.821 Y113.198 E2.9718
G1 X102.821 Y113.944 E2.9838
G1 X115.508 Y101.258 E3.2706
G1 X116.254 Y101.258 E3.2825
G1 X102.821 Y114.691 E3.5863
G1 X102.821 Y115.258 E3.5953
G1 X102.254 Y115.258 E3.6044
G1 X98.821 Y118.691 E3.682
G1 X98.821 Y119.438 E3.6939
G1 X117.001 Y101.258 E4.105
G1 X117.748 Y101.258 E4.1169
G1 X98.821 Y120.184 E4.5449
G1 X98.821 Y120.931 E4.5568
G1 X118.494 Y101.258 E5.0016
G1 X119.241 Y101.258 E5.0135
G1 X98.821 Y121.678 E5.4752
G1 X98.821 Y122.425 E5.4872
G1 X119.988 Y101.258 E5.9657
G1 X120.735 Y101.258 E5.9777
G1 X98.821 Y123.171 E6.4731
G1 X98.821 Y123.918 E6.4851
G1 X117.339 Y105.4 E6.9038
G1 X117.339 Y106.146 E6.9157
G1 X98.821 Y124.665 E7.3344
G1 X98.821 Y125.411 E7.3463
G1 X117.339 Y106.893 E7.765
G1 X117.339 Y107.64 E7.777
G1 X98.821 Y126.158 E8.1957
G1 X98.821 Y126.905 E8.2076
G1 X117.339 Y108.386 E8.6263
G1 X117.339 Y109.024 E8.6365
G1 X117.293 Y109.18 E8.6391
G1 X98.821 Y127.652 E9.0567
G1 X98.821 Y128.398 E9.0687
G1 X117.224 Y109.995 E9.4847
G1 X117.255 Y110.268 E9.4891
G1 X117.327 Y110.579 E9.4942
G1 X117.339 Y110.613 E9.4948
G1 X117.339 Y110.627 E9.495
G1 X98.821 Y129.145 E9.9137
G1 X98.821 Y129.892 E9.9257
G1 X117.339 Y111.373 E10.3444
G1 X117.339 Y112.12 E10.3563
G1 X98.821 Y130.638 E10.775
G1 X98.821 Y131.385 E10.7869
G1 X117.339 Y112.867 E11.2056
G1 X117.339 Y113.613 E11.2176
G1 X98.821 Y132.132 E11.6363
G1 X98.821 Y132.878 E11.6482
G1 X117.339 Y114.36 E12.0669
G1 X117.339 Y115.107 E12.0788
G1 X98.821 Y133.625 E12.4975
G1 X98.821 Y134.372 E12.5095
G1 X117.935 Y115.258 E12.9416
G1 X118.682 Y115.258 E12.9536
G1 X98.821 Y135.119 E13.4026
G1 X98.821 Y135.865 E13.4145
G1 X119.429 Y115.258 E13.8805
G1 X120.175 Y115.258 E13.8924
G1 X98.821 Y136.612 E14.3752
G1 X98.821 Y137.359 E14.3872
G1 X120.922 Y115.258 E14.8869
G1 X121.339 Y115.258 E14.8935
G1 X121.339 Y115.587 E14.8988
G1 X98.821 Y138.105 E15.4079
G1 X98.821 Y138.852 E15.4199
G1 X121.339 Y116.334 E15.929
G1 X121.339 Y117.08 E15.9409
G1 X98.821 Y139.599 E16.4501
G1 X98.821 Y140.345 E16.462
G1 X121.339 Y117.827 E16.9711
G1 X121.339 Y118.574 E16.9831
G1 X98.821 Y141.092 E17.4922
G1 X98.821 Y141.839 E17.5041
G1 X121.339 Y119.321 E18.0133
G1 X121.339 Y120.067 E18.0252
G1 X98.821 Y142.586 E18.5343
G1 X98.821 Y143.332 E18.5463
G1 X121.339 Y120.814 E19.0554
G1 X121.339 Y121.561 E19.0674
G1 X98.821 Y144.079 E19.5765
G1 X98.821 Y144.826 E19.5884
G1 X121.339 Y122.307 E20.0976
G1 X121.339 Y123.054 E20.1095
G1 X98.821 Y145.572 E20.6186
G1 X98.821 Y146.319 E20.6306
G1 X121.339 Y123.801 E21.1397
G1 X121.339 Y124.547 E21.1516
G1 X98.821 Y147.066 E21.6608
G1 X98.821 Y147.813 E21.6727
G1 X121.339 Y125.294 E22.1818
G1 X121.339 Y126.041 E22.1938
G1 X98.821 Y148.559 E22.7029
G1 X98.821 Y148.776 E22.7064
G1 X99.351 Y148.776 E22.7148
G1 X121.339 Y126.788 E23.212
G1 X121.339 Y127.534 E23.2239
G1 X100.098 Y148.776 E23.7042
G1 X100.844 Y148.776 E23.7161
G1 X121.339 Y128.281 E24.1795
G1 X121.339 Y129.028 E24.1915
G1 X101.591 Y148.776 E24.638
G1 X102.338 Y148.776 E24.6499
G1 X121.339 Y129.774 E25.0795
G1 X121.339 Y130.521 E25.0915
G1 X103.084 Y148.776 E25.5042
G1 X103.831 Y148.776 E25.5161
G1 X121.339 Y131.268 E25.912
G1 X121.339 Y132.014 E25.9239
G1 X104.578 Y148.776 E26.3029
G1 X105.324 Y148.776 E26.3148
G1 X121.339 Y132.761 E26.6769
G1 X121.339 Y133.508 E26.6889
G1 X106.071 Y148.776 E27.0341
G1 X106.818 Y148.776 E27.046
G1 X121.339 Y134.255 E27.3743
G1 X121.339 Y135.001 E27.3863
G1 X107.565 Y148.776 E27.6977
G1 X108.311 Y148.776 E27.7097
G1 X121.339 Y135.748 E28.0042
G1 X121.339 Y136.495 E28.0162
G1 X109.058 Y148.776 E28.2938
G1 X109.805 Y148.776 E28.3058
G1 X121.339 Y137.241 E28.5666
G1 X121.339 Y137.988 E28.5785
G1 X110.551 Y148.776 E28.8224
G1 X111.298 Y148.776 E28.8343
G1 X121.339 Y138.735 E29.0614
G1 X121.339 Y139.482 E29.0733
G1 X112.045 Y148.776 E29.2835
G1 X112.792 Y148.776 E29.2954
G1 X121.339 Y140.228 E29.4887
G1 X121.339 Y140.975 E29.5006
G1 X113.538 Y148.776 E29.677
G1 X114.285 Y148.776 E29.6889
G1 X121.339 Y141.722 E29.8484
G1 X121.339 Y142.468 E29.8603
G1 X115.032 Y148.776 E30.003
