; G-Code generated by Simplify3D(TM) Version 2.2.0
; Jan 19, 2015 at 11:36:15 AM
; Settings Summary
;   processName,ABS
;   applyToModels,Motor_Housing
;   profileLabel,-- Select Printer Profile --
;   printMaterial,ABS
;   printQuality,Medium
;   extruderName,Extruder 1
;   extruderToolheadNumber,0
;   extruderDiameter,0.4
;   extruderAutoWidth,1
;   extruderWidth,0.48
;   extrusionMultiplier,1
;   extruderUseRetract,1
;   extruderRetractionDistance,4
;   extruderExtraRestartDistance,0
;   extruderRetractionZLift,0
;   extruderRetractionSpeed,6000
;   extruderUseCoasting,1
;   extruderCoastingDistance,0.2
;   extruderUseWipe,0
;   extruderWipeDistance,5
;   primaryExtruder,0
;   layerHeight,0.2
;   topSolidLayers,3
;   bottomSolidLayers,3
;   perimeterOutlines,2
;   printPerimetersInsideOut,1
;   startPointOption,2
;   startPointOriginX,0
;   startPointOriginY,0
;   startPointOriginZ,300
;   sequentialIslands,1
;   spiralVaseMode,0
;   firstLayerHeightPercentage,150
;   firstLayerWidthPercentage,100
;   firstLayerUnderspeed,0.5
;   useRaft,0
;   raftExtruder,0
;   raftLayers,3
;   raftOffset,3
;   raftSeparationDistance,0.14
;   raftInfill,85
;   disableRaftBaseLayers,0
;   useSkirt,1
;   skirtExtruder,0
;   skirtLayers,1
;   skirtOutlines,4
;   skirtOffset,6
;   infillExtruder,0
;   externalInfillPattern,Rectilinear
;   infillPercentage,20
;   outlineOverlapPercentage,15
;   infillExtrusionWidthPercentage,100
;   minInfillLength,5
;   infillLayerInterval,1
;   randomInfillStartPoint,0
;   infillAngles,45,-45
;   generateSupport,1
;   supportExtruder,0
;   supportInfill,30
;   supportExtraInflation,0
;   denseSupportLayers,0
;   denseSupportInfill,70
;   supportLayerInterval,1
;   supportHorizontalPartOffset,0.4
;   supportUpperSeparationLayers,1
;   supportLowerSeparationLayers,1
;   supportGridSpacing,4
;   maxOverhangAngle,45
;   supportAngles,0
;   temperatureName,Extruder 1 Temperature,Heated Bed
;   temperatureNumber,0,0
;   temperatureSetpointCount,1,1
;   temperatureSetpointLayers,1,1
;   temperatureSetpointTemperatures,230,110
;   temperatureStabilizeAtStartup,1,1
;   temperatureHeatedBed,0,1
;   temperatureRelayBetweenLayers,0,0
;   temperatureRelayBetweenLoops,0,0
;   fanLayers,1
;   fanSpeeds,0
;   blipFanToFullPower,0
;   adjustSpeedForCooling,1
;   minSpeedLayerTime,15
;   minCoolingSpeedSlowdown,20
;   increaseFanForCooling,0
;   minFanLayerTime,45
;   maxCoolingFanSpeed,100
;   increaseFanForBridging,0
;   bridgingFanSpeed,100
;   use5D,1
;   relativeEdistances,0
;   allowEaxisZeroing,1
;   independentExtruderAxes,0
;   includeM10123,0
;   stickySupport,1
;   detectArcs,0
;   arcReplaceG2G3,0
;   arcRadialCompensation,1
;   gcodeXoffset,0
;   gcodeYoffset,0
;   gcodeZoffset,0
;   overrideMachineDefinition,0
;   machineTypeOverride,0
;   strokeXoverride,250
;   strokeYoverride,250
;   strokeZoverride,250
;   originOffsetXoverride,0
;   originOffsetYoverride,0
;   originOffsetZoverride,0
;   homeXdirOverride,-1
;   homeYdirOverride,-1
;   homeZdirOverride,-1
;   flipXoverride,1
;   flipYoverride,-1
;   flipZoverride,1
;   startingGcode,G28 ; home all axes
;   layerChangeGcode,
;   toolChangeGcode,
;   endingGcode,M104 S0 ; turn off extruder,M140 S0 ; turn off bed,G28 ; home all axes,M84 ; disable motors
;   createX3G,0
;   celebration,0
;   celebrationSong,Random Song
;   createMB5G,0
;   postProcessing,
;   defaultSpeed,4200
;   outlineUnderspeed,0.5
;   solidInfillUnderspeed,0.8
;   supportUnderspeed,0.8
;   rapidXYspeed,4800
;   rapidZspeed,1002
;   minBridgingArea,50
;   bridgingExtrusionMultiplier,1
;   bridgingSpeedMultiplier,1
;   filamentDiameter,2.85
;   filamentPricePerKg,46
;   useMinPrintHeight,0
;   minPrintHeight,0
;   useMaxPrintHeight,0
;   maxPrintHeight,0
;   useDiaphragm,0
;   diaphragmLayerInterval,20
;   robustSlicing,1
;   mergeAllIntoSolid,0
;   onlyRetractWhenCrossingOutline,1
;   retractBetweenLayers,1
;   useRetractionMinTravel,0
;   retractionMinTravel,3
;   useRetractionOozeRate,0
;   retractionOozeRate,6000
;   onlyWipeOutlines,1
;   toolChangeRetractionDistance,12
;   toolChangeExtraRestartDistance,-0.5
;   toolChangeRetractionSpeed,600
;   allowThinWallGapFill,1
;   thinWallAllowedOverlapPercentage,10
G90
M82
M106 S0
M140 S110
M190 S110
M104 S230 T0
M109 S230 T0
G28 ; home all axes
G92 E0
G1 E-4 F6000
; layer 1, Z = 0.3
T0
; tool H0.3 W0.48
G1 X90.156 Y86.08 F4800
G1 Z0.3 F1002
G1 E0 F1800
G92 E0
G1 X94.143 Y82.093 E0.1273 F2100
G1 X94.761 Y81.837 E0.1424
G1 X124.019 Y81.837 E0.8028
G1 X124.1 Y81.803 E0.8048
G1 X136.239 Y81.803 E1.0788
G1 X136.857 Y82.059 E1.0939
G1 X139.67 Y84.872 E1.1837
G1 X142.483 Y82.059 E1.2735
G1 X143.1 Y81.803 E1.2886
G1 X155.239 Y81.803 E1.5626
G1 X155.857 Y82.059 E1.5777
G1 X159.844 Y86.046 E1.705
G1 X160.1 Y86.664 E1.72
G1 X160.1 Y110.326 E2.2542
G1 X159.844 Y110.944 E2.2693
G1 X156.633 Y114.155 E2.3718
G1 X156.633 Y122.303 E2.5557
G1 X156.378 Y122.92 E2.5708
G1 X152.39 Y126.907 E2.6981
G1 X151.773 Y127.163 E2.7131
G1 X143.1 Y127.163 E2.9089
G1 X142.483 Y126.907 E2.924
G1 X139.67 Y124.094 E3.0138
G1 X136.857 Y126.907 E3.1036
G1 X136.239 Y127.163 E3.1187
G1 X130.26 Y127.163 E3.2536
G1 X130.26 Y154.637 E3.8738
G1 X130.285 Y154.697 E3.8753
G1 X130.285 Y163.336 E4.0703
G1 X130.029 Y163.954 E4.0854
G1 X126.042 Y167.941 E4.2126
G1 X125.424 Y168.197 E4.2277
G1 X94.786 Y168.197 E4.9193
G1 X94.168 Y167.941 E4.9344
G1 X90.181 Y163.954 E5.0617
G1 X89.925 Y163.336 E5.0768
G1 X89.925 Y160.396 E5.1432
G1 X89.9 Y160.336 E5.1446
G1 X89.9 Y86.697 E6.8068
G1 X90.079 Y86.265 E6.8174
G1 X90.156 Y86.08 F2100
G1 X90.563 Y86.352 F4800
G92 E0
G1 X94.415 Y82.5 E0.123 F2100
G1 X94.856 Y82.317 E0.1338
G1 X124.115 Y82.317 E0.7942
G1 X124.196 Y82.283 E0.7962
G1 X136.144 Y82.283 E1.0659
G1 X136.585 Y82.466 E1.0767
G1 X139.67 Y85.551 E1.1751
G1 X142.755 Y82.466 E1.2736
G1 X143.196 Y82.283 E1.2844
G1 X155.144 Y82.283 E1.5541
G1 X155.585 Y82.466 E1.5649
G1 X159.437 Y86.318 E1.6878
G1 X159.62 Y86.759 E1.6986
G1 X159.62 Y110.231 E2.2284
G1 X159.437 Y110.672 E2.2392
G1 X156.153 Y113.956 E2.344
G1 X156.153 Y122.207 E2.5303
G1 X155.971 Y122.648 E2.5411
G1 X152.118 Y126.5 E2.664
G1 X151.677 Y126.683 E2.6748
G1 X143.196 Y126.683 E2.8663
G1 X142.755 Y126.5 E2.877
G1 X139.67 Y123.415 E2.9755
G1 X136.585 Y126.5 E3.074
G1 X136.144 Y126.683 E3.0848
G1 X129.78 Y126.683 E3.2284
G1 X129.78 Y154.733 E3.8616
G1 X129.805 Y154.793 E3.863
G1 X129.805 Y163.241 E4.0537
G1 X129.622 Y163.682 E4.0645
G1 X125.77 Y167.534 E4.1875
G1 X125.329 Y167.717 E4.1983
G1 X94.881 Y167.717 E4.8856
G1 X94.44 Y167.534 E4.8963
G1 X90.588 Y163.682 E5.0193
G1 X90.405 Y163.241 E5.0301
G1 X90.405 Y160.301 E5.0964
G1 X90.38 Y160.241 E5.0979
G1 X90.38 Y86.793 E6.7558
G1 X90.486 Y86.537 E6.7621
G1 X90.563 Y86.352 F2100
G1 X90.97 Y86.624 F4800
G92 E0
G1 X94.687 Y82.906 E0.1187 F2100
G1 X94.952 Y82.797 E0.1251
G1 X124.21 Y82.797 E0.7856
G1 X124.291 Y82.763 E0.7876
G1 X136.048 Y82.763 E1.0529
G1 X136.313 Y82.873 E1.0594
G1 X139.67 Y86.23 E1.1666
G1 X143.027 Y82.873 E1.2737
G1 X143.291 Y82.763 E1.2802
G1 X155.048 Y82.763 E1.5456
G1 X155.313 Y82.873 E1.552
G1 X159.03 Y86.59 E1.6707
G1 X159.14 Y86.855 E1.6772
G1 X159.14 Y110.135 E2.2027
G1 X159.03 Y110.4 E2.2092
G1 X155.673 Y113.757 E2.3163
G1 X155.673 Y122.112 E2.5049
G1 X155.564 Y122.376 E2.5114
G1 X151.846 Y126.094 E2.63
G1 X151.582 Y126.203 E2.6365
G1 X143.291 Y126.203 E2.8236
G1 X143.027 Y126.094 E2.8301
G1 X139.67 Y122.737 E2.9373
G1 X136.313 Y126.094 E3.0444
G1 X136.048 Y126.203 E3.0509
G1 X129.3 Y126.203 E3.2032
G1 X129.3 Y154.828 E3.8494
G1 X129.325 Y154.888 E3.8508
G1 X129.325 Y163.145 E4.0372
G1 X129.215 Y163.41 E4.0437
G1 X125.498 Y167.127 E4.1623
G1 X125.234 Y167.237 E4.1688
G1 X94.977 Y167.237 E4.8518
G1 X94.712 Y167.127 E4.8582
G1 X90.995 Y163.41 E4.9769
G1 X90.885 Y163.145 E4.9834
G1 X90.885 Y160.205 E5.0497
G1 X90.86 Y160.145 E5.0512
G1 X90.86 Y86.888 E6.7048
G1 X90.893 Y86.808 E6.7068
G1 X90.97 Y86.624 F2100
G1 X91.377 Y86.896 F4800
G92 E0
G1 X94.959 Y83.313 E0.1144 F2100
G1 X95.047 Y83.277 E0.1165
G1 X124.305 Y83.277 E0.7769
G1 X124.387 Y83.243 E0.7789
G1 X135.953 Y83.243 E1.04
G1 X136.041 Y83.28 E1.0422
G1 X139.623 Y86.862 E1.1565
G1 X139.66 Y86.95 E1.1587
G1 X139.66 Y122.016 E1.9502
G1 X139.623 Y122.104 E1.9524
G1 X136.041 Y125.687 E2.0667
G1 X135.953 Y125.723 E2.0689
G1 X128.82 Y125.723 E2.2299
G1 X128.82 Y154.924 E2.889
G1 X128.845 Y154.984 E2.8905
G1 X128.845 Y163.05 E3.0726
G1 X128.809 Y163.138 E3.0747
G1 X125.226 Y166.72 E3.1891
G1 X125.138 Y166.757 E3.1912
G1 X95.072 Y166.757 E3.8699
G1 X94.984 Y166.72 E3.872
G1 X91.402 Y163.138 E3.9864
G1 X91.365 Y163.05 E3.9886
G1 X91.365 Y160.11 E4.0549
G1 X91.34 Y160.05 E4.0564
G1 X91.34 Y87.088 E5.7033
G1 X91.34 Y86.984 F2100
G1 X91.377 Y86.896 F2100
G1 X139.68 Y86.95 F4800
G92 E0
G1 X139.716 Y86.862 E0.0022 F2100
G1 X143.299 Y83.28 E0.1165
G1 X143.387 Y83.243 E0.1187
G1 X154.953 Y83.243 E0.3797
G1 X155.041 Y83.28 E0.3819
G1 X158.623 Y86.862 E0.4962
G1 X158.66 Y86.95 E0.4984
G1 X158.66 Y110.04 E1.0196
G1 X158.623 Y110.128 E1.0218
G1 X155.193 Y113.558 E1.1313
G1 X155.193 Y122.016 E1.3222
G1 X155.157 Y122.104 E1.3243
G1 X151.575 Y125.687 E1.4387
G1 X151.486 Y125.723 E1.4408
G1 X143.387 Y125.723 E1.6237
G1 X143.299 Y125.687 E1.6258
G1 X139.716 Y122.104 E1.7402
G1 X139.68 Y122.016 E1.7423
G1 X139.68 Y87.15 E2.5293
G1 X139.68 Y86.95 F2100
G92 E0
G1 E-4 F6000
G1 X101.82 Y95.277 F4800
G1 E0 F6000
G92 E0
G1 X98.34 Y95.277 E0.0786 F1050
G1 X98.34 Y98.665 E0.155
G1 X98.293 Y98.793 E0.1581
G1 X98.246 Y98.989 E0.1627
G1 X98.221 Y99.19 E0.1672
G1 X98.22 Y99.393 E0.1718
G1 X98.242 Y99.594 E0.1764
G1 X98.288 Y99.792 E0.181
G1 X98.34 Y99.938 E0.1845
G1 X98.34 Y103.757 E0.2707
G1 X101.82 Y103.757 E0.3492
G1 X101.82 Y95.477 E0.5361
G1 X101.82 Y95.277 F1050
G1 X121.82 Y95.277 F4800
G92 E0
G1 X118.34 Y95.277 E0.0786 F1050
G1 X118.34 Y98.665 E0.155
G1 X118.29 Y98.802 E0.1583
G1 X118.245 Y98.99 E0.1627
G1 X118.22 Y99.2 E0.1675
G1 X118.22 Y99.403 E0.172
G1 X118.243 Y99.604 E0.1766
G1 X118.29 Y99.801 E0.1812
G1 X118.34 Y99.939 E0.1845
G1 X118.34 Y103.757 E0.2707
G1 X121.82 Y103.757 E0.3492
G1 X121.82 Y95.477 E0.5361
G1 X121.82 Y95.277 F1050
G1 X121.86 Y90.237 F4800
G92 E0
G1 X121.86 Y94.797 E0.1029 F1575
G1 X117.86 Y94.797 E0.1932
G1 X117.86 Y98.58 E0.2786
G1 X117.829 Y98.664 E0.2806
G1 X117.772 Y98.905 E0.2862
G1 X117.74 Y99.17 E0.2923
G1 X117.74 Y99.431 E0.2981
G1 X117.77 Y99.688 E0.304
G1 X117.83 Y99.94 E0.3098
G1 X117.86 Y100.024 E0.3118
G1 X117.86 Y104.237 E0.4069
G1 X121.86 Y104.237 E0.4972
G1 X121.86 Y158.237 E1.7162
G1 X121.885 Y158.237 E1.7167
G1 X121.885 Y159.797 E1.7519
G1 X98.325 Y159.797 E2.2837
G1 X98.325 Y156.797 E2.3515
G1 X98.3 Y156.797 E2.352
G1 X98.3 Y104.237 E3.5384
G1 X102.3 Y104.237 E3.6287
G1 X102.3 Y94.797 E3.8418
G1 X98.3 Y94.797 E3.9321
G1 X98.3 Y90.237 E4.035
G1 X121.66 Y90.237 E4.5623
G1 X121.86 Y90.237 F1575
G1 X122.34 Y89.757 F4800
G92 E0
G1 X122.34 Y157.757 E1.5349 F1050
G1 X122.365 Y157.757 E1.5355
G1 X122.365 Y160.277 E1.5924
G1 X97.845 Y160.277 E2.1459
G1 X97.845 Y157.277 E2.2136
G1 X97.82 Y157.277 E2.2141
G1 X97.82 Y89.757 E3.7383
G1 X122.14 Y89.757 E4.2872
G1 X122.34 Y89.757 F1050
G1 X121.21 Y94.389 F4800
G92 E0
G1 X121.452 Y94.389 E0.0055 F1680
G1 X121.452 Y94.147 E0.0109
G1 X121.21 Y94.389 E0.0186
G1 X120.531 Y94.389 E0.034
G1 X121.452 Y93.468 E0.0634
G1 X121.452 Y92.789 E0.0787
G1 X119.853 Y94.389 E0.1297
G1 X119.174 Y94.389 E0.1451
G1 X121.452 Y92.11 E0.2178
G1 X121.452 Y91.432 E0.2331
G1 X118.495 Y94.389 E0.3275
G1 X117.816 Y94.389 E0.3428
G1 X121.452 Y90.753 E0.4589
G1 X121.452 Y90.645 E0.4613
G1 X120.881 Y90.645 E0.4742
G1 X98.708 Y112.818 E1.1821
G1 X98.708 Y112.139 E1.1974
G1 X120.203 Y90.645 E1.8835
G1 X119.524 Y90.645 E1.8989
G1 X98.708 Y111.46 E2.5633
G1 X98.708 Y110.782 E2.5787
G1 X118.845 Y90.645 E3.2215
G1 X118.166 Y90.645 E3.2368
G1 X98.708 Y110.103 E3.858
G1 X98.708 Y109.424 E3.8733
G1 X117.487 Y90.645 E4.4728
G1 X116.808 Y90.645 E4.4881
G1 X98.708 Y108.745 E5.0659
G1 X98.708 Y108.066 E5.0812
G1 X102.13 Y104.645 E5.1904
G1 X102.708 Y104.645 E5.2035
G1 X102.708 Y104.066 E5.2165
G1 X116.13 Y90.645 E5.645
G1 X115.451 Y90.645 E5.6603
G1 X102.708 Y103.387 E6.0671
G1 X102.708 Y102.709 E6.0824
G1 X114.772 Y90.645 E6.4675
G1 X114.093 Y90.645 E6.4828
G1 X102.708 Y102.03 E6.8463
G1 X102.708 Y101.351 E6.8616
G1 X113.414 Y90.645 E7.2034
G1 X112.735 Y90.645 E7.2187
G1 X102.708 Y100.672 E7.5388
G1 X102.708 Y99.993 E7.5541
G1 X112.057 Y90.645 E7.8525
G1 X111.378 Y90.645 E7.8679
G1 X102.708 Y99.315 E8.1446
G1 X102.708 Y98.636 E8.1599
G1 X110.699 Y90.645 E8.415
G1 X110.02 Y90.645 E8.4304
G1 X102.708 Y97.957 E8.6638
G1 X102.708 Y97.278 E8.6791
G1 X109.341 Y90.645 E8.8908
G1 X108.663 Y90.645 E8.9062
G1 X102.708 Y96.599 E9.0962
G1 X102.708 Y95.92 E9.1116
G1 X107.984 Y90.645 E9.28
G1 X107.305 Y90.645 E9.2953
G1 X102.708 Y95.242 E9.442
G1 X102.708 Y94.563 E9.4574
G1 X106.626 Y90.645 E9.5824
G1 X105.947 Y90.645 E9.5978
G1 X102.203 Y94.389 E9.7173
G1 X101.524 Y94.389 E9.7326
G1 X105.268 Y90.645 E9.8521
G1 X104.59 Y90.645 E9.8674
G1 X100.846 Y94.389 E9.987
G1 X100.167 Y94.389 E10.0023
G1 X103.911 Y90.645 E10.1218
G1 X103.232 Y90.645 E10.1371
G1 X99.488 Y94.389 E10.2566
G1 X98.809 Y94.389 E10.272
G1 X102.553 Y90.645 E10.3915
G1 X101.874 Y90.645 E10.4068
G1 X98.708 Y93.811 E10.5079
G1 X98.708 Y93.132 E10.5232
G1 X101.195 Y90.645 E10.6026
G1 X100.517 Y90.645 E10.6179
G1 X98.708 Y92.453 E10.6757
G1 X98.708 Y91.775 E10.691
G1 X99.838 Y90.645 E10.727
G1 X99.159 Y90.645 E10.7424
G1 X98.849 Y90.954 E10.7522
G1 X98.708 Y91.096 F1680
G92 E0
G1 E-4 F6000
G1 X98.708 Y104.672 F4800
G1 E0 F6000
G92 E0
G1 X98.735 Y104.645 E0.0009 F1680
G1 X99.414 Y104.645 E0.0162
G1 X98.708 Y105.351 E0.0387
G1 X98.708 Y106.03 E0.0541
G1 X100.093 Y104.645 E0.0983
G1 X100.772 Y104.645 E0.1136
G1 X98.708 Y106.709 E0.1795
G1 X98.708 Y107.387 E0.1948
G1 X101.451 Y104.645 E0.2823
G1 X101.93 Y104.645 E0.2932
G1 X102.13 Y104.645 F1680
G1 X98.708 Y113.497 F4800
G92 E0
G1 X117.452 Y94.753 E0.5984 F1680
G1 X117.452 Y95.432 E0.6137
G1 X98.708 Y114.176 E1.212
G1 X98.708 Y114.854 E1.2274
G1 X117.452 Y96.11 E1.8257
G1 X117.452 Y96.789 E1.841
G1 X98.708 Y115.533 E2.4394
G1 X98.708 Y116.212 E2.4547
G1 X117.452 Y97.468 E3.0531
G1 X117.452 Y98.147 E3.0684
G1 X98.708 Y116.891 E3.6668
G1 X98.708 Y117.57 E3.6821
G1 X117.36 Y98.918 E4.2775
G1 X117.332 Y99.145 E4.2826
G1 X117.332 Y99.455 E4.2896
G1 X117.35 Y99.607 E4.2931
G1 X98.708 Y118.249 E4.8882
G1 X98.708 Y118.927 E4.9035
G1 X117.452 Y100.183 E5.5019
G1 X117.452 Y100.862 E5.5172
G1 X98.708 Y119.606 E6.1155
G1 X98.708 Y120.285 E6.1309
G1 X117.452 Y101.541 E6.7292
G1 X117.452 Y102.22 E6.7445
G1 X98.708 Y120.964 E7.3429
G1 X98.708 Y121.643 E7.3582
G1 X117.452 Y102.899 E7.9566
G1 X117.452 Y103.578 E7.9719
G1 X98.708 Y122.322 E8.5703
G1 X98.708 Y123 E8.5856
G1 X117.452 Y104.256 E9.1839
G1 X117.452 Y104.645 E9.1927
G1 X117.742 Y104.645 E9.1993
G1 X98.708 Y123.679 E9.8069
G1 X98.708 Y124.358 E9.8222
G1 X118.421 Y104.645 E10.4515
G1 X119.1 Y104.645 E10.4668
G1 X98.708 Y125.037 E11.1178
G1 X98.708 Y125.716 E11.1331
G1 X119.779 Y104.645 E11.8057
G1 X120.458 Y104.645 E11.8211
G1 X98.708 Y126.394 E12.5154
G1 X98.708 Y127.073 E12.5307
G1 X121.137 Y104.645 E13.2467
G1 X121.452 Y104.645 E13.2538
G1 X121.452 Y105.008 E13.262
G1 X98.708 Y127.752 E13.988
G1 X98.708 Y128.431 E14.0034
G1 X121.452 Y105.687 E14.7294
G1 X121.452 Y106.366 E14.7447
G1 X98.708 Y129.11 E15.4708
G1 X98.708 Y129.789 E15.4861
G1 X121.452 Y107.045 E16.2121
G1 X121.452 Y107.723 E16.2275
G1 X98.708 Y130.467 E16.9535
G1 X98.708 Y131.146 E16.9688
G1 X121.452 Y108.402 E17.6949
G1 X121.452 Y109.081 E17.7102
G1 X98.708 Y131.825 E18.4363
G1 X98.708 Y132.504 E18.4516
G1 X121.452 Y109.76 E19.1776
G1 X121.452 Y110.439 E19.1929
G1 X98.708 Y133.183 E19.919
G1 X98.708 Y133.862 E19.9343
G1 X121.452 Y111.118 E20.6604
G1 X121.452 Y111.796 E20.6757
G1 X98.708 Y134.54 E21.4017
G1 X98.708 Y135.219 E21.4171
G1 X121.452 Y112.475 E22.1431
G1 X121.452 Y113.154 E22.1584
G1 X98.708 Y135.898 E22.8845
G1 X98.708 Y136.577 E22.8998
G1 X121.452 Y113.833 E23.6258
