; G-Code generated by Simplify3D(TM) Version 2.2.0
; Jan 4, 2015 at 4:45:43 PM
; Settings Summary
;   processName,Nylon_Experimental
;   applyToModels,Motor_Housing
;   profileLabel,-- Select Printer Profile --
;   printMaterial,Nylon
;   printQuality,High
;   extruderName,Extruder 1
;   extruderToolheadNumber,0
;   extruderDiameter,0.4
;   extruderAutoWidth,0
;   extruderWidth,0.48
;   extrusionMultiplier,1
;   extruderUseRetract,1
;   extruderRetractionDistance,4
;   extruderExtraRestartDistance,0
;   extruderRetractionZLift,0
;   extruderRetractionSpeed,3000
;   extruderUseCoasting,1
;   extruderCoastingDistance,0.4
;   extruderUseWipe,1
;   extruderWipeDistance,5
;   primaryExtruder,0
;   layerHeight,0.2
;   topSolidLayers,3
;   bottomSolidLayers,3
;   perimeterOutlines,2
;   printPerimetersInsideOut,1
;   startPointOption,2
;   startPointOriginX,0
;   startPointOriginY,0
;   startPointOriginZ,300
;   sequentialIslands,0
;   spiralVaseMode,0
;   firstLayerHeightPercentage,100
;   firstLayerWidthPercentage,110
;   firstLayerUnderspeed,0.5
;   useRaft,1
;   raftExtruder,0
;   raftLayers,3
;   raftOffset,3
;   raftSeparationDistance,0.25
;   raftInfill,40
;   disableRaftBaseLayers,0
;   useSkirt,1
;   skirtExtruder,0
;   skirtLayers,1
;   skirtOutlines,4
;   skirtOffset,10
;   infillExtruder,0
;   externalInfillPattern,Rectilinear
;   infillPercentage,20
;   outlineOverlapPercentage,15
;   infillExtrusionWidthPercentage,100
;   minInfillLength,5
;   infillLayerInterval,1
;   randomInfillStartPoint,0
;   infillAngles,45,-45
;   generateSupport,0
;   supportExtruder,0
;   supportInfill,40
;   supportExtraInflation,0
;   denseSupportLayers,0
;   denseSupportInfill,70
;   supportLayerInterval,1
;   supportHorizontalPartOffset,0.3
;   supportUpperSeparationLayers,1
;   supportLowerSeparationLayers,1
;   supportGridSpacing,4
;   maxOverhangAngle,45
;   supportAngles,0
;   temperatureName,Extruder 1 Temperature,Heated Bed
;   temperatureNumber,0,0
;   temperatureSetpointCount,1,1
;   temperatureSetpointLayers,1,1
;   temperatureSetpointTemperatures,245,58
;   temperatureStabilizeAtStartup,1,1
;   temperatureHeatedBed,0,1
;   temperatureRelayBetweenLayers,0,0
;   temperatureRelayBetweenLoops,0,0
;   fanLayers,1
;   fanSpeeds,0
;   blipFanToFullPower,0
;   adjustSpeedForCooling,1
;   minSpeedLayerTime,15
;   minCoolingSpeedSlowdown,20
;   increaseFanForCooling,0
;   minFanLayerTime,45
;   maxCoolingFanSpeed,100
;   increaseFanForBridging,0
;   bridgingFanSpeed,100
;   use5D,1
;   relativeEdistances,0
;   allowEaxisZeroing,1
;   independentExtruderAxes,0
;   includeM10123,0
;   stickySupport,1
;   detectArcs,0
;   arcReplaceG2G3,0
;   arcRadialCompensation,1
;   gcodeXoffset,0
;   gcodeYoffset,0
;   gcodeZoffset,0
;   overrideMachineDefinition,0
;   machineTypeOverride,0
;   strokeXoverride,250
;   strokeYoverride,250
;   strokeZoverride,250
;   originOffsetXoverride,0
;   originOffsetYoverride,0
;   originOffsetZoverride,0
;   homeXdirOverride,-1
;   homeYdirOverride,-1
;   homeZdirOverride,-1
;   flipXoverride,1
;   flipYoverride,-1
;   flipZoverride,1
;   startingGcode,G28 ; home all axes
;   layerChangeGcode,
;   toolChangeGcode,
;   endingGcode,M104 S0 ; turn off extruder,M140 S0 ; turn off bed,M84 ; disable motors,G28 ; home all axes
;   createX3G,0
;   celebration,0
;   celebrationSong,Random Song
;   createMB5G,0
;   postProcessing,
;   defaultSpeed,6000
;   outlineUnderspeed,0.25
;   solidInfillUnderspeed,0.7
;   supportUnderspeed,0.8
;   rapidXYspeed,10000
;   rapidZspeed,1000
;   minBridgingArea,50
;   bridgingExtrusionMultiplier,1
;   bridgingSpeedMultiplier,1
;   filamentDiameter,2.9
;   filamentPricePerKg,46
;   useMinPrintHeight,0
;   minPrintHeight,0
;   useMaxPrintHeight,0
;   maxPrintHeight,0
;   useDiaphragm,0
;   diaphragmLayerInterval,20
;   robustSlicing,1
;   mergeAllIntoSolid,0
;   onlyRetractWhenCrossingOutline,1
;   retractBetweenLayers,1
;   useRetractionMinTravel,0
;   retractionMinTravel,3
;   useRetractionOozeRate,0
;   retractionOozeRate,100
;   onlyWipeOutlines,1
;   toolChangeRetractionDistance,12
;   toolChangeExtraRestartDistance,-0.5
;   toolChangeRetractionSpeed,600
;   allowThinWallGapFill,1
;   thinWallAllowedOverlapPercentage,10
G90
M82
M106 S0
M140 S58
M190 S58
M104 S245 T0
M109 S245 T0
G28 ; home all axes
G92 E0
G1 E-4 F3000
; layer 1, Z = 0.5
T0
; tool H0.5 W0.528
G1 X82.798 Y80.71 F10000
G1 Z0.5 F1000
G1 E0 F900
G92 E0
G1 X88.774 Y74.734 E0.3378 F3000
G1 X89.049 Y74.55 E0.351
G1 X93.03 Y72.901 E0.5232
G1 X93.354 Y72.837 E0.5365
G1 X122.525 Y72.837 E1.7024
G1 X122.694 Y72.803 E1.7093
G1 X137.646 Y72.803 E2.3069
G1 X137.97 Y72.868 E2.3201
G1 X139.67 Y73.572 E2.3936
G1 X141.37 Y72.868 E2.4671
G1 X141.694 Y72.803 E2.4804
G1 X156.646 Y72.803 E3.078
G1 X156.97 Y72.868 E3.0912
G1 X160.951 Y74.517 E3.2634
G1 X161.226 Y74.701 E3.2766
G1 X167.202 Y80.677 E3.6144
G1 X167.386 Y80.952 E3.6277
G1 X169.035 Y84.933 E3.7999
G1 X169.1 Y85.257 E3.8131
G1 X169.1 Y111.733 E4.8713
G1 X169.035 Y112.057 E4.8845
G1 X167.386 Y116.038 E5.0567
G1 X167.202 Y116.314 E5.07
G1 X165.633 Y117.883 E5.1587
G1 X165.633 Y123.709 E5.3915
G1 X165.569 Y124.033 E5.4048
G1 X163.92 Y128.015 E5.577
G1 X163.736 Y128.29 E5.5902
G1 X157.76 Y134.266 E5.928
G1 X157.485 Y134.45 E5.9412
G1 X153.504 Y136.099 E6.1135
G1 X153.179 Y136.163 E6.1267
G1 X141.694 Y136.163 E6.5857
G1 X141.37 Y136.099 E6.5989
G1 X139.67 Y135.395 E6.6725
G1 X139.26 Y135.564 E6.6902
G1 X139.26 Y153.166 E7.3937
G1 X139.285 Y153.291 E7.3988
G1 X139.285 Y164.743 E7.8565
G1 X139.22 Y165.067 E7.8697
G1 X137.571 Y169.048 E8.042
G1 X137.388 Y169.323 E8.0552
G1 X131.412 Y175.299 E8.393
G1 X131.136 Y175.483 E8.4062
G1 X127.155 Y177.132 E8.5784
G1 X126.831 Y177.197 E8.5917
G1 X93.379 Y177.197 E9.9287
G1 X93.055 Y177.132 E9.9419
G1 X89.074 Y175.483 E10.1141
G1 X88.799 Y175.299 E10.1274
G1 X82.823 Y169.323 E10.4651
G1 X82.639 Y169.048 E10.4784
G1 X80.99 Y165.067 E10.6506
G1 X80.925 Y164.743 E10.6638
G1 X80.925 Y161.868 E10.7787
G1 X80.9 Y161.743 E10.7838
G1 X80.9 Y85.291 E13.8395
G1 X80.965 Y84.967 E13.8527
G1 X82.587 Y81.049 E14.0222
G1 X82.614 Y80.985 F3000
G1 X82.798 Y80.71 F3000
G1 X83.17 Y81.016 F10000
G92 E0
G1 X89.08 Y75.107 E0.334 F3000
G1 X89.276 Y74.976 E0.3435
G1 X93.17 Y73.363 E0.5119
G1 X93.402 Y73.317 E0.5214
G1 X122.572 Y73.317 E1.6872
G1 X122.741 Y73.283 E1.6942
G1 X137.598 Y73.283 E2.288
G1 X137.83 Y73.329 E2.2974
G1 X139.67 Y74.091 E2.377
G1 X141.51 Y73.329 E2.4566
G1 X141.741 Y73.283 E2.466
G1 X156.598 Y73.283 E3.0598
G1 X156.83 Y73.329 E3.0693
G1 X160.724 Y74.942 E3.2377
G1 X160.92 Y75.073 E3.2472
G1 X166.83 Y80.983 E3.5812
G1 X166.961 Y81.179 E3.5906
G1 X168.574 Y85.073 E3.7591
G1 X168.62 Y85.305 E3.7685
G1 X168.62 Y111.685 E4.8229
G1 X168.574 Y111.917 E4.8324
G1 X166.961 Y115.811 E5.0008
G1 X166.83 Y116.008 E5.0103
G1 X165.153 Y117.684 E5.105
G1 X165.153 Y123.662 E5.344
G1 X165.107 Y123.893 E5.3534
G1 X163.494 Y127.787 E5.5219
G1 X163.363 Y127.984 E5.5313
G1 X157.454 Y133.893 E5.8653
G1 X157.257 Y134.024 E5.8748
G1 X153.364 Y135.637 E6.0432
G1 X153.132 Y135.683 E6.0527
G1 X141.741 Y135.683 E6.5079
G1 X141.51 Y135.637 E6.5174
G1 X139.67 Y134.875 E6.5969
G1 X138.78 Y135.243 E6.6354
G1 X138.78 Y153.213 E7.3537
G1 X138.805 Y153.338 E7.3588
G1 X138.805 Y164.695 E7.8127
G1 X138.759 Y164.927 E7.8221
G1 X137.146 Y168.821 E7.9906
G1 X137.015 Y169.017 E8
G1 X131.106 Y174.927 E8.334
G1 X130.909 Y175.058 E8.3435
G1 X127.015 Y176.671 E8.5119
G1 X126.783 Y176.717 E8.5214
G1 X93.427 Y176.717 E9.8546
G1 X93.195 Y176.671 E9.864
G1 X89.301 Y175.058 E10.0325
G1 X89.104 Y174.927 E10.0419
G1 X83.195 Y169.017 E10.376
G1 X83.064 Y168.821 E10.3854
G1 X81.451 Y164.927 E10.5539
G1 X81.405 Y164.695 E10.5633
G1 X81.405 Y161.82 E10.6782
G1 X81.38 Y161.695 E10.6833
G1 X81.38 Y85.338 E13.7352
G1 X81.426 Y85.107 E13.7446
G1 X82.977 Y81.364 E13.9065
G1 X83.039 Y81.213 F3000
G1 X83.17 Y81.016 F3000
G1 X83.543 Y81.322 F10000
G92 E0
G1 X89.386 Y75.48 E0.3302 F3000
G1 X89.503 Y75.401 E0.3359
G1 X93.31 Y73.825 E0.5006
G1 X93.449 Y73.797 E0.5062
G1 X122.635 Y73.797 E1.6728
G1 X122.65 Y73.791 E1.6734
G1 X122.789 Y73.763 E1.6791
G1 X137.551 Y73.763 E2.2691
G1 X137.69 Y73.791 E2.2748
G1 X139.67 Y74.611 E2.3604
G1 X141.65 Y73.791 E2.4461
G1 X141.789 Y73.763 E2.4517
G1 X156.551 Y73.763 E3.0417
G1 X156.69 Y73.791 E3.0474
G1 X160.497 Y75.367 E3.2121
G1 X160.614 Y75.446 E3.2178
G1 X166.457 Y81.289 E3.548
G1 X166.536 Y81.406 E3.5537
G1 X168.112 Y85.213 E3.7183
G1 X168.14 Y85.352 E3.724
G1 X168.14 Y111.638 E4.7746
G1 X168.112 Y111.777 E4.7803
G1 X166.536 Y115.584 E4.9449
G1 X166.457 Y115.702 E4.9506
G1 X164.673 Y117.485 E5.0514
G1 X164.673 Y123.614 E5.2964
G1 X164.646 Y123.753 E5.3021
G1 X163.069 Y127.56 E5.4667
G1 X162.99 Y127.678 E5.4724
G1 X157.148 Y133.52 E5.8026
G1 X157.03 Y133.599 E5.8083
G1 X153.224 Y135.175 E5.973
G1 X153.084 Y135.203 E5.9787
G1 X141.789 Y135.203 E6.4301
G1 X141.65 Y135.175 E6.4358
G1 X139.67 Y134.355 E6.5214
G1 X138.3 Y134.923 E6.5807
G1 X138.3 Y153.261 E7.3136
G1 X138.325 Y153.386 E7.3187
G1 X138.325 Y164.648 E7.7689
G1 X138.297 Y164.787 E7.7745
G1 X136.721 Y168.594 E7.9392
G1 X136.642 Y168.711 E7.9449
G1 X130.8 Y174.554 E8.2751
G1 X130.682 Y174.632 E8.2808
G1 X126.875 Y176.209 E8.4454
G1 X126.736 Y176.237 E8.4511
G1 X93.474 Y176.237 E9.7806
G1 X93.335 Y176.209 E9.7862
G1 X89.528 Y174.632 E9.9509
G1 X89.41 Y174.554 E9.9566
G1 X83.568 Y168.711 E10.2868
G1 X83.489 Y168.594 E10.2925
G1 X81.913 Y164.787 E10.4571
G1 X81.885 Y164.648 E10.4628
G1 X81.885 Y161.773 E10.5777
G1 X81.86 Y161.648 E10.5828
G1 X81.86 Y85.386 E13.6309
G1 X81.888 Y85.247 E13.6366
G1 X83.366 Y81.679 E13.7909
G1 X83.465 Y81.44 F3000
G1 X83.543 Y81.322 F3000
G1 X83.916 Y81.628 F10000
G92 E0
G1 X89.692 Y75.853 E0.3264 F3000
G1 X89.731 Y75.827 E0.3283
G1 X93.45 Y74.286 E0.4892
G1 X93.496 Y74.277 E0.4911
G1 X122.731 Y74.277 E1.6596
G1 X122.79 Y74.252 E1.6621
G1 X122.836 Y74.243 E1.664
G1 X137.504 Y74.243 E2.2503
G1 X137.55 Y74.252 E2.2522
G1 X139.67 Y75.13 E2.3439
G1 X141.79 Y74.252 E2.4356
G1 X141.836 Y74.243 E2.4375
G1 X156.504 Y74.243 E3.0237
G1 X156.55 Y74.252 E3.0256
G1 X160.269 Y75.793 E3.1865
G1 X160.308 Y75.819 E3.1884
G1 X166.084 Y81.595 E3.5148
G1 X166.11 Y81.634 E3.5167
G1 X167.651 Y85.353 E3.6776
G1 X167.66 Y85.399 E3.6795
G1 X167.66 Y111.591 E4.7263
G1 X167.651 Y111.637 E4.7282
G1 X166.11 Y115.356 E4.8891
G1 X166.084 Y115.396 E4.891
G1 X164.193 Y117.286 E4.9979
G1 X164.193 Y123.567 E5.2489
G1 X164.184 Y123.613 E5.2508
G1 X162.644 Y127.332 E5.4117
G1 X162.617 Y127.372 E5.4136
G1 X156.842 Y133.147 E5.74
G1 X156.803 Y133.173 E5.7419
G1 X153.084 Y134.714 E5.9028
G1 X153.037 Y134.723 E5.9047
G1 X141.836 Y134.723 E6.3524
G1 X141.79 Y134.714 E6.3543
G1 X139.67 Y133.836 E6.446
G1 X137.82 Y134.602 E6.526
G1 X137.82 Y153.349 E7.2753
G1 X137.836 Y153.387 E7.2769
G1 X137.845 Y153.433 E7.2788
G1 X137.845 Y164.601 E7.7252
G1 X137.836 Y164.647 E7.7271
G1 X136.295 Y168.366 E7.888
G1 X136.269 Y168.405 E7.8898
G1 X130.494 Y174.181 E8.2163
G1 X130.454 Y174.207 E8.2182
G1 X126.735 Y175.748 E8.3791
G1 X126.689 Y175.757 E8.381
G1 X93.521 Y175.757 E9.7066
G1 X93.475 Y175.748 E9.7085
G1 X89.756 Y174.207 E9.8694
G1 X89.716 Y174.181 E9.8713
G1 X83.941 Y168.405 E10.1977
G1 X83.915 Y168.366 E10.1996
G1 X82.374 Y164.647 E10.3605
G1 X82.365 Y164.601 E10.3624
G1 X82.365 Y161.685 E10.479
G1 X82.349 Y161.647 E10.4806
G1 X82.34 Y161.601 E10.4825
G1 X82.34 Y85.433 E13.5268
G1 X82.349 Y85.387 E13.5287
G1 X83.755 Y81.993 E13.6755
G1 X83.89 Y81.668 F3000
G1 X83.916 Y81.628 F3000
; tool H0.5 W0.88
G1 X92.98 Y87.611 F10000
G92 E0
G1 X95.675 Y84.917 E0.2539 F750
G1 X124.486 Y84.917 E2.1731
G1 X124.733 Y85.164 E2.1964
G1 X125.014 Y84.883 E2.2229
G1 X135.325 Y84.883 E2.9097
G1 X138.02 Y87.578 E3.1636
G1 X138.02 Y121.389 E5.4159
G1 X135.325 Y124.083 E5.6697
G1 X128.481 Y124.083 E6.1256
G1 X127.18 Y122.782 E6.2482
G1 X127.18 Y155.587 E8.4334
G1 X127.205 Y155.611 E8.4358
G1 X127.205 Y162.422 E8.8895
G1 X124.51 Y165.117 E9.1433
G1 X95.7 Y165.117 E11.0625
G1 X93.005 Y162.422 E11.3164
G1 X93.005 Y159.447 E11.5146
G1 X92.98 Y159.422 E11.5169
G1 X92.98 Y88.011 E16.2739
G1 X92.98 Y87.611 F750
G1 X95.675 Y84.917 F750
G1 X96.864 Y84.917 F750
G1 X141.32 Y87.578 F10000
G92 E0
G1 X144.014 Y84.883 E0.2539 F750
G1 X154.325 Y84.883 E0.9407
G1 X157.02 Y87.578 E1.1945
G1 X157.02 Y109.412 E2.649
G1 X154.325 Y112.107 E2.9029
G1 X153.553 Y112.107 E2.9543
G1 X153.553 Y121.389 E3.5726
G1 X150.859 Y124.083 E3.8264
G1 X144.014 Y124.083 E4.2824
G1 X141.32 Y121.389 E4.5362
G1 X141.32 Y87.978 E6.7619
G1 X141.32 Y87.578 F750
G1 X144.014 Y84.883 F750
G1 X145.204 Y84.883 F750
G1 X142.546 Y87.483 F10000
G92 E0
G1 X155.794 Y87.483 E0.8825 F750
G1 X156.22 Y87.909 E0.9226
G1 X156.22 Y89.769 E1.0465
G1 X142.12 Y89.769 E1.9858
G1 X142.12 Y92.055 E2.138
G1 X156.22 Y92.055 E3.0773
G1 X156.22 Y94.34 E3.2296
G1 X142.12 Y94.34 E4.1688
G1 X142.12 Y96.626 E4.3211
G1 X156.22 Y96.626 E5.2603
G1 X156.22 Y98.912 E5.4126
G1 X142.12 Y98.912 E6.3519
G1 X142.12 Y101.197 E6.5041
G1 X156.22 Y101.197 E7.4434
G1 X156.22 Y103.483 E7.5956
G1 X142.12 Y103.483 E8.5349
G1 X142.12 Y105.769 E8.6872
G1 X156.22 Y105.769 E9.6264
G1 X156.22 Y108.055 E9.7787
G1 X142.12 Y108.055 E10.718
G1 X142.12 Y110.34 E10.8702
G1 X154.961 Y110.34 E11.7256
G1 X153.994 Y111.307 E11.8167
G1 X152.753 Y111.307 E11.8993
G1 X152.753 Y112.626 E11.9872
G1 X142.12 Y112.626 E12.6955
G1 X142.12 Y114.912 E12.8478
G1 X152.753 Y114.912 E13.5561
G1 X152.753 Y117.197 E13.7084
G1 X142.12 Y117.197 E14.4167
G1 X142.12 Y119.483 E14.569
G1 X152.753 Y119.483 E15.2773
G1 X152.753 Y121.057 E15.3822
G1 X152.042 Y121.769 E15.4492
G1 X142.832 Y121.769 E16.0627
G1 X144.346 Y123.283 E16.2054
G1 X150.527 Y123.283 E16.6172
G1 X151.759 Y122.052 E16.7332
G1 X152.042 Y121.769 F750
G1 X136.508 Y121.769 F10000
G92 E0
G1 X134.994 Y123.283 E0.1427 F750
G1 X128.812 Y123.283 E0.5544
G1 X127.298 Y121.769 E0.6971
G1 X136.508 Y121.769 E1.3106
G1 X137.22 Y121.057 E1.3776
G1 X137.22 Y119.483 E1.4825
G1 X93.78 Y119.483 E4.3762
G1 X93.78 Y117.197 E4.5285
G1 X137.22 Y117.197 E7.4222
G1 X137.22 Y114.912 E7.5744
G1 X93.78 Y114.912 E10.4681
G1 X93.78 Y112.626 E10.6204
G1 X137.22 Y112.626 E13.5141
G1 X137.22 Y110.34 E13.6663
G1 X93.78 Y110.34 E16.56
G1 X93.78 Y108.055 E16.7123
G1 X137.22 Y108.055 E19.606
G1 X137.22 Y105.769 E19.7583
G1 X93.78 Y105.769 E22.652
G1 X93.78 Y103.483 E22.8042
G1 X137.22 Y103.483 E25.6979
G1 X137.22 Y101.197 E25.8502
G1 X93.78 Y101.197 E28.7439
G1 X93.78 Y98.912 E28.8962
G1 X137.22 Y98.912 E31.7899
G1 X137.22 Y96.626 E31.9421
G1 X93.78 Y96.626 E34.8358
G1 X93.78 Y94.34 E34.9881
G1 X137.22 Y94.34 E37.8818
G1 X137.22 Y92.055 E38.034
G1 X93.78 Y92.055 E40.9277
G1 X93.78 Y89.769 E41.08
G1 X137.22 Y89.769 E43.9737
G1 X137.22 Y87.909 E44.0976
G1 X136.794 Y87.483 E44.1377
G1 X94.64 Y87.483 E46.9458
G1 X94.24 Y87.483 F750
G1 X93.78 Y121.769 F10000
G92 E0
G1 X126.38 Y121.769 E2.1716 F750
G1 X126.38 Y124.055 E2.3239
G1 X93.78 Y124.055 E4.4955
G1 X93.78 Y126.34 E4.6478
G1 X126.38 Y126.34 E6.8194
G1 X126.38 Y128.626 E6.9717
G1 X93.78 Y128.626 E9.1433
G1 X93.78 Y130.912 E9.2955
G1 X126.38 Y130.912 E11.4672
G1 X126.38 Y133.197 E11.6194
G1 X93.78 Y133.197 E13.791
G1 X93.78 Y135.483 E13.9433
G1 X126.38 Y135.483 E16.1149
G1 X126.38 Y137.769 E16.2672
G1 X93.78 Y137.769 E18.4388
G1 X93.78 Y140.055 E18.5911
G1 X126.38 Y140.055 E20.7627
G1 X126.38 Y142.34 E20.915
G1 X93.78 Y142.34 E23.0866
G1 X93.78 Y144.626 E23.2388
G1 X126.38 Y144.626 E25.4105
G1 X126.38 Y146.912 E25.5627
G1 X93.78 Y146.912 E27.7343
G1 X93.78 Y149.197 E27.8866
G1 X126.38 Y149.197 E30.0582
G1 X126.38 Y151.483 E30.2105
G1 X93.78 Y151.483 E32.3821
G1 X93.78 Y153.769 E32.5344
G1 X126.38 Y153.769 E34.706
G1 X126.38 Y155.918 E34.8492
G1 X126.405 Y155.943 E34.8515
G1 X126.405 Y156.055 E34.8589
G1 X93.78 Y156.055 E37.0322
G1 X93.78 Y158.34 E37.1845
G1 X126.405 Y158.34 E39.3578
G1 X126.405 Y160.626 E39.51
G1 X93.805 Y160.626 E41.6817
G1 X93.805 Y162.091 E41.7792
G1 X94.626 Y162.912 E41.8566
G1 X125.584 Y162.912 E43.9188
G1 X124.179 Y164.317 E44.0512
G1 X96.031 Y164.317 E45.9263
