; G-Code generated by Simplify3D(TM) Version 2.2.0
; Jan 28, 2015 at 4:31:20 PM
; Settings Summary
;   processName,PLA_Haul_Ass
;   applyToModels,lead_Screw,lead_Screw_nut,lead_Screw(2),lead_Screw(3)
;   profileLabel,-- Select Printer Profile --
;   printMaterial,PLA
;   printQuality,Fast
;   extruderName,Extruder 1
;   extruderToolheadNumber,0
;   extruderDiameter,0.4
;   extruderAutoWidth,1
;   extruderWidth,0.48
;   extrusionMultiplier,0.9
;   extruderUseRetract,1
;   extruderRetractionDistance,4
;   extruderExtraRestartDistance,0
;   extruderRetractionZLift,0
;   extruderRetractionSpeed,6000
;   extruderUseCoasting,0
;   extruderCoastingDistance,0.2
;   extruderUseWipe,0
;   extruderWipeDistance,5
;   primaryExtruder,0
;   layerHeight,0.3
;   topSolidLayers,3
;   bottomSolidLayers,3
;   perimeterOutlines,2
;   printPerimetersInsideOut,1
;   startPointOption,2
;   startPointOriginX,0
;   startPointOriginY,0
;   startPointOriginZ,300
;   sequentialIslands,0
;   spiralVaseMode,0
;   firstLayerHeightPercentage,150
;   firstLayerWidthPercentage,100
;   firstLayerUnderspeed,0.5
;   useRaft,0
;   raftExtruder,0
;   raftLayers,3
;   raftOffset,3
;   raftSeparationDistance,0.14
;   raftInfill,85
;   disableRaftBaseLayers,0
;   useSkirt,1
;   skirtExtruder,0
;   skirtLayers,1
;   skirtOutlines,4
;   skirtOffset,6
;   infillExtruder,0
;   externalInfillPattern,Rectilinear
;   infillPercentage,15
;   outlineOverlapPercentage,15
;   infillExtrusionWidthPercentage,100
;   minInfillLength,5
;   infillLayerInterval,1
;   randomInfillStartPoint,0
;   infillAngles,45,-45
;   generateSupport,1
;   supportExtruder,0
;   supportInfill,25
;   supportExtraInflation,0
;   denseSupportLayers,0
;   denseSupportInfill,70
;   supportLayerInterval,1
;   supportHorizontalPartOffset,0.5
;   supportUpperSeparationLayers,2
;   supportLowerSeparationLayers,1
;   supportGridSpacing,4.5
;   maxOverhangAngle,45
;   supportAngles,0
;   temperatureName,Extruder 1 Temperature,Heated Bed
;   temperatureNumber,0,0
;   temperatureSetpointCount,1,1
;   temperatureSetpointLayers,1,1
;   temperatureSetpointTemperatures,190,60
;   temperatureStabilizeAtStartup,1,1
;   temperatureHeatedBed,0,1
;   temperatureRelayBetweenLayers,0,0
;   temperatureRelayBetweenLoops,0,0
;   fanLayers,1,2
;   fanSpeeds,0,100
;   blipFanToFullPower,0
;   adjustSpeedForCooling,1
;   minSpeedLayerTime,15
;   minCoolingSpeedSlowdown,20
;   increaseFanForCooling,0
;   minFanLayerTime,45
;   maxCoolingFanSpeed,100
;   increaseFanForBridging,0
;   bridgingFanSpeed,100
;   use5D,1
;   relativeEdistances,0
;   allowEaxisZeroing,1
;   independentExtruderAxes,0
;   includeM10123,0
;   stickySupport,1
;   detectArcs,0
;   arcReplaceG2G3,0
;   arcRadialCompensation,1
;   gcodeXoffset,0
;   gcodeYoffset,0
;   gcodeZoffset,0
;   overrideMachineDefinition,0
;   machineTypeOverride,0
;   strokeXoverride,250
;   strokeYoverride,250
;   strokeZoverride,250
;   originOffsetXoverride,0
;   originOffsetYoverride,0
;   originOffsetZoverride,0
;   homeXdirOverride,-1
;   homeYdirOverride,-1
;   homeZdirOverride,-1
;   flipXoverride,1
;   flipYoverride,-1
;   flipZoverride,1
;   startingGcode,G28 ; home all axes
;   layerChangeGcode,
;   toolChangeGcode,
;   endingGcode,M104 S0 ; turn off extruder,M140 S0 ; turn off bed,G28 ; home all axes,M84 ; disable motors
;   createX3G,0
;   celebration,0
;   celebrationSong,Random Song
;   createMB5G,0
;   postProcessing,
;   defaultSpeed,4200
;   outlineUnderspeed,0.7
;   solidInfillUnderspeed,0.8
;   supportUnderspeed,0.8
;   rapidXYspeed,6000
;   rapidZspeed,1500
;   minBridgingArea,50
;   bridgingExtrusionMultiplier,1
;   bridgingSpeedMultiplier,1
;   filamentDiameter,2.9
;   filamentPricePerKg,46
;   useMinPrintHeight,0
;   minPrintHeight,0
;   useMaxPrintHeight,0
;   maxPrintHeight,0
;   useDiaphragm,0
;   diaphragmLayerInterval,20
;   robustSlicing,1
;   mergeAllIntoSolid,0
;   onlyRetractWhenCrossingOutline,1
;   retractBetweenLayers,1
;   useRetractionMinTravel,0
;   retractionMinTravel,3
;   useRetractionOozeRate,0
;   retractionOozeRate,6000
;   onlyWipeOutlines,1
;   toolChangeRetractionDistance,12
;   toolChangeExtraRestartDistance,-0.5
;   toolChangeRetractionSpeed,600
;   allowThinWallGapFill,1
;   thinWallAllowedOverlapPercentage,10
G90
M82
M106 S0
M140 S60
M190 S60
M104 S190 T0
M109 S190 T0
G28 ; home all axes
G92 E0
G1 E-4 F6000
; layer 1, Z = 0.45
T0
; tool H0.45 W0.48
G1 X110.465 Y95.757 F6000
G1 Z0.45 F1500
G1 E0 F1800
G92 E0
G1 X110.778 Y95.444 E0.013 F2075
G1 X113.946 Y93.615 E0.1207
G1 X114.373 Y93.501 E0.1337
G1 X126.831 Y93.501 E0.5003
G1 X127.258 Y93.615 E0.5134
G1 X130.426 Y95.444 E0.621
G1 X130.738 Y95.757 E0.634
G1 X136.967 Y106.546 E1.0007
G1 X137.082 Y106.973 E1.0137
G1 X137.082 Y110.631 E1.1213
G1 X136.967 Y111.058 E1.1344
G1 X134.717 Y114.955 E1.2668
G1 X135.993 Y114.699 E1.3051
G1 X136.617 Y114.809 E1.3237
G1 X140.484 Y117.162 E1.457
G1 X140.513 Y117.181 E1.458
G1 X140.746 Y117.336 E1.4662
G1 X140.774 Y117.356 E1.4672
G1 X143.258 Y119.161 E1.5576
G1 X143.6 Y119.694 E1.5762
G1 X144.227 Y122.823 E1.6702
G1 X146.188 Y126.311 E1.7879
G1 X146.276 Y126.937 E1.8066
G1 X145.234 Y131.343 E1.9398
G1 X145.225 Y131.376 E1.9408
G1 X145.15 Y131.645 E1.949
G1 X145.14 Y131.678 E1.95
G1 X144.191 Y134.599 E2.0404
G1 X143.79 Y135.088 E2.059
G1 X141.008 Y136.652 E2.153
G1 X138.296 Y139.596 E2.2708
G1 X137.727 Y139.874 E2.2894
G1 X133.215 Y140.244 E2.4226
G1 X133.181 Y140.246 E2.4237
G1 X132.901 Y140.257 E2.4319
G1 X132.867 Y140.258 E2.4329
G1 X129.796 Y140.258 E2.5233
G1 X129.207 Y140.028 E2.5419
G1 X128.01 Y138.925 E2.5898
G1 X128.029 Y139.021 E2.5927
G1 X129.99 Y142.509 E2.7105
G1 X130.078 Y143.136 E2.7291
G1 X129.036 Y147.541 E2.8623
G1 X129.027 Y147.574 E2.8633
G1 X128.952 Y147.844 E2.8716
G1 X128.942 Y147.877 E2.8726
G1 X127.993 Y150.797 E2.963
G1 X127.592 Y151.287 E2.9816
G1 X124.81 Y152.85 E3.0755
G1 X122.097 Y155.795 E3.1933
G1 X121.529 Y156.072 E3.2119
G1 X117.017 Y156.442 E3.3452
G1 X116.983 Y156.444 E3.3462
G1 X116.703 Y156.456 E3.3544
G1 X116.669 Y156.456 E3.3554
G1 X113.598 Y156.456 E3.4458
G1 X113.009 Y156.226 E3.4644
G1 X110.66 Y154.063 E3.5584
G1 X107.024 Y152.393 E3.6762
G1 X106.584 Y151.938 E3.6948
G1 X104.838 Y147.762 E3.828
G1 X104.825 Y147.73 E3.829
G1 X104.728 Y147.467 E3.8373
G1 X104.717 Y147.435 E3.8383
G1 X103.768 Y144.514 E3.9287
G1 X103.804 Y143.883 E3.9473
G1 X105.136 Y140.982 E4.0412
G1 X105.599 Y137.008 E4.159
G1 X105.896 Y136.449 E4.1776
G1 X106.646 Y135.804 E4.2067
G1 X106.584 Y135.74 E4.2093
G1 X104.838 Y131.564 E4.3426
G1 X104.825 Y131.532 E4.3436
G1 X104.728 Y131.269 E4.3518
G1 X104.717 Y131.237 E4.3528
G1 X103.768 Y128.316 E4.4432
G1 X103.804 Y127.685 E4.4618
G1 X105.136 Y124.784 E4.5558
G1 X105.599 Y120.809 E4.6735
G1 X105.896 Y120.251 E4.6922
G1 X108.333 Y118.154 E4.7868
G1 X104.236 Y111.058 E5.0279
G1 X104.122 Y110.631 E5.041
G1 X104.122 Y106.973 E5.1486
G1 X104.236 Y106.546 E5.1616
G1 X110.465 Y95.757 E5.5283
G1 X110.849 Y96.052 F6000
G92 E0
G1 X111.073 Y95.828 E0.0093 F2075
G1 X114.131 Y94.063 E0.1132
G1 X114.436 Y93.981 E0.1225
G1 X126.767 Y93.981 E0.4855
G1 X127.073 Y94.063 E0.4948
G1 X130.131 Y95.828 E0.5987
G1 X130.354 Y96.052 E0.608
G1 X136.52 Y106.731 E0.9709
G1 X136.602 Y107.036 E0.9802
G1 X136.602 Y110.567 E1.0842
G1 X136.52 Y110.873 E1.0935
G1 X133.771 Y115.634 E1.2553
G1 X135.999 Y115.187 E1.3222
G1 X136.444 Y115.266 E1.3355
G1 X140.23 Y117.57 E1.4659
G1 X140.251 Y117.583 E1.4666
G1 X140.476 Y117.733 E1.4746
G1 X140.496 Y117.747 E1.4753
G1 X142.903 Y119.496 E1.5629
G1 X143.147 Y119.877 E1.5762
G1 X143.771 Y122.992 E1.6697
G1 X145.725 Y126.467 E1.787
G1 X145.788 Y126.915 E1.8003
G1 X144.768 Y131.227 E1.9307
G1 X144.762 Y131.251 E1.9315
G1 X144.689 Y131.511 E1.9394
G1 X144.682 Y131.535 E1.9401
G1 X143.762 Y134.364 E2.0277
G1 X143.476 Y134.714 E2.041
G1 X140.707 Y136.271 E2.1345
G1 X138.004 Y139.205 E2.2519
G1 X137.598 Y139.403 E2.2652
G1 X133.181 Y139.765 E2.3956
G1 X133.156 Y139.767 E2.3964
G1 X132.886 Y139.778 E2.4043
G1 X132.862 Y139.778 E2.405
G1 X129.887 Y139.778 E2.4926
G1 X129.466 Y139.614 E2.5059
G1 X127.249 Y137.571 E2.5946
G1 X127.573 Y139.19 E2.6432
G1 X129.527 Y142.666 E2.7606
G1 X129.59 Y143.113 E2.7739
G1 X128.57 Y147.426 E2.9043
G1 X128.564 Y147.449 E2.905
G1 X128.491 Y147.709 E2.913
G1 X128.484 Y147.733 E2.9137
G1 X127.564 Y150.563 E3.0013
G1 X127.278 Y150.912 E3.0146
G1 X124.509 Y152.469 E3.1081
G1 X121.806 Y155.403 E3.2255
G1 X121.399 Y155.601 E3.2388
G1 X116.983 Y155.963 E3.3692
G1 X116.958 Y155.965 E3.3699
G1 X116.688 Y155.976 E3.3779
G1 X116.664 Y155.976 E3.3786
G1 X113.688 Y155.976 E3.4662
G1 X113.267 Y155.812 E3.4795
G1 X110.93 Y153.658 E3.573
G1 X107.306 Y151.995 E3.6904
G1 X106.992 Y151.67 E3.7037
G1 X105.283 Y147.581 E3.8341
G1 X105.274 Y147.558 E3.8348
G1 X105.18 Y147.305 E3.8428
G1 X105.172 Y147.282 E3.8435
G1 X104.252 Y144.452 E3.9311
G1 X104.278 Y144.001 E3.9444
G1 X105.604 Y141.113 E4.0379
G1 X106.065 Y137.153 E4.1552
G1 X106.277 Y136.754 E4.1685
G1 X107.361 Y135.822 E4.2106
G1 X107.306 Y135.797 E4.2124
G1 X106.992 Y135.472 E4.2257
G1 X105.283 Y131.383 E4.3561
G1 X105.274 Y131.36 E4.3568
G1 X105.18 Y131.107 E4.3648
G1 X105.172 Y131.084 E4.3655
G1 X104.252 Y128.254 E4.4531
G1 X104.278 Y127.803 E4.4664
G1 X105.604 Y124.915 E4.5599
G1 X106.065 Y120.955 E4.6772
G1 X106.277 Y120.556 E4.6905
G1 X108.948 Y118.259 E4.7942
G1 X104.684 Y110.873 E5.0452
G1 X104.602 Y110.567 E5.0545
G1 X104.602 Y107.036 E5.1584
G1 X104.684 Y106.731 E5.1677
G1 X110.849 Y96.052 E5.5307
G1 X111.233 Y96.346 F6000
G92 E0
G1 X111.367 Y96.212 E0.0056 F2075
G1 X114.316 Y94.51 E0.1058
G1 X114.499 Y94.461 E0.1114
G1 X126.704 Y94.461 E0.4706
G1 X126.887 Y94.51 E0.4762
G1 X129.836 Y96.212 E0.5764
G1 X129.97 Y96.346 E0.582
G1 X136.073 Y106.916 E0.9412
G1 X136.122 Y107.099 E0.9467
G1 X136.122 Y110.504 E1.047
G1 X136.073 Y110.687 E1.0525
G1 X132.825 Y116.313 E1.2437
G1 X136.005 Y115.676 E1.3392
G1 X136.272 Y115.723 E1.3472
G1 X139.977 Y117.977 E1.4748
G1 X139.989 Y117.985 E1.4753
G1 X140.206 Y118.13 E1.4829
G1 X140.218 Y118.138 E1.4833
G1 X142.548 Y119.831 E1.5681
G1 X142.694 Y120.059 E1.5761
G1 X143.316 Y123.16 E1.6692
G1 X145.263 Y126.624 E1.7861
G1 X145.3 Y126.892 E1.7941
G1 X144.302 Y131.112 E1.9217
G1 X144.298 Y131.126 E1.9221
G1 X144.228 Y131.377 E1.9298
G1 X144.224 Y131.391 E1.9302
G1 X143.334 Y134.13 E2.015
G1 X143.162 Y134.34 E2.023
G1 X140.405 Y135.89 E2.1161
G1 X137.712 Y138.813 E2.233
G1 X137.468 Y138.932 E2.241
G1 X133.146 Y139.286 E2.3686
G1 X133.132 Y139.287 E2.3691
G1 X132.872 Y139.298 E2.3767
G1 X132.857 Y139.298 E2.3772
G1 X129.977 Y139.298 E2.4619
G1 X129.724 Y139.199 E2.4699
G1 X127.397 Y137.056 E2.563
G1 X126.58 Y136.681 E2.5895
G1 X127.117 Y139.359 E2.6699
G1 X129.064 Y142.822 E2.7868
G1 X129.102 Y143.09 E2.7948
G1 X128.104 Y147.31 E2.9224
G1 X128.1 Y147.325 E2.9229
G1 X128.03 Y147.575 E2.9305
G1 X128.026 Y147.589 E2.9309
G1 X127.136 Y150.329 E3.0157
G1 X126.964 Y150.538 E3.0237
G1 X124.207 Y152.088 E3.1168
G1 X121.514 Y155.011 E3.2338
G1 X121.27 Y155.13 E3.2417
G1 X116.948 Y155.484 E3.3694
G1 X116.933 Y155.485 E3.3698
G1 X116.674 Y155.496 E3.3775
G1 X116.659 Y155.496 E3.3779
G1 X113.779 Y155.496 E3.4627
G1 X113.526 Y155.398 E3.4706
G1 X111.199 Y153.254 E3.5638
G1 X107.588 Y151.596 E3.6807
G1 X107.4 Y151.401 E3.6887
G1 X105.727 Y147.4 E3.8163
G1 X105.722 Y147.387 E3.8167
G1 X105.631 Y147.143 E3.8244
G1 X105.627 Y147.129 E3.8248
G1 X104.737 Y144.39 E3.9096
G1 X104.752 Y144.119 E3.9176
G1 X106.072 Y141.244 E4.0107
G1 X106.532 Y137.298 E4.1276
G1 X106.659 Y137.059 E4.1356
G1 X108.241 Y135.698 E4.197
G1 X107.588 Y135.398 E4.2181
G1 X107.4 Y135.203 E4.2261
G1 X105.727 Y131.202 E4.3537
G1 X105.722 Y131.189 E4.3542
G1 X105.631 Y130.945 E4.3618
G1 X105.627 Y130.931 E4.3623
G1 X104.737 Y128.191 E4.447
G1 X104.752 Y127.921 E4.455
G1 X106.072 Y125.046 E4.5481
G1 X106.532 Y121.1 E4.665
G1 X106.659 Y120.861 E4.673
G1 X109.563 Y118.363 E4.7857
G1 X105.131 Y110.687 E5.0466
G1 X105.082 Y110.504 E5.0522
G1 X105.082 Y107.099 E5.1524
G1 X105.131 Y106.916 E5.158
G1 X111.233 Y96.346 E5.5172
G1 X111.617 Y96.641 F6000
G92 E0
G1 X111.662 Y96.596 E0.0019 F2075
G1 X114.501 Y94.957 E0.0984
G1 X114.563 Y94.941 E0.1002
G1 X126.641 Y94.941 E0.4557
G1 X126.702 Y94.957 E0.4576
G1 X129.541 Y96.596 E0.5541
G1 X129.586 Y96.641 E0.5559
G1 X135.625 Y107.101 E0.9114
G1 X135.642 Y107.162 E0.9133
G1 X135.642 Y110.441 E1.0098
G1 X135.625 Y110.502 E1.0116
G1 X131.921 Y116.919 E1.2297
G1 X132.127 Y116.943 E1.2358
G1 X136.011 Y116.164 E1.3524
G1 X136.1 Y116.18 E1.355
G1 X139.723 Y118.385 E1.4799
G1 X139.727 Y118.388 E1.48
G1 X139.936 Y118.526 E1.4874
G1 X139.94 Y118.529 E1.4875
G1 X142.192 Y120.166 E1.5695
G1 X142.241 Y120.242 E1.5721
G1 X142.86 Y123.329 E1.6648
G1 X144.8 Y126.78 E1.7813
G1 X144.813 Y126.87 E1.784
G1 X143.836 Y130.997 E1.9088
G1 X143.835 Y131.002 E1.9089
G1 X143.767 Y131.243 E1.9163
G1 X143.766 Y131.247 E1.9165
G1 X142.905 Y133.896 E1.9984
G1 X142.848 Y133.966 E2.0011
G1 X140.104 Y135.509 E2.0937
G1 X137.42 Y138.421 E2.2103
G1 X137.339 Y138.461 E2.2129
G1 X133.112 Y138.807 E2.3378
G1 X133.107 Y138.808 E2.3379
G1 X132.857 Y138.818 E2.3453
G1 X132.852 Y138.818 E2.3454
G1 X130.067 Y138.818 E2.4274
G1 X129.983 Y138.785 E2.4301
G1 X127.667 Y136.651 E2.5228
G1 X124.477 Y135.187 E2.626
G1 X124.419 Y135.22 E2.628
G1 X125.994 Y136.365 E2.6853
G1 X126.043 Y136.441 E2.688
G1 X126.662 Y139.528 E2.7806
G1 X128.602 Y142.978 E2.8971
G1 X128.614 Y143.068 E2.8998
G1 X127.638 Y147.195 E3.0246
G1 X127.637 Y147.2 E3.0248
G1 X127.569 Y147.441 E3.0321
G1 X127.568 Y147.446 E3.0323
G1 X126.707 Y150.094 E3.1142
G1 X126.65 Y150.164 E3.1169
G1 X123.906 Y151.707 E3.2095
G1 X121.222 Y154.619 E3.3261
G1 X121.141 Y154.659 E3.3288
G1 X116.914 Y155.006 E3.4536
G1 X116.909 Y155.006 E3.4537
G1 X116.659 Y155.016 E3.4611
G1 X116.654 Y155.016 E3.4612
G1 X113.869 Y155.016 E3.5432
G1 X113.785 Y154.983 E3.5459
G1 X111.468 Y152.849 E3.6386
G1 X107.871 Y151.198 E3.7551
G1 X107.808 Y151.133 E3.7577
G1 X106.172 Y147.22 E3.8826
G1 X106.17 Y147.215 E3.8827
G1 X106.083 Y146.981 E3.8901
G1 X106.082 Y146.976 E3.8902
G1 X105.221 Y144.327 E3.9722
G1 X105.226 Y144.237 E3.9748
G1 X106.54 Y141.376 E4.0675
G1 X106.998 Y137.444 E4.184
G1 X107.04 Y137.364 E4.1867
G1 X109.122 Y135.574 E4.2675
G1 X107.871 Y135 E4.308
G1 X107.808 Y134.935 E4.3106
G1 X106.172 Y131.022 E4.4355
G1 X106.17 Y131.017 E4.4356
G1 X106.083 Y130.782 E4.443
G1 X106.082 Y130.778 E4.4431
G1 X105.221 Y128.129 E4.5251
G1 X105.226 Y128.039 E4.5277
G1 X106.54 Y125.177 E4.6204
G1 X106.998 Y121.245 E4.7369
G1 X107.04 Y121.166 E4.7396
G1 X110.177 Y118.468 E4.8613
G1 X105.578 Y110.502 E5.132
G1 X105.562 Y110.441 E5.1339
G1 X105.562 Y107.162 E5.2304
G1 X105.578 Y107.101 E5.2323
G1 X111.617 Y96.641 E5.5877
G92 E0
G1 E-4 F6000
G1 X118.397 Y102.732 F6000
G1 E0 F6000
G92 E0
G1 X118.397 Y104.187 E0.0428 F1764
G1 X118.178 Y104.291 E0.0499
G1 X117.757 Y104.544 E0.0644
G1 X117.352 Y104.844 E0.0792
G1 X116.981 Y105.181 E0.094
G1 X116.643 Y105.552 E0.1088
G1 X116.404 Y105.876 E0.1206
G1 X115.052 Y105.556 E0.1615
G1 X114.745 Y106.5 E0.1907
G1 X114.148 Y109.023 E0.267
G1 X115.531 Y109.473 E0.3098
G1 X115.58 Y109.8 E0.3196
G1 X115.701 Y110.287 E0.3343
G1 X115.87 Y110.762 E0.3492
G1 X116.086 Y111.217 E0.364
G1 X116.344 Y111.647 E0.3788
G1 X116.523 Y111.888 E0.3876
G1 X115.8 Y113.077 E0.4286
G1 X116.602 Y113.66 E0.4578
G1 X118.818 Y115.009 E0.5341
G1 X119.671 Y113.834 E0.5768
G1 X120.1 Y113.898 E0.5896
G1 X120.602 Y113.923 E0.6044
G1 X121.104 Y113.898 E0.6192
G1 X121.6 Y113.824 E0.6339
G1 X122.088 Y113.703 E0.6487
G1 X122.277 Y113.635 E0.6546
G1 X123.184 Y114.69 E0.6956
G1 X123.987 Y114.107 E0.7248
G1 X125.954 Y112.416 E0.8011
G1 X125.104 Y111.247 E0.8437
G1 X125.334 Y110.762 E0.8595
G1 X125.503 Y110.287 E0.8743
G1 X125.624 Y109.8 E0.8891
G1 X125.698 Y109.304 E0.9038
G1 X125.728 Y108.697 E0.9217
G1 X127 Y108.165 E0.9623
G1 X126.693 Y107.222 E0.9915
G1 X125.693 Y104.829 E1.0678
G1 X124.31 Y105.278 E1.1106
G1 X124.222 Y105.181 E1.1145
G1 X123.851 Y104.844 E1.1292
G1 X123.447 Y104.544 E1.144
