; G-Code generated by Simplify3D(TM) Version 2.2.0
; Dec 27, 2014 at 6:07:48 PM
; Settings Summary
;   processName,PLA_Fast
;   applyToModels,Base_servo_guide
;   profileLabel,-- Select Printer Profile --
;   printMaterial,PLA
;   printQuality,Fast
;   extruderName,Extruder 1
;   extruderToolheadNumber,0
;   extruderDiameter,0.4
;   extruderAutoWidth,0
;   extruderWidth,0.4
;   extrusionMultiplier,0.9
;   extruderUseRetract,1
;   extruderRetractionDistance,1
;   extruderExtraRestartDistance,0
;   extruderRetractionZLift,0
;   extruderRetractionSpeed,1800
;   extruderUseCoasting,0
;   extruderCoastingDistance,0.2
;   extruderUseWipe,0
;   extruderWipeDistance,5
;   primaryExtruder,0
;   layerHeight,0.3
;   topSolidLayers,4
;   bottomSolidLayers,4
;   perimeterOutlines,3
;   printPerimetersInsideOut,1
;   startPointOption,2
;   startPointOriginX,0
;   startPointOriginY,0
;   startPointOriginZ,300
;   sequentialIslands,0
;   spiralVaseMode,0
;   firstLayerHeightPercentage,90
;   firstLayerWidthPercentage,100
;   firstLayerUnderspeed,0.5
;   useRaft,0
;   raftExtruder,0
;   raftLayers,3
;   raftOffset,3
;   raftSeparationDistance,0.14
;   raftInfill,85
;   disableRaftBaseLayers,0
;   useSkirt,1
;   skirtExtruder,0
;   skirtLayers,1
;   skirtOutlines,3
;   skirtOffset,4
;   infillExtruder,0
;   externalInfillPattern,Rectilinear
;   infillPercentage,15
;   outlineOverlapPercentage,15
;   infillExtrusionWidthPercentage,100
;   minInfillLength,5
;   infillLayerInterval,1
;   randomInfillStartPoint,0
;   infillAngles,45,-45
;   generateSupport,1
;   supportExtruder,0
;   supportInfill,25
;   supportExtraInflation,0
;   denseSupportLayers,0
;   denseSupportInfill,70
;   supportLayerInterval,1
;   supportHorizontalPartOffset,0.3
;   supportUpperSeparationLayers,1
;   supportLowerSeparationLayers,1
;   supportGridSpacing,4
;   maxOverhangAngle,45
;   supportAngles,0
;   temperatureName,Extruder 1 Temperature,Heated Bed
;   temperatureNumber,0,0
;   temperatureSetpointCount,1,1
;   temperatureSetpointLayers,1,1
;   temperatureSetpointTemperatures,190,60
;   temperatureStabilizeAtStartup,1,1
;   temperatureHeatedBed,0,1
;   temperatureRelayBetweenLayers,0,0
;   temperatureRelayBetweenLoops,0,0
;   fanLayers,1,2
;   fanSpeeds,0,100
;   blipFanToFullPower,0
;   adjustSpeedForCooling,1
;   minSpeedLayerTime,15
;   minCoolingSpeedSlowdown,20
;   increaseFanForCooling,0
;   minFanLayerTime,45
;   maxCoolingFanSpeed,100
;   increaseFanForBridging,0
;   bridgingFanSpeed,100
;   use5D,1
;   relativeEdistances,0
;   allowEaxisZeroing,1
;   independentExtruderAxes,0
;   includeM10123,0
;   stickySupport,1
;   detectArcs,0
;   arcReplaceG2G3,0
;   arcRadialCompensation,1
;   gcodeXoffset,0
;   gcodeYoffset,0
;   gcodeZoffset,0
;   overrideMachineDefinition,0
;   machineTypeOverride,0
;   strokeXoverride,250
;   strokeYoverride,250
;   strokeZoverride,250
;   originOffsetXoverride,0
;   originOffsetYoverride,0
;   originOffsetZoverride,0
;   homeXdirOverride,-1
;   homeYdirOverride,-1
;   homeZdirOverride,-1
;   flipXoverride,1
;   flipYoverride,-1
;   flipZoverride,1
;   startingGcode,G28 ; home all axes
;   layerChangeGcode,
;   toolChangeGcode,
;   endingGcode,M104 S0 ; turn off extruder,M140 S0 ; turn off bed,M84 ; disable motors,G28 ; home all axes
;   createX3G,0
;   celebration,0
;   celebrationSong,Random Song
;   createMB5G,0
;   postProcessing,
;   defaultSpeed,3600
;   outlineUnderspeed,0.5
;   solidInfillUnderspeed,0.8
;   supportUnderspeed,0.8
;   rapidXYspeed,4800
;   rapidZspeed,1000
;   minBridgingArea,50
;   bridgingExtrusionMultiplier,1
;   bridgingSpeedMultiplier,1
;   filamentDiameter,3
;   filamentPricePerKg,46
;   useMinPrintHeight,0
;   minPrintHeight,0
;   useMaxPrintHeight,0
;   maxPrintHeight,0
;   useDiaphragm,0
;   diaphragmLayerInterval,20
;   robustSlicing,1
;   mergeAllIntoSolid,0
;   onlyRetractWhenCrossingOutline,1
;   retractBetweenLayers,1
;   useRetractionMinTravel,0
;   retractionMinTravel,3
;   useRetractionOozeRate,0
;   retractionOozeRate,100
;   onlyWipeOutlines,1
;   toolChangeRetractionDistance,12
;   toolChangeExtraRestartDistance,-0.5
;   toolChangeRetractionSpeed,600
;   allowThinWallGapFill,1
;   thinWallAllowedOverlapPercentage,10
G90
M82
M106 S0
M140 S60
M190 S60
M104 S190 T0
M109 S190 T0
G28 ; home all axes
G92 E0
G1 E-1 F1800
; layer 1, Z = 0.27
T0
; tool H0.3 W0.4
G1 X103.576 Y100.277 F4800
G1 Z0.27 F1000
G1 E0 F540
G92 E0
G1 X106.201 Y97.652 E0.0567 F1800
G1 X106.568 Y97.5 E0.0628
G1 X166.28 Y97.5 E0.9751
G1 X166.647 Y97.652 E0.9812
G1 X169.272 Y100.277 E1.0379
G1 X169.424 Y100.644 E1.044
G1 X169.424 Y149.356 E1.7882
G1 X169.272 Y149.723 E1.7943
G1 X166.647 Y152.348 E1.851
G1 X166.28 Y152.5 E1.8571
G1 X106.568 Y152.5 E2.7694
G1 X106.201 Y152.348 E2.7755
G1 X103.576 Y149.723 E2.8322
G1 X103.424 Y149.356 E2.8383
G1 X103.424 Y141.122 E2.9641
G1 X96.08 Y141.122 E3.0763
G1 X95.299 Y141.903 E3.0932
G1 X94.932 Y142.055 E3.0992
G1 X83.72 Y142.055 E3.2705
G1 X83.353 Y141.903 E3.2766
G1 X80.728 Y139.278 E3.3333
G1 X80.576 Y138.911 E3.3394
G1 X80.576 Y127.699 E3.5107
G1 X80.728 Y127.332 E3.5168
G1 X83.353 Y124.707 E3.5735
G1 X83.72 Y124.555 E3.5796
G1 X93.852 Y124.555 E3.7344
G1 X94.633 Y123.774 E3.7513
G1 X95.001 Y123.622 E3.7573
G1 X103.424 Y123.622 E3.886
G1 X103.424 Y100.644 E4.2371
G1 X103.576 Y100.277 E4.2432
G1 X103.915 Y100.503 F4800
G92 E0
G1 X106.427 Y97.991 E0.0543 F1800
G1 X106.648 Y97.9 E0.0579
G1 X166.2 Y97.9 E0.9678
G1 X166.421 Y97.991 E0.9715
G1 X168.933 Y100.503 E1.0257
G1 X169.024 Y100.724 E1.0294
G1 X169.024 Y149.276 E1.7712
G1 X168.933 Y149.497 E1.7749
G1 X166.421 Y152.009 E1.8291
G1 X166.2 Y152.1 E1.8328
G1 X106.648 Y152.1 E2.7427
G1 X106.427 Y152.009 E2.7463
G1 X103.915 Y149.497 E2.8006
G1 X103.824 Y149.276 E2.8042
G1 X103.824 Y140.722 E2.935
G1 X95.915 Y140.722 E3.0558
G1 X95.073 Y141.564 E3.074
G1 X94.852 Y141.655 E3.0776
G1 X83.8 Y141.655 E3.2465
G1 X83.579 Y141.564 E3.2501
G1 X81.067 Y139.052 E3.3044
G1 X80.976 Y138.831 E3.3081
G1 X80.976 Y127.779 E3.4769
G1 X81.067 Y127.558 E3.4806
G1 X83.579 Y125.046 E3.5349
G1 X83.8 Y124.955 E3.5385
G1 X94.018 Y124.955 E3.6946
G1 X94.86 Y124.113 E3.7128
G1 X95.08 Y124.022 E3.7165
G1 X103.824 Y124.022 E3.8501
G1 X103.824 Y100.724 E4.206
G1 X103.915 Y100.503 E4.2097
G1 X104.254 Y100.73 F4800
G92 E0
G1 X106.654 Y98.33 E0.0518 F1800
G1 X106.727 Y98.3 E0.0531
G1 X166.121 Y98.3 E0.9605
G1 X166.194 Y98.33 E0.9617
G1 X168.594 Y100.73 E1.0136
G1 X168.624 Y100.803 E1.0148
G1 X168.624 Y149.197 E1.7542
G1 X168.594 Y149.27 E1.7554
G1 X166.194 Y151.67 E1.8073
G1 X166.121 Y151.7 E1.8085
G1 X106.727 Y151.7 E2.7159
G1 X106.654 Y151.67 E2.7171
G1 X104.254 Y149.27 E2.769
G1 X104.224 Y149.197 E2.7702
G1 X104.224 Y140.322 E2.9058
G1 X95.749 Y140.322 E3.0353
G1 X94.846 Y141.225 E3.0548
G1 X94.773 Y141.255 E3.056
G1 X83.879 Y141.255 E3.2225
G1 X83.806 Y141.225 E3.2237
G1 X81.406 Y138.825 E3.2755
G1 X81.376 Y138.752 E3.2767
G1 X81.376 Y127.858 E3.4432
G1 X81.406 Y127.785 E3.4444
G1 X83.806 Y125.385 E3.4962
G1 X83.879 Y125.355 E3.4974
G1 X94.184 Y125.355 E3.6549
G1 X95.086 Y124.452 E3.6744
G1 X95.16 Y124.422 E3.6756
G1 X104.224 Y124.422 E3.8141
G1 X104.224 Y100.803 E4.175
G1 X104.254 Y100.73 E4.1762
G92 E0
G1 E-1 F1800
G1 X110.559 Y106.124 F4800
G1 E0 F1800
G92 E0
G1 X110.559 Y128.124 E0.3361 F1500
G1 X114.559 Y128.124 E0.3973
G1 X114.559 Y106.124 E0.7334
G1 X110.559 Y106.124 E0.7945
G1 X110.959 Y106.524 F4800
G92 E0
G1 X110.959 Y127.724 E0.3239 F1200
G1 X114.159 Y127.724 E0.3728
G1 X114.159 Y106.524 E0.6967
G1 X110.959 Y106.524 E0.7456
G1 X111.359 Y106.924 F4800
G92 E0
G1 X111.359 Y127.324 E0.3117 F900
G1 X113.759 Y127.324 E0.3484
G1 X113.759 Y106.924 E0.66
G1 X111.359 Y106.924 E0.6967
G1 X158.613 Y106.395 F4800
G92 E0
G1 X158.613 Y128.395 E0.3361 F1500
G1 X162.613 Y128.395 E0.3973
G1 X162.613 Y106.395 E0.7334
G1 X158.613 Y106.395 E0.7945
G1 X159.013 Y106.795 F4800
G92 E0
G1 X159.013 Y127.995 E0.3239 F1200
G1 X162.213 Y127.995 E0.3728
G1 X162.213 Y106.795 E0.6967
G1 X159.013 Y106.795 E0.7456
G1 X159.413 Y107.195 F4800
G92 E0
G1 X159.413 Y127.595 E0.3117 F900
G1 X161.813 Y127.595 E0.3484
G1 X161.813 Y107.195 E0.66
G1 X159.413 Y107.195 E0.6967
G1 X109.424 Y103.5 F4800
G92 E0
G1 X163.424 Y103.5 E0.8251 F1500
G1 X163.424 Y146.5 E1.4821
G1 X109.424 Y146.5 E2.3071
G1 X109.424 Y103.5 E2.9641
G1 X109.024 Y103.1 F4800
G92 E0
G1 X163.824 Y103.1 E0.8373 F1200
G1 X163.824 Y146.9 E1.5065
G1 X109.024 Y146.9 E2.3438
G1 X109.024 Y103.1 E3.013
G1 X108.624 Y102.7 F4800
G92 E0
G1 X164.224 Y102.7 E0.8495 F900
G1 X164.224 Y147.3 E1.5309
G1 X108.624 Y147.3 E2.3804
G1 X108.624 Y102.7 E3.0619
G1 X109.764 Y103.85 F4800
G92 E0
G1 X109.774 Y103.84 E0.0002 F1440
G1 X110.339 Y103.84 E0.0089
G1 X109.764 Y104.415 E0.0213
G1 X109.764 Y104.981 E0.0299
G1 X110.905 Y103.84 E0.0546
G1 X111.471 Y103.84 E0.0632
G1 X109.764 Y105.547 E0.1001
G1 X109.764 Y106.113 E0.1088
G1 X112.036 Y103.84 E0.1579
G1 X112.602 Y103.84 E0.1665
G1 X110.658 Y105.784 E0.2085
G1 X111.224 Y105.784 E0.2171
G1 X113.168 Y103.84 E0.2591
G1 X113.734 Y103.84 E0.2678
G1 X111.79 Y105.784 E0.3098
G1 X112.355 Y105.784 E0.3184
G1 X114.299 Y103.84 E0.3604
G1 X114.865 Y103.84 E0.3691
G1 X112.921 Y105.784 E0.4111
G1 X113.487 Y105.784 E0.4197
G1 X115.431 Y103.84 E0.4617
G1 X115.996 Y103.84 E0.4704
G1 X114.053 Y105.784 E0.5124
G1 X114.618 Y105.784 E0.521
G1 X116.562 Y103.84 E0.563
G1 X117.128 Y103.84 E0.5716
G1 X114.899 Y106.068 E0.6198
G1 X114.899 Y106.634 E0.6284
G1 X117.693 Y103.84 E0.6888
G1 X118.259 Y103.84 E0.6974
G1 X114.899 Y107.2 E0.77
G1 X114.899 Y107.765 E0.7787
G1 X118.825 Y103.84 E0.8635
G1 X119.39 Y103.84 E0.8721
G1 X114.899 Y108.331 E0.9692
G1 X114.899 Y108.897 E0.9778
G1 X119.956 Y103.84 E1.0871
G1 X120.522 Y103.84 E1.0957
G1 X114.899 Y109.462 E1.2172
G1 X114.899 Y110.028 E1.2259
G1 X121.087 Y103.84 E1.3596
G1 X121.653 Y103.84 E1.3682
G1 X114.899 Y110.594 E1.5142
G1 X114.899 Y111.16 E1.5228
G1 X122.219 Y103.84 E1.681
G1 X122.784 Y103.84 E1.6896
G1 X114.899 Y111.725 E1.86
G1 X114.899 Y112.291 E1.8686
G1 X123.35 Y103.84 E2.0512
G1 X123.916 Y103.84 E2.0599
G1 X114.899 Y112.857 E2.2547
G1 X114.899 Y113.422 E2.2633
G1 X124.482 Y103.84 E2.4704
G1 X125.047 Y103.84 E2.479
G1 X114.899 Y113.988 E2.6983
G1 X114.899 Y114.554 E2.7069
G1 X125.613 Y103.84 E2.9384
G1 X126.179 Y103.84 E2.9471
G1 X114.899 Y115.119 E3.1908
G1 X114.899 Y115.685 E3.1994
G1 X126.744 Y103.84 E3.4554
G1 X127.31 Y103.84 E3.464
G1 X114.899 Y116.251 E3.7322
G1 X114.899 Y116.816 E3.7408
G1 X127.876 Y103.84 E4.0212
G1 X128.441 Y103.84 E4.0299
G1 X114.899 Y117.382 E4.3225
G1 X114.899 Y117.948 E4.3311
G1 X129.007 Y103.84 E4.636
G1 X129.573 Y103.84 E4.6446
G1 X114.899 Y118.513 E4.9617
G1 X114.899 Y119.079 E4.9703
G1 X130.138 Y103.84 E5.2996
G1 X130.704 Y103.84 E5.3082
G1 X114.899 Y119.645 E5.6497
G1 X114.899 Y120.21 E5.6584
G1 X131.27 Y103.84 E6.0121
G1 X131.835 Y103.84 E6.0207
G1 X114.899 Y120.776 E6.3867
G1 X114.899 Y121.342 E6.3953
G1 X132.401 Y103.84 E6.7735
G1 X132.967 Y103.84 E6.7821
G1 X114.899 Y121.908 E7.1725
G1 X114.899 Y122.473 E7.1812
G1 X133.533 Y103.84 E7.5838
G1 X134.098 Y103.84 E7.5925
G1 X114.899 Y123.039 E8.0073
G1 X114.899 Y123.605 E8.0159
G1 X134.664 Y103.84 E8.443
G1 X135.23 Y103.84 E8.4516
G1 X114.899 Y124.17 E8.8909
G1 X114.899 Y124.736 E8.8996
G1 X135.795 Y103.84 E9.3511
G1 X136.361 Y103.84 E9.3597
G1 X114.899 Y125.302 E9.8235
G1 X114.899 Y125.867 E9.8321
G1 X136.927 Y103.84 E10.3081
G1 X137.492 Y103.84 E10.3167
G1 X114.899 Y126.433 E10.8049
G1 X114.899 Y126.999 E10.8135
G1 X138.058 Y103.84 E11.3139
G1 X138.624 Y103.84 E11.3226
G1 X114.899 Y127.564 E11.8352
G1 X114.899 Y128.13 E11.8438
G1 X139.189 Y103.84 E12.3687
G1 X139.755 Y103.84 E12.3773
G1 X109.764 Y133.831 E13.0254
G1 X109.764 Y134.397 E13.034
G1 X140.321 Y103.84 E13.6943
G1 X140.886 Y103.84 E13.7029
G1 X109.764 Y134.962 E14.3754
G1 X109.764 Y135.528 E14.384
G1 X141.452 Y103.84 E15.0688
G1 X142.018 Y103.84 E15.0774
G1 X109.764 Y136.094 E15.7743
G1 X109.764 Y136.66 E15.783
G1 X142.583 Y103.84 E16.4921
G1 X143.149 Y103.84 E16.5008
G1 X109.764 Y137.225 E17.2221
G1 X109.764 Y137.791 E17.2308
G1 X143.715 Y103.84 E17.9644
G1 X144.281 Y103.84 E17.973
G1 X109.764 Y138.357 E18.7188
G1 X109.764 Y138.922 E18.7275
G1 X144.846 Y103.84 E19.4855
G1 X145.412 Y103.84 E19.4942
G1 X109.764 Y139.488 E20.2644
G1 X109.764 Y140.054 E20.2731
G1 X145.978 Y103.84 E21.0556
G1 X146.543 Y103.84 E21.0642
G1 X109.764 Y140.619 E21.8589
G1 X109.764 Y141.185 E21.8676
G1 X147.109 Y103.84 E22.6745
G1 X147.675 Y103.84 E22.6831
G1 X109.764 Y141.751 E23.5023
G1 X109.764 Y142.316 E23.5109
G1 X148.24 Y103.84 E24.3423
G1 X148.806 Y103.84 E24.351
G1 X109.764 Y142.882 E25.1946
G1 X109.764 Y143.448 E25.2032
G1 X149.372 Y103.84 E26.059
G1 X149.937 Y103.84 E26.0677
G1 X109.764 Y144.013 E26.9357
G1 X109.764 Y144.579 E26.9444
G1 X150.503 Y103.84 E27.8247
G1 X151.069 Y103.84 E27.8333
G1 X109.764 Y145.145 E28.7258
G1 X109.764 Y145.71 E28.7344
G1 X151.634 Y103.84 E29.6392
G1 X152.2 Y103.84 E29.6478
G1 X109.88 Y146.16 E30.5622
G1 X110.446 Y146.16 E30.5709
G1 X152.766 Y103.84 E31.4853
G1 X153.332 Y103.84 E31.494
G1 X111.012 Y146.16 E32.4084
G1 X111.577 Y146.16 E32.417
G1 X153.897 Y103.84 E33.3315
G1 X154.463 Y103.84 E33.3401
G1 X112.143 Y146.16 E34.2545
G1 X112.709 Y146.16 E34.2632
G1 X155.029 Y103.84 E35.1776
G1 X155.594 Y103.84 E35.1863
G1 X113.274 Y146.16 E36.1007
G1 X113.84 Y146.16 E36.1093
G1 X156.16 Y103.84 E37.0238
G1 X156.726 Y103.84 E37.0324
G1 X114.406 Y146.16 E37.9468
G1 X114.971 Y146.16 E37.9555
G1 X157.291 Y103.84 E38.8699
G1 X157.857 Y103.84 E38.8786
G1 X115.537 Y146.16 E39.793
G1 X116.103 Y146.16 E39.8016
G1 X158.423 Y103.84 E40.7161
G1 X158.988 Y103.84 E40.7247
G1 X116.668 Y146.16 E41.6392
G1 X117.234 Y146.16 E41.6478
G1 X159.554 Y103.84 E42.5622
G1 X160.12 Y103.84 E42.5709
G1 X117.8 Y146.16 E43.4853
G1 X118.365 Y146.16 E43.4939
G1 X158.273 Y106.252 E44.3563
G1 X158.273 Y106.818 E44.3649
G1 X118.931 Y146.16 E45.215
G1 X119.497 Y146.16 E45.2236
G1 X158.273 Y107.383 E46.0615
G1 X158.273 Y107.949 E46.0702
G1 X120.062 Y146.16 E46.8958
G1 X120.628 Y146.16 E46.9044
G1 X158.273 Y108.515 E47.7179
G1 X158.273 Y109.08 E47.7265
G1 X121.194 Y146.16 E48.5277
G1 X121.76 Y146.16 E48.5364
G1 X158.273 Y109.646 E49.3253
G1 X158.273 Y110.212 E49.334
G1 X122.325 Y146.16 E50.1107
G1 X122.891 Y146.16 E50.1194
G1 X158.273 Y110.777 E50.8839
G1 X158.273 Y111.343 E50.8926
G1 X123.457 Y146.16 E51.6449
G1 X124.022 Y146.16 E51.6535
G1 X158.273 Y111.909 E52.3936
G1 X158.273 Y112.474 E52.4022
G1 X124.588 Y146.16 E53.1301
G1 X125.154 Y146.16 E53.1387
G1 X158.273 Y113.04 E53.8544
G1 X158.273 Y113.606 E53.863
G1 X125.719 Y146.16 E54.5664
G1 X126.285 Y146.16 E54.5751
G1 X158.273 Y114.172 E55.2663
G1 X158.273 Y114.737 E55.2749
G1 X126.851 Y146.16 E55.9539
G1 X127.416 Y146.16 E55.9625
G1 X158.273 Y115.303 E56.6293
G1 X158.273 Y115.869 E56.6379
G1 X127.982 Y146.16 E57.2924
G1 X128.548 Y146.16 E57.3011
G1 X158.273 Y116.434 E57.9434
G1 X158.273 Y117 E57.952
G1 X129.113 Y146.16 E58.5821
G1 X129.679 Y146.16 E58.5908
G1 X158.273 Y117.566 E59.2086
G1 X158.273 Y118.131 E59.2173
G1 X130.245 Y146.16 E59.8229
G1 X130.81 Y146.16 E59.8315
G1 X158.273 Y118.697 E60.4249
G1 X158.273 Y119.263 E60.4336
G1 X131.376 Y146.16 E61.0148
G1 X131.942 Y146.16 E61.0234
G1 X158.273 Y119.828 E61.5924
G1 X158.273 Y120.394 E61.601
G1 X132.508 Y146.16 E62.1578
G1 X133.073 Y146.16 E62.1664
G1 X158.273 Y120.96 E62.7109
G1 X158.273 Y121.525 E62.7196
G1 X133.639 Y146.16 E63.2518
G1 X134.205 Y146.16 E63.2605
G1 X158.273 Y122.091 E63.7806
G1 X158.273 Y122.657 E63.7892
G1 X134.77 Y146.16 E64.2971
G1 X135.336 Y146.16 E64.3057
G1 X158.273 Y123.223 E64.8013
G1 X158.273 Y123.788 E64.81
G1 X135.902 Y146.16 E65.2934
G1 X136.467 Y146.16 E65.302
G1 X158.273 Y124.354 E65.7732
G1 X158.273 Y124.92 E65.7818
G1 X137.033 Y146.16 E66.2408
G1 X137.599 Y146.16 E66.2494
G1 X158.273 Y125.485 E66.6962
G1 X158.273 Y126.051 E66.7048
G1 X138.164 Y146.16 E67.1393
G1 X138.73 Y146.16 E67.1479
G1 X158.273 Y126.617 E67.5702
G1 X158.273 Y127.182 E67.5789
G1 X139.296 Y146.16 E67.9889
