; G-Code generated by Simplify3D(TM) Version 2.2.0
; Dec 27, 2014 at 6:59:16 PM
; Settings Summary
;   processName,PLA_Fast
;   applyToModels,Base_servo_guide
;   profileLabel,-- Select Printer Profile --
;   printMaterial,PLA
;   printQuality,Fast
;   extruderName,Extruder 1
;   extruderToolheadNumber,0
;   extruderDiameter,0.4
;   extruderAutoWidth,0
;   extruderWidth,0.4
;   extrusionMultiplier,0.9
;   extruderUseRetract,1
;   extruderRetractionDistance,1
;   extruderExtraRestartDistance,0
;   extruderRetractionZLift,0
;   extruderRetractionSpeed,1800
;   extruderUseCoasting,0
;   extruderCoastingDistance,0.2
;   extruderUseWipe,0
;   extruderWipeDistance,5
;   primaryExtruder,0
;   layerHeight,0.3
;   topSolidLayers,4
;   bottomSolidLayers,4
;   perimeterOutlines,3
;   printPerimetersInsideOut,1
;   startPointOption,2
;   startPointOriginX,0
;   startPointOriginY,0
;   startPointOriginZ,300
;   sequentialIslands,0
;   spiralVaseMode,0
;   firstLayerHeightPercentage,90
;   firstLayerWidthPercentage,100
;   firstLayerUnderspeed,0.5
;   useRaft,0
;   raftExtruder,0
;   raftLayers,3
;   raftOffset,3
;   raftSeparationDistance,0.14
;   raftInfill,85
;   disableRaftBaseLayers,0
;   useSkirt,1
;   skirtExtruder,0
;   skirtLayers,1
;   skirtOutlines,3
;   skirtOffset,4
;   infillExtruder,0
;   externalInfillPattern,Rectilinear
;   infillPercentage,15
;   outlineOverlapPercentage,15
;   infillExtrusionWidthPercentage,100
;   minInfillLength,5
;   infillLayerInterval,1
;   randomInfillStartPoint,0
;   infillAngles,45,-45
;   generateSupport,1
;   supportExtruder,0
;   supportInfill,25
;   supportExtraInflation,0
;   denseSupportLayers,0
;   denseSupportInfill,70
;   supportLayerInterval,1
;   supportHorizontalPartOffset,0.3
;   supportUpperSeparationLayers,1
;   supportLowerSeparationLayers,1
;   supportGridSpacing,4
;   maxOverhangAngle,45
;   supportAngles,0
;   temperatureName,Extruder 1 Temperature,Heated Bed
;   temperatureNumber,0,0
;   temperatureSetpointCount,1,1
;   temperatureSetpointLayers,1,1
;   temperatureSetpointTemperatures,190,60
;   temperatureStabilizeAtStartup,1,1
;   temperatureHeatedBed,0,1
;   temperatureRelayBetweenLayers,0,0
;   temperatureRelayBetweenLoops,0,0
;   fanLayers,1,2
;   fanSpeeds,0,100
;   blipFanToFullPower,0
;   adjustSpeedForCooling,1
;   minSpeedLayerTime,15
;   minCoolingSpeedSlowdown,20
;   increaseFanForCooling,0
;   minFanLayerTime,45
;   maxCoolingFanSpeed,100
;   increaseFanForBridging,0
;   bridgingFanSpeed,100
;   use5D,1
;   relativeEdistances,0
;   allowEaxisZeroing,1
;   independentExtruderAxes,0
;   includeM10123,0
;   stickySupport,1
;   detectArcs,0
;   arcReplaceG2G3,0
;   arcRadialCompensation,1
;   gcodeXoffset,0
;   gcodeYoffset,0
;   gcodeZoffset,0
;   overrideMachineDefinition,0
;   machineTypeOverride,0
;   strokeXoverride,250
;   strokeYoverride,250
;   strokeZoverride,250
;   originOffsetXoverride,0
;   originOffsetYoverride,0
;   originOffsetZoverride,0
;   homeXdirOverride,-1
;   homeYdirOverride,-1
;   homeZdirOverride,-1
;   flipXoverride,1
;   flipYoverride,-1
;   flipZoverride,1
;   startingGcode,G28 ; home all axes
;   layerChangeGcode,
;   toolChangeGcode,
;   endingGcode,M104 S0 ; turn off extruder,M140 S0 ; turn off bed,M84 ; disable motors,G28 ; home all axes
;   createX3G,0
;   celebration,0
;   celebrationSong,Random Song
;   createMB5G,0
;   postProcessing,
;   defaultSpeed,3600
;   outlineUnderspeed,0.5
;   solidInfillUnderspeed,0.8
;   supportUnderspeed,0.8
;   rapidXYspeed,4800
;   rapidZspeed,1000
;   minBridgingArea,50
;   bridgingExtrusionMultiplier,1
;   bridgingSpeedMultiplier,1
;   filamentDiameter,3
;   filamentPricePerKg,46
;   useMinPrintHeight,0
;   minPrintHeight,0
;   useMaxPrintHeight,0
;   maxPrintHeight,0
;   useDiaphragm,0
;   diaphragmLayerInterval,20
;   robustSlicing,1
;   mergeAllIntoSolid,0
;   onlyRetractWhenCrossingOutline,1
;   retractBetweenLayers,1
;   useRetractionMinTravel,0
;   retractionMinTravel,3
;   useRetractionOozeRate,0
;   retractionOozeRate,100
;   onlyWipeOutlines,1
;   toolChangeRetractionDistance,12
;   toolChangeExtraRestartDistance,-0.5
;   toolChangeRetractionSpeed,600
;   allowThinWallGapFill,1
;   thinWallAllowedOverlapPercentage,10
G90
M82
M106 S0
M140 S60
M190 S60
M104 S190 T0
M109 S190 T0
G28 ; home all axes
G92 E0
G1 E-1 F1800
; layer 1, Z = 0.27
T0
; tool H0.3 W0.4
G1 X89.332 Y100.481 F4800
G1 Z0.27 F1000
G1 E0 F540
G92 E0
G1 X89.699 Y100.329 E0.0061 F1800
G1 X97.914 Y100.329 E0.1316
G1 X97.936 Y100.277 E0.1325
G1 X100.56 Y97.652 E0.1892
G1 X100.928 Y97.5 E0.1952
G1 X160.639 Y97.5 E1.1076
G1 X161.007 Y97.652 E1.1136
G1 X163.631 Y100.277 E1.1704
G1 X163.784 Y100.644 E1.1764
G1 X163.784 Y149.356 E1.9207
G1 X163.631 Y149.723 E1.9268
G1 X161.007 Y152.348 E1.9835
G1 X160.639 Y152.5 E1.9896
G1 X100.928 Y152.5 E2.9019
G1 X100.56 Y152.348 E2.908
G1 X97.936 Y149.723 E2.9647
G1 X97.784 Y149.356 E2.9707
G1 X97.784 Y141.122 E3.0966
G1 X89.361 Y141.122 E3.2252
G1 X88.993 Y140.97 E3.2313
G1 X86.369 Y138.345 E3.288
G1 X86.216 Y137.978 E3.2941
G1 X86.216 Y126.766 E3.4654
G1 X86.369 Y126.398 E3.4715
G1 X88.993 Y123.774 E3.5282
G1 X89.361 Y123.622 E3.5343
G1 X97.784 Y123.622 E3.663
G1 X97.784 Y117.829 E3.7515
G1 X89.699 Y117.829 E3.875
G1 X89.332 Y117.677 E3.8811
G1 X86.707 Y115.052 E3.9378
G1 X86.555 Y114.685 E3.9439
G1 X86.555 Y103.473 E4.1152
G1 X86.707 Y103.106 E4.1212
G1 X89.332 Y100.481 E4.1779
G1 X89.558 Y100.82 F4800
G92 E0
G1 X89.779 Y100.729 E0.0036 F1800
G1 X98.184 Y100.729 E0.1321
G1 X98.184 Y100.724 E0.1321
G1 X98.275 Y100.503 E0.1358
G1 X100.787 Y97.991 E0.1901
G1 X101.007 Y97.9 E0.1937
G1 X160.56 Y97.9 E1.1036
G1 X160.78 Y97.991 E1.1073
G1 X163.292 Y100.503 E1.1615
G1 X163.384 Y100.724 E1.1652
G1 X163.384 Y149.276 E1.907
G1 X163.292 Y149.497 E1.9106
G1 X160.78 Y152.009 E1.9649
G1 X160.56 Y152.1 E1.9686
G1 X101.007 Y152.1 E2.8785
G1 X100.787 Y152.009 E2.8821
G1 X98.275 Y149.497 E2.9364
G1 X98.184 Y149.276 E2.94
G1 X98.184 Y140.722 E3.0707
G1 X89.44 Y140.722 E3.2043
G1 X89.22 Y140.63 E3.208
G1 X86.708 Y138.119 E3.2623
G1 X86.616 Y137.898 E3.2659
G1 X86.616 Y126.846 E3.4348
G1 X86.708 Y126.625 E3.4384
G1 X89.22 Y124.113 E3.4927
G1 X89.44 Y124.022 E3.4963
G1 X98.184 Y124.022 E3.6299
G1 X98.184 Y117.429 E3.7307
G1 X89.779 Y117.429 E3.8591
G1 X89.558 Y117.338 E3.8627
G1 X87.047 Y114.826 E3.917
G1 X86.955 Y114.605 E3.9206
G1 X86.955 Y103.553 E4.0895
G1 X87.047 Y103.332 E4.0932
G1 X89.558 Y100.82 E4.1474
G1 X89.785 Y101.159 F4800
G92 E0
G1 X89.859 Y101.129 E0.0012 F1800
G1 X98.584 Y101.129 E0.1345
G1 X98.584 Y100.803 E0.1395
G1 X98.614 Y100.73 E0.1407
G1 X101.014 Y98.33 E0.1926
G1 X101.087 Y98.3 E0.1938
G1 X160.48 Y98.3 E1.1012
G1 X160.554 Y98.33 E1.1025
G1 X162.953 Y100.73 E1.1543
G1 X162.984 Y100.803 E1.1555
G1 X162.984 Y149.197 E1.8949
G1 X162.953 Y149.27 E1.8961
G1 X160.554 Y151.67 E1.948
G1 X160.48 Y151.7 E1.9492
G1 X101.087 Y151.7 E2.8567
G1 X101.014 Y151.67 E2.8579
G1 X98.614 Y149.27 E2.9097
G1 X98.584 Y149.197 E2.9109
G1 X98.584 Y140.322 E3.0465
G1 X89.52 Y140.322 E3.185
G1 X89.446 Y140.291 E3.1862
G1 X87.047 Y137.892 E3.2381
G1 X87.016 Y137.818 E3.2393
G1 X87.016 Y126.925 E3.4057
G1 X87.047 Y126.852 E3.4069
G1 X89.446 Y124.452 E3.4588
G1 X89.52 Y124.422 E3.46
G1 X98.584 Y124.422 E3.5985
G1 X98.584 Y117.029 E3.7114
G1 X89.859 Y117.029 E3.8448
G1 X89.785 Y116.999 E3.846
G1 X87.386 Y114.599 E3.8978
G1 X87.355 Y114.526 E3.899
G1 X87.355 Y103.632 E4.0655
G1 X87.386 Y103.559 E4.0667
G1 X89.785 Y101.159 E4.1185
G92 E0
G1 E-1 F1800
G1 X94.047 Y107.521 F4800
G1 E0 F1800
G92 E0
G1 X93.829 Y107.726 E0.0046 F1500
G1 X93.644 Y107.961 E0.0091
G1 X93.496 Y108.222 E0.0137
G1 X93.388 Y108.501 E0.0183
G1 X93.323 Y108.793 E0.0229
G1 X93.303 Y109.092 E0.0274
G1 X93.327 Y109.39 E0.032
G1 X93.395 Y109.681 E0.0366
G1 X93.507 Y109.959 E0.0412
G1 X93.658 Y110.217 E0.0457
G1 X93.846 Y110.45 E0.0503
G1 X94.067 Y110.652 E0.0549
G1 X94.315 Y110.819 E0.0594
G1 X94.585 Y110.948 E0.064
G1 X94.872 Y111.034 E0.0686
G1 X95.168 Y111.077 E0.0732
G1 X95.467 Y111.075 E0.0777
G1 X95.76 Y111.029 E0.0823
G1 X96.04 Y110.943 E0.0867
G1 X96.317 Y110.807 E0.0915
G1 X96.563 Y110.637 E0.096
G1 X96.782 Y110.432 E0.1006
G1 X96.967 Y110.197 E0.1052
G1 X97.115 Y109.936 E0.1097
G1 X97.222 Y109.657 E0.1143
G1 X97.287 Y109.365 E0.1189
G1 X97.308 Y109.067 E0.1235
G1 X97.283 Y108.768 E0.128
G1 X97.215 Y108.477 E0.1326
G1 X97.104 Y108.199 E0.1372
G1 X96.953 Y107.941 E0.1417
G1 X96.764 Y107.708 E0.1463
G1 X96.544 Y107.506 E0.1509
G1 X96.296 Y107.339 E0.1555
G1 X96.025 Y107.211 E0.16
G1 X95.739 Y107.124 E0.1646
G1 X95.442 Y107.081 E0.1692
G1 X95.143 Y107.083 E0.1738
G1 X94.847 Y107.13 E0.1783
G1 X94.562 Y107.22 E0.1829
G1 X94.293 Y107.351 E0.1875
G1 X94.047 Y107.521 E0.192
G1 X94.299 Y107.833 F4800
G92 E0
G1 X94.125 Y107.997 E0.0037 F1200
G1 X93.977 Y108.185 E0.0073
G1 X93.858 Y108.393 E0.011
G1 X93.772 Y108.617 E0.0146
G1 X93.72 Y108.85 E0.0183
G1 X93.704 Y109.089 E0.0219
G1 X93.723 Y109.328 E0.0256
G1 X93.778 Y109.561 E0.0293
G1 X93.867 Y109.783 E0.0329
G1 X93.988 Y109.989 E0.0366
G1 X94.138 Y110.175 E0.0402
G1 X94.315 Y110.337 E0.0439
G1 X94.513 Y110.471 E0.0475
G1 X94.73 Y110.573 E0.0512
G1 X94.959 Y110.642 E0.0548
G1 X95.195 Y110.676 E0.0585
G1 X95.435 Y110.675 E0.0622
G1 X95.669 Y110.638 E0.0658
G1 X95.892 Y110.569 E0.0693
G1 X96.114 Y110.461 E0.0731
G1 X96.311 Y110.325 E0.0768
G1 X96.486 Y110.161 E0.0804
G1 X96.634 Y109.973 E0.0841
G1 X96.752 Y109.765 E0.0878
G1 X96.838 Y109.541 E0.0914
G1 X96.89 Y109.308 E0.0951
G1 X96.906 Y109.069 E0.0987
G1 X96.887 Y108.83 E0.1024
G1 X96.832 Y108.597 E0.106
G1 X96.743 Y108.375 E0.1097
G1 X96.623 Y108.169 E0.1134
G1 X96.472 Y107.983 E0.117
G1 X96.296 Y107.821 E0.1207
G1 X96.097 Y107.687 E0.1243
G1 X95.881 Y107.585 E0.128
G1 X95.652 Y107.516 E0.1316
G1 X95.415 Y107.482 E0.1353
G1 X95.176 Y107.483 E0.139
G1 X94.939 Y107.52 E0.1426
G1 X94.711 Y107.592 E0.1463
G1 X94.496 Y107.697 E0.1499
G1 X94.299 Y107.833 E0.1536
G1 X94.551 Y108.145 F4800
G92 E0
G1 X94.42 Y108.268 E0.0027 F900
G1 X94.309 Y108.409 E0.0055
G1 X94.221 Y108.565 E0.0082
G1 X94.156 Y108.732 E0.011
G1 X94.117 Y108.908 E0.0137
G1 X94.105 Y109.087 E0.0164
G1 X94.12 Y109.265 E0.0192
G1 X94.161 Y109.44 E0.0219
G1 X94.227 Y109.606 E0.0247
G1 X94.318 Y109.761 E0.0274
G1 X94.431 Y109.901 E0.0301
G1 X94.563 Y110.022 E0.0329
G1 X94.712 Y110.122 E0.0356
G1 X94.874 Y110.199 E0.0384
G1 X95.045 Y110.251 E0.0411
G1 X95.223 Y110.276 E0.0438
G1 X95.402 Y110.275 E0.0466
G1 X95.579 Y110.247 E0.0493
G1 X95.744 Y110.196 E0.052
G1 X95.912 Y110.115 E0.0548
G1 X96.059 Y110.013 E0.0576
G1 X96.19 Y109.89 E0.0603
G1 X96.301 Y109.749 E0.063
G1 X96.39 Y109.593 E0.0658
G1 X96.454 Y109.426 E0.0685
G1 X96.493 Y109.25 E0.0713
G1 X96.505 Y109.072 E0.074
G1 X96.491 Y108.893 E0.0767
G1 X96.45 Y108.718 E0.0795
G1 X96.383 Y108.552 E0.0822
G1 X96.293 Y108.397 E0.085
G1 X96.18 Y108.257 E0.0877
G1 X96.048 Y108.136 E0.0904
G1 X95.899 Y108.036 E0.0932
G1 X95.737 Y107.959 E0.0959
G1 X95.565 Y107.907 E0.0987
G1 X95.387 Y107.882 E0.1014
G1 X95.208 Y107.883 E0.1041
G1 X95.031 Y107.911 E0.1069
G1 X94.86 Y107.965 E0.1096
G1 X94.699 Y108.043 E0.1124
G1 X94.551 Y108.145 E0.1151
G1 X92.555 Y106.329 F4800
G92 E0
G1 X98.055 Y106.329 E0.084 F1500
G1 X98.055 Y111.829 E0.1681
G1 X92.555 Y111.829 E0.2521
G1 X92.555 Y106.329 E0.3361
G1 X92.155 Y105.929 F4800
G92 E0
G1 X98.455 Y105.929 E0.0963 F1200
G1 X98.455 Y112.229 E0.1925
G1 X92.155 Y112.229 E0.2888
G1 X92.155 Y105.929 E0.385
G1 X91.755 Y105.529 F4800
G92 E0
G1 X98.855 Y105.529 E0.1085 F900
G1 X98.855 Y112.629 E0.217
G1 X91.755 Y112.629 E0.3254
G1 X91.755 Y105.529 E0.4339
G1 X92.895 Y107.125 F4800
G92 E0
G1 X93.352 Y106.669 E0.0099 F1440
G1 X93.917 Y106.669 E0.0185
G1 X92.895 Y107.691 E0.0406
G1 X92.895 Y108.257 E0.0492
G1 X93.334 Y107.818 E0.0587
G1 X93.188 Y108.075 E0.0633
G1 X93.062 Y108.402 E0.0686
G1 X92.989 Y108.728 E0.0737
G1 X92.895 Y108.823 E0.0757
G1 X92.895 Y109.388 E0.0844
G1 X92.979 Y109.304 E0.0862
G1 X92.99 Y109.443 E0.0883
G1 X93.069 Y109.78 E0.0936
G1 X92.895 Y109.954 E0.0974
G1 X92.895 Y110.52 E0.106
G1 X93.239 Y110.175 E0.1135
G1 X93.377 Y110.411 E0.1176
G1 X93.463 Y110.517 E0.1197
G1 X92.895 Y111.085 E0.132
G1 X92.895 Y111.489 E0.1382
G1 X93.057 Y111.489 E0.1406
G1 X93.736 Y110.81 E0.1553
G1 X93.856 Y110.92 E0.1578
G1 X94.057 Y111.055 E0.1615
G1 X93.623 Y111.489 E0.1708
G1 X94.189 Y111.489 E0.1795
G1 X94.428 Y111.249 E0.1847
G1 X94.463 Y111.266 E0.1853
G1 X94.798 Y111.367 E0.1906
G1 X94.867 Y111.377 E0.1917
G1 X94.754 Y111.489 E0.1941
G1 X95.32 Y111.489 E0.2027
G1 X95.394 Y111.415 E0.2043
G1 X95.495 Y111.415 E0.2059
G1 X95.837 Y111.361 E0.2112
G1 X96.093 Y111.282 E0.2152
G1 X95.886 Y111.489 E0.2197
G1 X96.451 Y111.489 E0.2284
G1 X97.715 Y110.225 E0.2557
G1 X97.715 Y110.791 E0.2643
G1 X97.017 Y111.489 E0.2794
G1 X97.583 Y111.489 E0.288
G1 X97.715 Y111.356 E0.2909
G1 X97.715 Y111.489 E0.2929
G1 X97.583 Y111.489 E0.295
G1 X96.093 Y111.282 F4800
G92 E0
G1 X96.165 Y111.26 E0.0012 F1440
G1 X96.489 Y111.101 E0.0067
G1 X96.778 Y110.902 E0.012
G1 X97.033 Y110.662 E0.0174
G1 X97.25 Y110.387 E0.0227
G1 X97.423 Y110.083 E0.0281
G1 X97.505 Y109.87 E0.0316
G1 X97.715 Y109.659 E0.0361
G1 X97.715 Y109.094 E0.0448
G1 X97.641 Y109.168 E0.0463
G1 X97.648 Y109.064 E0.0479
G1 X97.62 Y108.715 E0.0533
G1 X97.603 Y108.641 E0.0545
G1 X97.715 Y108.528 E0.0569
G1 X97.715 Y107.962 E0.0655
G1 X97.472 Y108.205 E0.0708
G1 X97.41 Y108.049 E0.0733
G1 X97.282 Y107.83 E0.0772
G1 X97.715 Y107.397 E0.0866
G1 X97.715 Y106.831 E0.0952
G1 X97.039 Y107.507 E0.1098
G1 X97.013 Y107.474 E0.1105
G1 X96.755 Y107.238 E0.1158
G1 X96.748 Y107.233 E0.116
G1 X97.311 Y106.669 E0.1281
G1 X96.746 Y106.669 E0.1368
G1 X96.402 Y107.013 E0.1442
G1 X96.148 Y106.892 E0.1485
G1 X96.001 Y106.848 E0.1509
G1 X96.18 Y106.669 E0.1547
G1 X95.614 Y106.669 E0.1634
G1 X95.533 Y106.751 E0.1651
G1 X95.466 Y106.741 E0.1662
G1 X95.115 Y106.743 E0.1715
G1 X94.948 Y106.77 E0.1741
G1 X95.049 Y106.669 E0.1763
G1 X94.483 Y106.669 E0.1849
G1 X94.037 Y107.115 E0.1946
G92 E0
G1 E-1 F1800
G1 X104.919 Y106.124 F4800
G1 E0 F1800
G92 E0
G1 X104.919 Y128.124 E0.3361 F1500
G1 X108.919 Y128.124 E0.3973
G1 X108.919 Y106.124 E0.7334
G1 X104.919 Y106.124 E0.7945
G1 X105.319 Y106.524 F4800
G92 E0
G1 X105.319 Y127.724 E0.3239 F1200
G1 X108.519 Y127.724 E0.3728
G1 X108.519 Y106.524 E0.6967
G1 X105.319 Y106.524 E0.7456
G1 X105.719 Y106.924 F4800
G92 E0
G1 X105.719 Y127.324 E0.3117 F900
G1 X108.119 Y127.324 E0.3484
G1 X108.119 Y106.924 E0.66
G1 X105.719 Y106.924 E0.6967
G1 X152.973 Y106.395 F4800
G92 E0
G1 X152.973 Y128.395 E0.3361 F1500
G1 X156.973 Y128.395 E0.3972
G1 X156.973 Y106.395 E0.7334
G1 X152.973 Y106.395 E0.7945
G1 X153.373 Y106.795 F4800
G92 E0
G1 X153.373 Y127.995 E0.3239 F1200
G1 X156.573 Y127.995 E0.3728
G1 X156.573 Y106.795 E0.6967
G1 X153.373 Y106.795 E0.7456
G1 X153.773 Y107.195 F4800
G92 E0
G1 X153.773 Y127.595 E0.3117 F900
G1 X156.173 Y127.595 E0.3484
G1 X156.173 Y107.195 E0.66
G1 X153.773 Y107.195 E0.6967
G1 X103.784 Y103.5 F4800
G92 E0
G1 X157.784 Y103.5 E0.8251 F1500
G1 X157.784 Y146.5 E1.4821
G1 X103.784 Y146.5 E2.3071
G1 X103.784 Y103.5 E2.9641
G1 X103.384 Y103.1 F4800
G92 E0
G1 X158.184 Y103.1 E0.8373 F1200
G1 X158.184 Y146.9 E1.5065
G1 X103.384 Y146.9 E2.3438
G1 X103.384 Y103.1 E3.013
G1 X102.984 Y102.7 F4800
G92 E0
G1 X158.584 Y102.7 E0.8495 F900
G1 X158.584 Y147.3 E1.5309
G1 X102.984 Y147.3 E2.3804
G1 X102.984 Y102.7 E3.0619
G1 X104.124 Y104.382 F4800
G92 E0
G1 X104.666 Y103.84 E0.0117 F1440
G1 X105.232 Y103.84 E0.0204
G1 X104.124 Y104.948 E0.0443
G1 X104.124 Y105.514 E0.0529
G1 X105.797 Y103.84 E0.0891
G1 X106.363 Y103.84 E0.0978
G1 X104.124 Y106.079 E0.1461
G1 X104.124 Y106.645 E0.1548
G1 X104.579 Y106.19 E0.1646
G1 X104.579 Y106.755 E0.1733
G1 X104.124 Y107.211 E0.1831
G1 X104.124 Y107.776 E0.1917
G1 X104.579 Y107.321 E0.2016
G1 X104.579 Y107.887 E0.2102
G1 X104.124 Y108.342 E0.2201
G1 X104.124 Y108.908 E0.2287
G1 X104.579 Y108.452 E0.2385
G1 X104.579 Y109.018 E0.2472
G1 X104.124 Y109.473 E0.257
G1 X104.124 Y110.039 E0.2657
G1 X104.579 Y109.584 E0.2755
