; G-Code generated by Simplify3D(TM) Version 2.2.0
; Dec 27, 2014 at 4:00:07 PM
; Settings Summary
;   processName,PLA_Fast
;   applyToModels,Base_servo_guide
;   profileLabel,-- Select Printer Profile --
;   printMaterial,PLA
;   printQuality,Fast
;   extruderName,Extruder 1
;   extruderToolheadNumber,0
;   extruderDiameter,0.4
;   extruderAutoWidth,0
;   extruderWidth,0.4
;   extrusionMultiplier,0.9
;   extruderUseRetract,1
;   extruderRetractionDistance,1
;   extruderExtraRestartDistance,0
;   extruderRetractionZLift,0
;   extruderRetractionSpeed,1800
;   extruderUseCoasting,0
;   extruderCoastingDistance,0.2
;   extruderUseWipe,0
;   extruderWipeDistance,5
;   primaryExtruder,0
;   layerHeight,0.3
;   topSolidLayers,3
;   bottomSolidLayers,3
;   perimeterOutlines,4
;   printPerimetersInsideOut,1
;   startPointOption,2
;   startPointOriginX,0
;   startPointOriginY,0
;   startPointOriginZ,300
;   sequentialIslands,0
;   spiralVaseMode,0
;   firstLayerHeightPercentage,90
;   firstLayerWidthPercentage,100
;   firstLayerUnderspeed,0.5
;   useRaft,0
;   raftExtruder,0
;   raftLayers,3
;   raftOffset,3
;   raftSeparationDistance,0.14
;   raftInfill,85
;   disableRaftBaseLayers,0
;   useSkirt,1
;   skirtExtruder,0
;   skirtLayers,1
;   skirtOutlines,4
;   skirtOffset,4
;   infillExtruder,0
;   externalInfillPattern,Rectilinear
;   infillPercentage,15
;   outlineOverlapPercentage,15
;   infillExtrusionWidthPercentage,100
;   minInfillLength,6
;   infillLayerInterval,1
;   randomInfillStartPoint,0
;   infillAngles,45,-45
;   generateSupport,1
;   supportExtruder,0
;   supportInfill,25
;   supportExtraInflation,0
;   denseSupportLayers,0
;   denseSupportInfill,50
;   supportLayerInterval,1
;   supportHorizontalPartOffset,0.5
;   supportUpperSeparationLayers,1
;   supportLowerSeparationLayers,1
;   supportGridSpacing,4
;   maxOverhangAngle,45
;   supportAngles,0
;   temperatureName,Extruder 1 Temperature,Heated Bed
;   temperatureNumber,0,0
;   temperatureSetpointCount,1,1
;   temperatureSetpointLayers,1,1
;   temperatureSetpointTemperatures,190,60
;   temperatureStabilizeAtStartup,1,1
;   temperatureHeatedBed,0,1
;   temperatureRelayBetweenLayers,0,0
;   temperatureRelayBetweenLoops,0,0
;   fanLayers,1,2
;   fanSpeeds,0,100
;   blipFanToFullPower,0
;   adjustSpeedForCooling,1
;   minSpeedLayerTime,15
;   minCoolingSpeedSlowdown,20
;   increaseFanForCooling,0
;   minFanLayerTime,45
;   maxCoolingFanSpeed,100
;   increaseFanForBridging,0
;   bridgingFanSpeed,100
;   use5D,0
;   relativeEdistances,0
;   allowEaxisZeroing,1
;   independentExtruderAxes,0
;   includeM10123,0
;   stickySupport,1
;   detectArcs,0
;   arcReplaceG2G3,0
;   arcRadialCompensation,1
;   gcodeXoffset,0
;   gcodeYoffset,0
;   gcodeZoffset,0
;   overrideMachineDefinition,0
;   machineTypeOverride,0
;   strokeXoverride,250
;   strokeYoverride,250
;   strokeZoverride,250
;   originOffsetXoverride,0
;   originOffsetYoverride,0
;   originOffsetZoverride,0
;   homeXdirOverride,-1
;   homeYdirOverride,-1
;   homeZdirOverride,-1
;   flipXoverride,1
;   flipYoverride,-1
;   flipZoverride,1
;   startingGcode,G28 ; home all axes
;   layerChangeGcode,
;   toolChangeGcode,
;   endingGcode,M104 S0 ; turn off extruder,M140 S0 ; turn off bed,M84 ; disable motors,G28 ; home all axes
;   createX3G,0
;   celebration,0
;   celebrationSong,Random Song
;   createMB5G,0
;   postProcessing,
;   defaultSpeed,4000
;   outlineUnderspeed,0.5
;   solidInfillUnderspeed,0.8
;   supportUnderspeed,0.8
;   rapidXYspeed,4800
;   rapidZspeed,1000
;   minBridgingArea,50
;   bridgingExtrusionMultiplier,1
;   bridgingSpeedMultiplier,1
;   filamentDiameter,3
;   filamentPricePerKg,46
;   useMinPrintHeight,0
;   minPrintHeight,0
;   useMaxPrintHeight,0
;   maxPrintHeight,0
;   useDiaphragm,0
;   diaphragmLayerInterval,20
;   robustSlicing,1
;   mergeAllIntoSolid,0
;   onlyRetractWhenCrossingOutline,1
;   retractBetweenLayers,1
;   useRetractionMinTravel,0
;   retractionMinTravel,3
;   useRetractionOozeRate,0
;   retractionOozeRate,100
;   onlyWipeOutlines,1
;   toolChangeRetractionDistance,12
;   toolChangeExtraRestartDistance,-0.5
;   toolChangeRetractionSpeed,600
;   allowThinWallGapFill,1
;   thinWallAllowedOverlapPercentage,10
G90
M82
M106 S0
M140 S60
M190 S60
M104 S190 T0
M109 S190 T0
G28 ; home all axes
G92 E0
G1 E-1 F1800
; layer 1, Z = 0.27
T0
; tool H0.3 W0.4
G1 X71.12 Y70.992 F4800
G1 Z0.27 F1000
G1 E0 F540
G92 E0
G1 X71.635 Y70.779 F2000
G1 X83.006 Y70.779
G1 X83.52 Y70.992
G1 X86.257 Y73.729
G1 X86.47 Y74.243
G1 X86.47 Y85.614
G1 X86.257 Y86.128
G1 X83.52 Y88.865
G1 X83.006 Y89.079
G1 X71.635 Y89.079
G1 X71.12 Y88.865
G1 X68.383 Y86.128
G1 X68.17 Y85.614
G1 X68.17 Y74.243
G1 X68.383 Y73.729
G1 X71.12 Y70.992
G1 X90.454 Y76.886 F4800
G92 E0
G1 X90.667 Y76.372 F2000
G1 X93.404 Y73.635
G1 X93.919 Y73.421
G1 X153.789 Y73.421
G1 X154.304 Y73.635
G1 X157.041 Y76.372
G1 X157.254 Y76.886
G1 X157.254 Y125.757
G1 X157.041 Y126.271
G1 X154.304 Y129.008
G1 X153.789 Y129.221
G1 X93.919 Y129.221
G1 X93.404 Y129.008
G1 X90.667 Y126.271
G1 X90.454 Y125.757
G1 X90.454 Y76.886
G92 E0
G1 E-1 F1800
G1 X60.833 Y97.474 F4800
G1 E0 F1800
G92 E0
G1 X61.046 Y97.989 F2000
G1 X61.046 Y109.359
G1 X60.833 Y109.874
G1 X58.096 Y112.611
G1 X57.581 Y112.824
G1 X46.211 Y112.824
G1 X45.696 Y112.611
G1 X42.959 Y109.874
G1 X42.746 Y109.359
G1 X42.746 Y97.989
G1 X42.959 Y97.474
G1 X45.696 Y94.737
G1 X46.211 Y94.524
G1 X57.581 Y94.524
G1 X58.096 Y94.737
G1 X60.833 Y97.474
G1 X60.494 Y97.701 F4800
G92 E0
G1 X60.646 Y98.068 F2000
G1 X60.646 Y109.28
G1 X60.494 Y109.647
G1 X57.869 Y112.272
G1 X57.502 Y112.424
G1 X46.29 Y112.424
G1 X45.923 Y112.272
G1 X43.298 Y109.647
G1 X43.146 Y109.28
G1 X43.146 Y98.068
G1 X43.298 Y97.701
G1 X45.923 Y95.076
G1 X46.29 Y94.924
G1 X57.502 Y94.924
G1 X57.869 Y95.076
G1 X60.494 Y97.701
G1 X71.347 Y88.526 F4800
G92 E0
G1 X68.722 Y85.902 F2000
G1 X68.57 Y85.534
G1 X68.57 Y74.323
G1 X68.722 Y73.955
G1 X71.347 Y71.331
G1 X71.714 Y71.179
G1 X82.926 Y71.179
G1 X83.294 Y71.331
G1 X85.918 Y73.955
G1 X86.07 Y74.323
G1 X86.07 Y85.534
G1 X85.918 Y85.902
G1 X83.294 Y88.526
G1 X82.926 Y88.679
G1 X71.714 Y88.679
G1 X71.347 Y88.526
G92 E0
G1 E-1 F1800
G1 X90.854 Y76.966 F4800
G1 E0 F1800
G92 E0
G1 X91.006 Y76.598 F2000
G1 X93.631 Y73.974
G1 X93.998 Y73.821
G1 X153.71 Y73.821
G1 X154.077 Y73.974
G1 X156.702 Y76.598
G1 X156.854 Y76.966
G1 X156.854 Y125.677
G1 X156.702 Y126.045
G1 X154.077 Y128.669
G1 X153.71 Y128.821
G1 X93.998 Y128.821
G1 X93.631 Y128.669
G1 X91.006 Y126.045
G1 X90.854 Y125.677
G1 X90.854 Y76.966
G1 X91.254 Y77.045 F4800
G92 E0
G1 X91.345 Y76.825 F2000
G1 X93.857 Y74.313
G1 X94.078 Y74.221
G1 X153.63 Y74.221
G1 X153.851 Y74.313
G1 X156.363 Y76.825
G1 X156.454 Y77.045
G1 X156.454 Y125.598
G1 X156.363 Y125.818
G1 X153.851 Y128.33
G1 X153.63 Y128.421
G1 X94.078 Y128.421
G1 X93.857 Y128.33
G1 X91.345 Y125.818
G1 X91.254 Y125.598
G1 X91.254 Y77.045
G1 X85.67 Y74.402 F4800
G92 E0
G1 X85.67 Y85.455 F2000
G1 X85.579 Y85.675
G1 X83.067 Y88.187
G1 X82.846 Y88.279
G1 X71.794 Y88.279
G1 X71.574 Y88.187
G1 X69.062 Y85.675
G1 X68.97 Y85.455
G1 X68.97 Y74.402
G1 X69.062 Y74.182
G1 X71.574 Y71.67
G1 X71.794 Y71.579
G1 X82.846 Y71.579
G1 X83.067 Y71.67
G1 X85.579 Y74.182
G1 X85.67 Y74.402
G92 E0
G1 E-1 F1800
G1 X60.155 Y97.927 F4800
G1 E0 F1800
G92 E0
G1 X60.246 Y98.148 F2000
G1 X60.246 Y109.2
G1 X60.155 Y109.421
G1 X57.643 Y111.933
G1 X57.422 Y112.024
G1 X46.37 Y112.024
G1 X46.149 Y111.933
G1 X43.637 Y109.421
G1 X43.546 Y109.2
G1 X43.546 Y98.148
G1 X43.637 Y97.927
G1 X46.149 Y95.415
G1 X46.37 Y95.324
G1 X57.422 Y95.324
G1 X57.643 Y95.415
G1 X60.155 Y97.927
G1 X59.816 Y98.154 F4800
G92 E0
G1 X59.846 Y98.227 F2000
G1 X59.846 Y109.121
G1 X59.816 Y109.194
G1 X57.416 Y111.594
G1 X57.343 Y111.624
G1 X46.45 Y111.624
G1 X46.376 Y111.594
G1 X43.977 Y109.194
G1 X43.946 Y109.121
G1 X43.946 Y98.227
G1 X43.977 Y98.154
G1 X46.376 Y95.754
G1 X46.45 Y95.724
G1 X57.343 Y95.724
G1 X57.416 Y95.754
G1 X59.816 Y98.154
G1 X71.8 Y87.848 F4800
G92 E0
G1 X69.401 Y85.449 F2000
G1 X69.37 Y85.375
G1 X69.37 Y74.482
G1 X69.401 Y74.408
G1 X71.8 Y72.009
G1 X71.874 Y71.979
G1 X82.767 Y71.979
G1 X82.84 Y72.009
G1 X85.24 Y74.408
G1 X85.27 Y74.482
G1 X85.27 Y85.375
G1 X85.24 Y85.449
G1 X82.84 Y87.848
G1 X82.767 Y87.879
G1 X71.874 Y87.879
G1 X71.8 Y87.848
G92 E0
G1 E-1 F1800
G1 X91.654 Y77.125 F4800
G1 E0 F1800
G92 E0
G1 X91.684 Y77.051 F2000
G1 X94.084 Y74.652
G1 X94.157 Y74.621
G1 X153.55 Y74.621
G1 X153.624 Y74.652
G1 X156.023 Y77.051
G1 X156.054 Y77.125
G1 X156.054 Y125.518
G1 X156.023 Y125.592
G1 X153.624 Y127.991
G1 X153.55 Y128.021
G1 X94.157 Y128.021
G1 X94.084 Y127.991
G1 X91.684 Y125.592
G1 X91.654 Y125.518
G1 X91.654 Y77.125
G92 E0
G1 E-1 F1800
G1 X97.254 Y80.221 F4800
G1 E0 F1800
G92 E0
G1 X150.454 Y80.221 F1750
G1 X150.454 Y122.421
G1 X97.254 Y122.421
G1 X97.254 Y80.221
G1 X96.854 Y79.821 F4800
G92 E0
G1 X150.854 Y79.821 F1500
G1 X150.854 Y122.821
G1 X96.854 Y122.821
G1 X96.854 Y79.821
G1 X96.454 Y79.421 F4800
G92 E0
G1 X151.254 Y79.421 F1250
G1 X151.254 Y123.221
G1 X96.454 Y123.221
G1 X96.454 Y79.421
G1 X96.054 Y79.021 F4800
G92 E0
G1 X151.654 Y79.021 F1000
G1 X151.654 Y123.621
G1 X96.054 Y123.621
G1 X96.054 Y79.021
G1 X97.594 Y81.119 F4800
G92 E0
G1 X98.151 Y80.561 F1600
G1 X98.717 Y80.561
G1 X97.594 Y81.684
G1 X97.594 Y82.25
G1 X99.282 Y80.561
G1 X99.848 Y80.561
G1 X97.594 Y82.816
G1 X97.594 Y83.381
G1 X100.414 Y80.561
G1 X100.979 Y80.561
G1 X97.594 Y83.947
G1 X97.594 Y84.513
G1 X101.545 Y80.561
G1 X102.111 Y80.561
G1 X97.594 Y85.078
G1 X97.594 Y85.644
G1 X102.676 Y80.561
G1 X103.242 Y80.561
G1 X97.594 Y86.21
G1 X97.594 Y86.775
G1 X103.808 Y80.561
G1 X104.373 Y80.561
G1 X97.594 Y87.341
G1 X97.594 Y87.907
G1 X104.939 Y80.561
G1 X105.505 Y80.561
G1 X97.594 Y88.472
G1 X97.594 Y89.038
G1 X106.071 Y80.561
G1 X106.636 Y80.561
G1 X97.594 Y89.604
G1 X97.594 Y90.169
G1 X107.202 Y80.561
G1 X107.768 Y80.561
G1 X97.594 Y90.735
G1 X97.594 Y91.301
G1 X108.333 Y80.561
G1 X108.899 Y80.561
G1 X97.594 Y91.867
G1 X97.594 Y92.432
G1 X109.465 Y80.561
G1 X110.03 Y80.561
G1 X97.594 Y92.998
G1 X97.594 Y93.564
G1 X110.596 Y80.561
G1 X111.162 Y80.561
G1 X97.594 Y94.129
G1 X97.594 Y94.695
G1 X111.727 Y80.561
G1 X112.293 Y80.561
G1 X97.594 Y95.261
G1 X97.594 Y95.826
G1 X112.859 Y80.561
G1 X113.424 Y80.561
G1 X97.594 Y96.392
G1 X97.594 Y96.958
G1 X113.99 Y80.561
G1 X114.556 Y80.561
G1 X97.594 Y97.523
G1 X97.594 Y98.089
G1 X115.121 Y80.561
G1 X115.687 Y80.561
G1 X97.594 Y98.655
G1 X97.594 Y99.22
G1 X116.253 Y80.561
G1 X116.819 Y80.561
G1 X97.594 Y99.786
G1 X97.594 Y100.352
G1 X117.384 Y80.561
G1 X117.95 Y80.561
G1 X97.594 Y100.917
G1 X97.594 Y101.483
G1 X118.516 Y80.561
G1 X119.081 Y80.561
G1 X97.594 Y102.049
G1 X97.594 Y102.615
G1 X119.647 Y80.561
G1 X120.213 Y80.561
G1 X97.594 Y103.18
G1 X97.594 Y103.746
G1 X120.778 Y80.561
G1 X121.344 Y80.561
G1 X97.594 Y104.312
G1 X97.594 Y104.877
G1 X121.91 Y80.561
G1 X122.475 Y80.561
G1 X97.594 Y105.443
G1 X97.594 Y106.009
G1 X123.041 Y80.561
G1 X123.607 Y80.561
G1 X97.594 Y106.574
G1 X97.594 Y107.14
G1 X124.172 Y80.561
G1 X124.738 Y80.561
G1 X97.594 Y107.706
G1 X97.594 Y108.271
G1 X125.304 Y80.561
G1 X125.87 Y80.561
G1 X97.594 Y108.837
G1 X97.594 Y109.403
G1 X126.435 Y80.561
G1 X127.001 Y80.561
G1 X97.594 Y109.968
G1 X97.594 Y110.534
G1 X127.567 Y80.561
G1 X128.132 Y80.561
G1 X97.594 Y111.1
G1 X97.594 Y111.666
G1 X128.698 Y80.561
G1 X129.264 Y80.561
G1 X97.594 Y112.231
G1 X97.594 Y112.797
G1 X129.829 Y80.561
G1 X130.395 Y80.561
G1 X97.594 Y113.363
G1 X97.594 Y113.928
G1 X130.961 Y80.561
G1 X131.526 Y80.561
G1 X97.594 Y114.494
G1 X97.594 Y115.06
G1 X132.092 Y80.561
G1 X132.658 Y80.561
G1 X97.594 Y115.625
G1 X97.594 Y116.191
G1 X133.223 Y80.561
G1 X133.789 Y80.561
G1 X97.594 Y116.757
G1 X97.594 Y117.322
G1 X134.355 Y80.561
G1 X134.92 Y80.561
G1 X97.594 Y117.888
G1 X97.594 Y118.454
G1 X135.486 Y80.561
G1 X136.052 Y80.561
G1 X97.594 Y119.019
G1 X97.594 Y119.585
G1 X136.618 Y80.561
G1 X137.183 Y80.561
G1 X97.594 Y120.151
G1 X97.594 Y120.716
G1 X137.749 Y80.561
G1 X138.315 Y80.561
G1 X97.594 Y121.282
G1 X97.594 Y121.848
G1 X138.88 Y80.561
G1 X139.446 Y80.561
G1 X97.926 Y122.081
G1 X98.492 Y122.081
G1 X140.012 Y80.561
G1 X140.577 Y80.561
G1 X99.057 Y122.081
G1 X99.623 Y122.081
G1 X141.143 Y80.561
G1 X141.709 Y80.561
G1 X100.189 Y122.081
G1 X100.754 Y122.081
G1 X142.274 Y80.561
G1 X142.84 Y80.561
G1 X101.32 Y122.081
G1 X101.886 Y122.081
G1 X143.406 Y80.561
G1 X143.971 Y80.561
G1 X102.451 Y122.081
G1 X103.017 Y122.081
G1 X144.537 Y80.561
G1 X145.103 Y80.561
G1 X103.583 Y122.081
G1 X104.149 Y122.081
G1 X145.669 Y80.561
G1 X146.234 Y80.561
G1 X104.714 Y122.081
G1 X105.28 Y122.081
G1 X146.8 Y80.561
G1 X147.366 Y80.561
G1 X105.846 Y122.081
G1 X106.411 Y122.081
G1 X147.931 Y80.561
G1 X148.497 Y80.561
G1 X106.977 Y122.081
G1 X107.543 Y122.081
G1 X149.063 Y80.561
G1 X149.628 Y80.561
G1 X108.108 Y122.081
G1 X108.674 Y122.081
G1 X150.114 Y80.642
G1 X150.114 Y81.207
G1 X109.24 Y122.081
G1 X109.805 Y122.081
G1 X150.114 Y81.773
G1 X150.114 Y82.339
G1 X110.371 Y122.081
G1 X110.937 Y122.081
G1 X150.114 Y82.904
G1 X150.114 Y83.47
G1 X111.502 Y122.081
G1 X112.068 Y122.081
G1 X150.114 Y84.036
G1 X150.114 Y84.601
G1 X112.634 Y122.081
G1 X113.199 Y122.081
G1 X150.114 Y85.167
G1 X150.114 Y85.733
G1 X113.765 Y122.081
G1 X114.331 Y122.081
G1 X150.114 Y86.298
G1 X150.114 Y86.864
G1 X114.897 Y122.081
G1 X115.462 Y122.081
G1 X150.114 Y87.43
G1 X150.114 Y87.995
G1 X116.028 Y122.081
G1 X116.594 Y122.081
G1 X150.114 Y88.561
G1 X150.114 Y89.127
G1 X117.159 Y122.081
G1 X117.725 Y122.081
G1 X150.114 Y89.693
G1 X150.114 Y90.258
G1 X118.291 Y122.081
G1 X118.856 Y122.081
G1 X150.114 Y90.824
G1 X150.114 Y91.39
G1 X119.422 Y122.081
G1 X119.988 Y122.081
G1 X150.114 Y91.955
G1 X150.114 Y92.521
G1 X120.553 Y122.081
G1 X121.119 Y122.081
G1 X150.114 Y93.087
G1 X150.114 Y93.652
G1 X121.685 Y122.081
G1 X122.25 Y122.081
G1 X150.114 Y94.218
G1 X150.114 Y94.784
G1 X122.816 Y122.081
G1 X123.382 Y122.081
G1 X150.114 Y95.349
G1 X150.114 Y95.915
G1 X123.947 Y122.081
G1 X124.513 Y122.081
G1 X150.114 Y96.481
G1 X150.114 Y97.046
G1 X125.079 Y122.081
G1 X125.645 Y122.081
G1 X150.114 Y97.612
G1 X150.114 Y98.178
G1 X126.21 Y122.081
G1 X126.776 Y122.081
G1 X150.114 Y98.743
G1 X150.114 Y99.309
G1 X127.342 Y122.081
G1 X127.907 Y122.081
G1 X150.114 Y99.875
G1 X150.114 Y100.441
G1 X128.473 Y122.081
G1 X129.039 Y122.081
G1 X150.114 Y101.006
G1 X150.114 Y101.572
G1 X129.604 Y122.081
G1 X130.17 Y122.081
G1 X150.114 Y102.138
G1 X150.114 Y102.703
G1 X130.736 Y122.081
G1 X131.301 Y122.081
G1 X150.114 Y103.269
G1 X150.114 Y103.835
G1 X131.867 Y122.081
G1 X132.433 Y122.081
G1 X150.114 Y104.4
G1 X150.114 Y104.966
G1 X132.998 Y122.081
G1 X133.564 Y122.081
G1 X150.114 Y105.532
G1 X150.114 Y106.097
G1 X134.13 Y122.081
G1 X134.696 Y122.081
G1 X150.114 Y106.663
G1 X150.114 Y107.229
G1 X135.261 Y122.081
G1 X135.827 Y122.081
G1 X150.114 Y107.794
G1 X150.114 Y108.36
G1 X136.393 Y122.081
G1 X136.958 Y122.081
G1 X150.114 Y108.926
G1 X150.114 Y109.492
G1 X137.524 Y122.081
G1 X138.09 Y122.081
G1 X150.114 Y110.057
G1 X150.114 Y110.623
G1 X138.655 Y122.081
G1 X139.221 Y122.081
G1 X150.114 Y111.189
G1 X150.114 Y111.754
G1 X139.787 Y122.081
G1 X140.352 Y122.081
G1 X150.114 Y112.32
G1 X150.114 Y112.886
G1 X140.918 Y122.081
G1 X141.484 Y122.081
G1 X150.114 Y113.451
G1 X150.114 Y114.017
G1 X142.049 Y122.081
G1 X142.615 Y122.081
G1 X150.114 Y114.583
G1 X150.114 Y115.148
G1 X143.181 Y122.081
G1 X143.746 Y122.081
G1 X150.114 Y115.714
G1 X150.114 Y116.28
G1 X144.312 Y122.081
G1 X144.878 Y122.081
G1 X150.114 Y116.845
G1 X150.114 Y117.411
G1 X145.444 Y122.081
G1 X146.009 Y122.081
G1 X150.114 Y117.977
G1 X150.114 Y118.542
G1 X146.575 Y122.081
G1 X147.141 Y122.081
G1 X150.114 Y119.108
G1 X150.114 Y119.674
G1 X147.706 Y122.081
G1 X148.272 Y122.081
G1 X150.114 Y120.24
G1 X150.114 Y120.805
G1 X148.838 Y122.081
G1 X149.403 Y122.081
G1 X150.114 Y121.371
G1 X150.114 Y121.937
G1 X149.969 Y122.081
G1 X150.114 Y122.081
G1 X150.114 Y121.937
G92 E0
G1 E-1 F1800
G1 X79.67 Y82.279 F4800
G1 E0 F1800
G92 E0
