; G-Code generated by Simplify3D(TM) Version 2.2.0
; Dec 28, 2014 at 1:36:56 PM
; Settings Summary
;   processName,PLA Fast
;   applyToModels,Base_servo_guide_one_piece
;   profileLabel,-- Select Printer Profile --
;   printMaterial,PLA
;   printQuality,Fast
;   extruderName,Extruder 1
;   extruderToolheadNumber,0
;   extruderDiameter,0.4
;   extruderAutoWidth,1
;   extruderWidth,0.48
;   extrusionMultiplier,0.9
;   extruderUseRetract,1
;   extruderRetractionDistance,1
;   extruderExtraRestartDistance,0
;   extruderRetractionZLift,0
;   extruderRetractionSpeed,1800
;   extruderUseCoasting,0
;   extruderCoastingDistance,0.2
;   extruderUseWipe,0
;   extruderWipeDistance,5
;   primaryExtruder,0
;   layerHeight,0.3
;   topSolidLayers,3
;   bottomSolidLayers,3
;   perimeterOutlines,3
;   printPerimetersInsideOut,1
;   startPointOption,2
;   startPointOriginX,0
;   startPointOriginY,0
;   startPointOriginZ,300
;   sequentialIslands,0
;   spiralVaseMode,0
;   firstLayerHeightPercentage,90
;   firstLayerWidthPercentage,100
;   firstLayerUnderspeed,0.5
;   useRaft,0
;   raftExtruder,0
;   raftLayers,3
;   raftOffset,3
;   raftSeparationDistance,0.14
;   raftInfill,85
;   disableRaftBaseLayers,0
;   useSkirt,1
;   skirtExtruder,0
;   skirtLayers,1
;   skirtOutlines,4
;   skirtOffset,10
;   infillExtruder,0
;   externalInfillPattern,Rectilinear
;   infillPercentage,15
;   outlineOverlapPercentage,15
;   infillExtrusionWidthPercentage,100
;   minInfillLength,5
;   infillLayerInterval,1
;   randomInfillStartPoint,0
;   infillAngles,45,-45
;   generateSupport,1
;   supportExtruder,0
;   supportInfill,25
;   supportExtraInflation,0
;   denseSupportLayers,0
;   denseSupportInfill,70
;   supportLayerInterval,1
;   supportHorizontalPartOffset,0.3
;   supportUpperSeparationLayers,1
;   supportLowerSeparationLayers,1
;   supportGridSpacing,4
;   maxOverhangAngle,45
;   supportAngles,0
;   temperatureName,Extruder 1 Temperature,Heated Bed
;   temperatureNumber,0,0
;   temperatureSetpointCount,1,1
;   temperatureSetpointLayers,1,1
;   temperatureSetpointTemperatures,190,60
;   temperatureStabilizeAtStartup,1,1
;   temperatureHeatedBed,0,1
;   temperatureRelayBetweenLayers,0,0
;   temperatureRelayBetweenLoops,0,0
;   fanLayers,1,2
;   fanSpeeds,0,100
;   blipFanToFullPower,0
;   adjustSpeedForCooling,1
;   minSpeedLayerTime,15
;   minCoolingSpeedSlowdown,20
;   increaseFanForCooling,0
;   minFanLayerTime,45
;   maxCoolingFanSpeed,100
;   increaseFanForBridging,0
;   bridgingFanSpeed,100
;   use5D,1
;   relativeEdistances,0
;   allowEaxisZeroing,1
;   independentExtruderAxes,0
;   includeM10123,0
;   stickySupport,1
;   detectArcs,0
;   arcReplaceG2G3,0
;   arcRadialCompensation,1
;   gcodeXoffset,0
;   gcodeYoffset,0
;   gcodeZoffset,0
;   overrideMachineDefinition,0
;   machineTypeOverride,0
;   strokeXoverride,250
;   strokeYoverride,250
;   strokeZoverride,250
;   originOffsetXoverride,0
;   originOffsetYoverride,0
;   originOffsetZoverride,0
;   homeXdirOverride,-1
;   homeYdirOverride,-1
;   homeZdirOverride,-1
;   flipXoverride,1
;   flipYoverride,-1
;   flipZoverride,1
;   startingGcode,G28 ; home all axes
;   layerChangeGcode,
;   toolChangeGcode,
;   endingGcode,M104 S0 ; turn off extruder,M140 S0 ; turn off bed,M84 ; disable motors,G28 ; home all axes
;   createX3G,0
;   celebration,0
;   celebrationSong,Random Song
;   createMB5G,0
;   postProcessing,
;   defaultSpeed,6000
;   outlineUnderspeed,0.5
;   solidInfillUnderspeed,0.8
;   supportUnderspeed,0.8
;   rapidXYspeed,10000
;   rapidZspeed,1000
;   minBridgingArea,50
;   bridgingExtrusionMultiplier,1
;   bridgingSpeedMultiplier,1
;   filamentDiameter,3
;   filamentPricePerKg,46
;   useMinPrintHeight,0
;   minPrintHeight,0
;   useMaxPrintHeight,0
;   maxPrintHeight,0
;   useDiaphragm,0
;   diaphragmLayerInterval,20
;   robustSlicing,1
;   mergeAllIntoSolid,0
;   onlyRetractWhenCrossingOutline,1
;   retractBetweenLayers,1
;   useRetractionMinTravel,0
;   retractionMinTravel,3
;   useRetractionOozeRate,0
;   retractionOozeRate,100
;   onlyWipeOutlines,1
;   toolChangeRetractionDistance,12
;   toolChangeExtraRestartDistance,-0.5
;   toolChangeRetractionSpeed,600
;   allowThinWallGapFill,1
;   thinWallAllowedOverlapPercentage,10
G90
M82
M106 S0
M140 S60
M190 S60
M104 S190 T0
M109 S190 T0
G28 ; home all axes
G92 E0
G1 E-1 F1800
; layer 1, Z = 0.27
T0
; tool H0.3 W0.48
G1 X91.906 Y91.076 F10000
G1 Z0.27 F1000
G1 E0 F540
G92 E0
G1 X92.524 Y90.82 E0.0123 F3000
G1 X157.476 Y90.82 E1.2031
G1 X158.094 Y91.076 E1.2154
G1 X164.424 Y97.406 E1.3795
G1 X164.68 Y98.024 E1.3918
G1 X164.68 Y151.976 E2.381
G1 X164.424 Y152.594 E2.3932
G1 X158.094 Y158.924 E2.5574
G1 X157.476 Y159.18 E2.5696
G1 X92.524 Y159.18 E3.7605
G1 X91.906 Y158.924 E3.7728
G1 X85.576 Y152.594 E3.9369
G1 X85.32 Y151.976 E3.9492
G1 X85.32 Y98.024 E4.9384
G1 X85.576 Y97.406 E4.9506
G1 X91.906 Y91.076 E5.1148
G1 X92.178 Y91.483 F10000
G92 E0
G1 X92.619 Y91.3 E0.0088 F3000
G1 X157.381 Y91.3 E1.1961
G1 X157.822 Y91.483 E1.2049
G1 X164.017 Y97.678 E1.3655
G1 X164.2 Y98.119 E1.3743
G1 X164.2 Y151.881 E2.36
G1 X164.017 Y152.322 E2.3687
G1 X157.822 Y158.517 E2.5294
G1 X157.381 Y158.7 E2.5381
G1 X92.619 Y158.7 E3.7255
G1 X92.178 Y158.517 E3.7343
G1 X85.983 Y152.322 E3.8949
G1 X85.8 Y151.881 E3.9037
G1 X85.8 Y98.119 E4.8894
G1 X85.983 Y97.678 E4.8981
G1 X92.178 Y91.483 E5.0588
G1 X92.45 Y91.89 F10000
G92 E0
G1 X92.715 Y91.78 E0.0053 F3000
G1 X157.285 Y91.78 E1.1891
G1 X157.55 Y91.89 E1.1944
G1 X163.61 Y97.95 E1.3515
G1 X163.72 Y98.215 E1.3568
G1 X163.72 Y151.785 E2.339
G1 X163.61 Y152.05 E2.3442
G1 X157.55 Y158.11 E2.5014
G1 X157.285 Y158.22 E2.5066
G1 X92.715 Y158.22 E3.6905
G1 X92.45 Y158.11 E3.6958
G1 X86.39 Y152.05 E3.8529
G1 X86.28 Y151.785 E3.8581
G1 X86.28 Y98.215 E4.8403
G1 X86.39 Y97.95 E4.8456
G1 X92.45 Y91.89 E5.0027
G1 X92.722 Y92.297 F10000
G92 E0
G1 X92.81 Y92.26 E0.0018 F3000
G1 X157.19 Y92.26 E1.1821
G1 X157.278 Y92.297 E1.1839
G1 X163.203 Y98.222 E1.3375
G1 X163.24 Y98.31 E1.3393
G1 X163.24 Y151.69 E2.318
G1 X163.203 Y151.778 E2.3197
G1 X157.278 Y157.703 E2.4734
G1 X157.19 Y157.74 E2.4751
G1 X92.81 Y157.74 E3.6555
G1 X92.722 Y157.703 E3.6572
G1 X86.797 Y151.778 E3.8109
G1 X86.76 Y151.69 E3.8126
G1 X86.76 Y98.31 E4.7913
G1 X86.797 Y98.222 E4.7931
G1 X92.722 Y92.297 E4.9467
G92 E0
G1 E-1 F1800
G1 X98.2 Y103.7 F10000
G1 E0 F1800
G92 E0
G1 X151.8 Y103.7 E0.9827 F2500
G1 X151.8 Y146.3 E1.7638
G1 X98.2 Y146.3 E2.7465
G1 X98.2 Y103.7 E3.5276
G1 X97.72 Y103.22 F10000
G92 E0
G1 X152.28 Y103.22 E1.0003 F2000
G1 X152.28 Y146.78 E1.799
G1 X97.72 Y146.78 E2.7993
G1 X97.72 Y103.22 E3.598
G1 X97.24 Y102.74 F10000
G92 E0
G1 X152.76 Y102.74 E1.0179 F1500
G1 X152.76 Y147.26 E1.8342
G1 X97.24 Y147.26 E2.8521
G1 X97.24 Y102.74 E3.6684
G1 X98.608 Y104.311 F10000
G92 E0
G1 X98.811 Y104.108 E0.0053 F2400
G1 X99.49 Y104.108 E0.0177
G1 X98.608 Y104.99 E0.0406
G1 X98.608 Y105.669 E0.053
G1 X100.169 Y104.108 E0.0935
G1 X100.848 Y104.108 E0.106
G1 X98.608 Y106.348 E0.164
G1 X98.608 Y107.027 E0.1765
G1 X101.527 Y104.108 E0.2522
G1 X102.205 Y104.108 E0.2646
G1 X98.608 Y107.705 E0.3579
G1 X98.608 Y108.384 E0.3703
G1 X102.884 Y104.108 E0.4812
G1 X103.563 Y104.108 E0.4937
G1 X98.608 Y109.063 E0.6221
G1 X98.608 Y109.742 E0.6346
G1 X104.242 Y104.108 E0.7807
G1 X104.921 Y104.108 E0.7931
G1 X98.608 Y110.421 E0.9568
G1 X98.608 Y111.1 E0.9693
G1 X105.6 Y104.108 E1.1505
G1 X106.278 Y104.108 E1.163
G1 X98.608 Y111.778 E1.3619
G1 X98.608 Y112.457 E1.3743
G1 X106.957 Y104.108 E1.5908
G1 X107.636 Y104.108 E1.6033
G1 X98.608 Y113.136 E1.8373
G1 X98.608 Y113.815 E1.8498
G1 X108.315 Y104.108 E2.1015
G1 X108.994 Y104.108 E2.1139
G1 X98.608 Y114.494 E2.3832
G1 X98.608 Y115.173 E2.3957
G1 X109.673 Y104.108 E2.6826
G1 X110.351 Y104.108 E2.695
G1 X98.608 Y115.851 E2.9995
G1 X98.608 Y116.53 E3.0119
G1 X111.03 Y104.108 E3.334
G1 X111.709 Y104.108 E3.3465
G1 X98.608 Y117.209 E3.6862
G1 X98.608 Y117.888 E3.6986
G1 X112.388 Y104.108 E4.0559
G1 X113.067 Y104.108 E4.0684
G1 X98.608 Y118.567 E4.4433
G1 X98.608 Y119.245 E4.4557
G1 X113.745 Y104.108 E4.8482
G1 X114.424 Y104.108 E4.8607
G1 X98.608 Y119.924 E5.2708
G1 X98.608 Y120.603 E5.2832
G1 X115.103 Y104.108 E5.7109
G1 X115.782 Y104.108 E5.7234
G1 X98.608 Y121.282 E6.1687
G1 X98.608 Y121.961 E6.1811
G1 X116.461 Y104.108 E6.644
G1 X117.14 Y104.108 E6.6565
G1 X98.608 Y122.64 E7.137
G1 X98.608 Y123.318 E7.1494
G1 X117.818 Y104.108 E7.6475
G1 X118.497 Y104.108 E7.66
G1 X98.608 Y123.997 E8.1757
G1 X98.608 Y124.676 E8.1881
G1 X119.176 Y104.108 E8.7214
G1 X119.855 Y104.108 E8.7339
G1 X98.608 Y125.355 E9.2848
G1 X98.608 Y126.034 E9.2972
G1 X120.534 Y104.108 E9.8658
G1 X121.213 Y104.108 E9.8782
G1 X98.608 Y126.713 E10.4643
G1 X98.608 Y127.391 E10.4768
G1 X121.891 Y104.108 E11.0805
G1 X122.57 Y104.108 E11.0929
G1 X98.608 Y128.07 E11.7142
G1 X98.608 Y128.749 E11.7267
G1 X123.249 Y104.108 E12.3656
G1 X123.928 Y104.108 E12.3781
G1 X98.608 Y129.428 E13.0346
G1 X98.608 Y130.107 E13.047
G1 X124.607 Y104.108 E13.7211
G1 X125.285 Y104.108 E13.7336
G1 X98.608 Y130.785 E14.4253
G1 X98.608 Y131.464 E14.4378
G1 X125.964 Y104.108 E15.1471
G1 X126.643 Y104.108 E15.1595
G1 X98.608 Y132.143 E15.8865
G1 X98.608 Y132.822 E15.8989
G1 X127.322 Y104.108 E16.6434
G1 X128.001 Y104.108 E16.6559
G1 X98.608 Y133.501 E17.418
G1 X98.608 Y134.18 E17.4304
G1 X128.68 Y104.108 E18.2102
G1 X129.358 Y104.108 E18.2226
G1 X98.608 Y134.858 E19.02
G1 X98.608 Y135.537 E19.0324
G1 X130.037 Y104.108 E19.8473
G1 X130.716 Y104.108 E19.8598
G1 X98.608 Y136.216 E20.6923
G1 X98.608 Y136.895 E20.7048
G1 X131.395 Y104.108 E21.5549
G1 X132.074 Y104.108 E21.5673
G1 X98.608 Y137.574 E22.4351
G1 X98.608 Y138.253 E22.4475
G1 X132.753 Y104.108 E23.3329
G1 X133.431 Y104.108 E23.3453
G1 X98.608 Y138.931 E24.2482
G1 X98.608 Y139.61 E24.2607
G1 X134.11 Y104.108 E25.1812
G1 X134.789 Y104.108 E25.1937
G1 X98.608 Y140.289 E26.1318
G1 X98.608 Y140.968 E26.1443
G1 X135.468 Y104.108 E27.1
G1 X136.147 Y104.108 E27.1124
G1 X98.608 Y141.647 E28.0858
G1 X98.608 Y142.325 E28.0982
G1 X136.825 Y104.108 E29.0892
G1 X137.504 Y104.108 E29.1016
G1 X98.608 Y143.004 E30.1102
G1 X98.608 Y143.683 E30.1226
G1 X138.183 Y104.108 E31.1488
G1 X138.862 Y104.108 E31.1612
G1 X98.608 Y144.362 E32.205
G1 X98.608 Y145.041 E32.2174
G1 X139.541 Y104.108 E33.2787
G1 X140.22 Y104.108 E33.2912
G1 X98.608 Y145.72 E34.3701
G1 X98.608 Y145.892 E34.3733
G1 X99.114 Y145.892 E34.3826
G1 X140.898 Y104.108 E35.466
G1 X141.577 Y104.108 E35.4785
G1 X99.793 Y145.892 E36.5619
G1 X100.472 Y145.892 E36.5743
G1 X142.256 Y104.108 E37.6577
G1 X142.935 Y104.108 E37.6702
G1 X101.151 Y145.892 E38.7536
G1 X101.83 Y145.892 E38.7661
G1 X143.614 Y104.108 E39.8495
G1 X144.292 Y104.108 E39.8619
G1 X102.508 Y145.892 E40.9454
G1 X103.187 Y145.892 E40.9578
G1 X144.971 Y104.108 E42.0412
G1 X145.65 Y104.108 E42.0537
G1 X103.866 Y145.892 E43.1371
G1 X104.545 Y145.892 E43.1495
G1 X146.329 Y104.108 E44.233
G1 X147.008 Y104.108 E44.2454
G1 X105.224 Y145.892 E45.3288
G1 X105.903 Y145.892 E45.3413
G1 X147.687 Y104.108 E46.4247
G1 X148.365 Y104.108 E46.4371
G1 X106.581 Y145.892 E47.5206
G1 X107.26 Y145.892 E47.533
G1 X149.044 Y104.108 E48.6164
G1 X149.723 Y104.108 E48.6289
G1 X107.939 Y145.892 E49.7123
G1 X108.618 Y145.892 E49.7247
G1 X150.402 Y104.108 E50.8082
G1 X151.081 Y104.108 E50.8206
G1 X109.297 Y145.892 E51.904
G1 X109.976 Y145.892 E51.9165
G1 X151.392 Y104.476 E52.9904
G1 X151.392 Y105.154 E53.0028
G1 X110.654 Y145.892 E54.0591
G1 X111.333 Y145.892 E54.0716
G1 X151.392 Y105.833 E55.1102
G1 X151.392 Y106.512 E55.1227
G1 X112.012 Y145.892 E56.1438
G1 X112.691 Y145.892 E56.1562
G1 X151.392 Y107.191 E57.1597
G1 X151.392 Y107.87 E57.1722
G1 X113.37 Y145.892 E58.158
G1 X114.048 Y145.892 E58.1705
G1 X151.392 Y108.548 E59.1388
G1 X151.392 Y109.227 E59.1512
G1 X114.727 Y145.892 E60.1019
G1 X115.406 Y145.892 E60.1143
G1 X151.392 Y109.906 E61.0474
G1 X151.392 Y110.585 E61.0599
G1 X116.085 Y145.892 E61.9754
G1 X116.764 Y145.892 E61.9878
G1 X151.392 Y111.264 E62.8857
G1 X151.392 Y111.943 E62.8981
G1 X117.443 Y145.892 E63.7784
G1 X118.121 Y145.892 E63.7908
G1 X151.392 Y112.621 E64.6535
G1 X151.392 Y113.3 E64.666
G1 X118.8 Y145.892 E65.511
G1 X119.479 Y145.892 E65.5235
G1 X151.392 Y113.979 E66.351
G1 X151.392 Y114.658 E66.3634
G1 X120.158 Y145.892 E67.1733
G1 X120.837 Y145.892 E67.1857
G1 X151.392 Y115.337 E67.978
G1 X151.392 Y116.016 E67.9905
G1 X121.516 Y145.892 E68.7651
G1 X122.194 Y145.892 E68.7776
G1 X151.392 Y116.694 E69.5346
G1 X151.392 Y117.373 E69.5471
G1 X122.873 Y145.892 E70.2866
G1 X123.552 Y145.892 E70.299
G1 X151.392 Y118.052 E71.0209
G1 X151.392 Y118.731 E71.0333
G1 X124.231 Y145.892 E71.7376
G1 X124.91 Y145.892 E71.75
G1 X151.392 Y119.41 E72.4367
G1 X151.392 Y120.088 E72.4491
G1 X125.588 Y145.892 E73.1182
G1 X126.267 Y145.892 E73.1306
G1 X151.392 Y120.767 E73.7821
G1 X151.392 Y121.446 E73.7945
G1 X126.946 Y145.892 E74.4284
G1 X127.625 Y145.892 E74.4409
G1 X151.392 Y122.125 E75.0571
G1 X151.392 Y122.804 E75.0696
G1 X128.304 Y145.892 E75.6682
G1 X128.983 Y145.892 E75.6807
G1 X151.392 Y123.483 E76.2617
G1 X151.392 Y124.161 E76.2742
G1 X129.661 Y145.892 E76.8376
G1 X130.34 Y145.892 E76.8501
G1 X151.392 Y124.84 E77.3959
G1 X151.392 Y125.519 E77.4084
G1 X131.019 Y145.892 E77.9366
G1 X131.698 Y145.892 E77.9491
G1 X151.392 Y126.198 E78.4597
G1 X151.392 Y126.877 E78.4722
G1 X132.377 Y145.892 E78.9652
G1 X133.055 Y145.892 E78.9777
G1 X151.392 Y127.555 E79.4531
G1 X151.392 Y128.234 E79.4656
G1 X133.734 Y145.892 E79.9234
G1 X134.413 Y145.892 E79.9359
G1 X151.392 Y128.913 E80.3761
G1 X151.392 Y129.592 E80.3885
G1 X135.092 Y145.892 E80.8112
G1 X135.771 Y145.892 E80.8236
G1 X151.392 Y130.271 E81.2287
G1 X151.392 Y130.95 E81.2411
G1 X136.45 Y145.892 E81.6286
G1 X137.128 Y145.892 E81.641
G1 X151.392 Y131.628 E82.0109
G1 X151.392 Y132.307 E82.0233
G1 X137.807 Y145.892 E82.3755
G1 X138.486 Y145.892 E82.388
G1 X151.392 Y132.986 E82.7226
G1 X151.392 Y133.665 E82.7351
G1 X139.165 Y145.892 E83.0521
G1 X139.844 Y145.892 E83.0646
G1 X151.392 Y134.344 E83.364
G1 X151.392 Y135.023 E83.3764
G1 X140.523 Y145.892 E83.6583
G1 X141.201 Y145.892 E83.6707
G1 X151.392 Y135.701 E83.935
G1 X151.392 Y136.38 E83.9474
G1 X141.88 Y145.892 E84.194
G1 X142.559 Y145.892 E84.2065
G1 X151.392 Y137.059 E84.4355
G1 X151.392 Y137.738 E84.448
G1 X143.238 Y145.892 E84.6594
G1 X143.917 Y145.892 E84.6718
G1 X151.392 Y138.417 E84.8657
G1 X151.392 Y139.095 E84.8781
G1 X144.595 Y145.892 E85.0543
G1 X145.274 Y145.892 E85.0668
G1 X151.392 Y139.774 E85.2254
G1 X151.392 Y140.453 E85.2379
G1 X145.953 Y145.892 E85.3789
G1 X146.632 Y145.892 E85.3913
G1 X151.392 Y141.132 E85.5147
G1 X151.392 Y141.811 E85.5272
G1 X147.311 Y145.892 E85.633
G1 X147.99 Y145.892 E85.6455
G1 X151.392 Y142.49 E85.7337
G1 X151.392 Y143.168 E85.7461
G1 X148.668 Y145.892 E85.8168
G1 X149.347 Y145.892 E85.8292
G1 X151.392 Y143.847 E85.8822
G1 X151.392 Y144.526 E85.8947
G1 X150.026 Y145.892 E85.9301
G1 X150.705 Y145.892 E85.9425
G1 X151.392 Y145.205 E85.9603
G1 X151.392 Y145.884 E85.9728
G1 X151.384 Y145.892 E85.973
G1 X151.392 Y145.892 E85.9732
G1 X151.392 Y145.884 E85.9733
G92 E0
G1 E-1 F1800
; layer 2, Z = 0.57
M106 S255
G1 X151.8 Y146.3 F10000
G1 Z0.57 F1000
G1 E0 F1800
G92 E0
G1 X98.2 Y146.3 E0.9827 F5000
G1 X98.2 Y103.7 E1.7638
G1 X151.8 Y103.7 E2.7465
G1 X151.8 Y146.3 E3.5276
G1 X152.28 Y146.78 F10000
G92 E0
G1 X97.72 Y146.78 E1.0003 F4000
G1 X97.72 Y103.22 E1.799
G1 X152.28 Y103.22 E2.7993
G1 X152.28 Y146.78 E3.598
G1 X152.76 Y147.26 F10000
G92 E0
G1 X97.24 Y147.26 E1.0179 F3000
G1 X97.24 Y102.74 E1.8342
G1 X152.76 Y102.74 E2.8521
G1 X152.76 Y147.26 E3.6684
G1 X151.189 Y104.108 F10000
G92 E0
G1 X151.392 Y104.311 E0.0053 F4800
G1 X151.392 Y104.99 E0.0177
G1 X150.51 Y104.108 E0.0406
G1 X149.831 Y104.108 E0.053
G1 X151.392 Y105.669 E0.0935
G1 X151.392 Y106.348 E0.106
G1 X149.152 Y104.108 E0.164
G1 X148.473 Y104.108 E0.1765
G1 X151.392 Y107.027 E0.2522
G1 X151.392 Y107.705 E0.2646
G1 X147.795 Y104.108 E0.3579
G1 X147.116 Y104.108 E0.3703
G1 X151.392 Y108.384 E0.4812
G1 X151.392 Y109.063 E0.4937
