; G-Code generated by Simplify3D(TM) Version 2.2.0
; Dec 26, 2014 at 11:10:07 AM
; Settings Summary
;   processName,Nylon 40% no fill
;   applyToModels,Gear
;   profileLabel,-- Select Printer Profile --
;   printMaterial,Nylon
;   printQuality,Medium
;   extruderName,Extruder 1
;   extruderToolheadNumber,0
;   extruderDiameter,0.4
;   extruderAutoWidth,0
;   extruderWidth,0.4
;   extrusionMultiplier,1
;   extruderUseRetract,1
;   extruderRetractionDistance,2
;   extruderExtraRestartDistance,0.2
;   extruderRetractionZLift,0
;   extruderRetractionSpeed,2400
;   extruderUseCoasting,0
;   extruderCoastingDistance,0.2
;   extruderUseWipe,0
;   extruderWipeDistance,5
;   primaryExtruder,0
;   layerHeight,0.3
;   topSolidLayers,4
;   bottomSolidLayers,4
;   perimeterOutlines,4
;   printPerimetersInsideOut,1
;   startPointOption,2
;   startPointOriginX,0
;   startPointOriginY,0
;   startPointOriginZ,300
;   sequentialIslands,0
;   spiralVaseMode,0
;   firstLayerHeightPercentage,90
;   firstLayerWidthPercentage,100
;   firstLayerUnderspeed,0.5
;   useRaft,0
;   raftExtruder,0
;   raftLayers,3
;   raftOffset,3
;   raftSeparationDistance,0.14
;   raftInfill,85
;   disableRaftBaseLayers,0
;   useSkirt,1
;   skirtExtruder,0
;   skirtLayers,1
;   skirtOutlines,3
;   skirtOffset,4
;   infillExtruder,0
;   externalInfillPattern,Rectilinear
;   infillPercentage,20
;   outlineOverlapPercentage,15
;   infillExtrusionWidthPercentage,100
;   minInfillLength,6
;   infillLayerInterval,1
;   randomInfillStartPoint,1
;   infillAngles,45,-45
;   generateSupport,0
;   supportExtruder,0
;   supportInfill,30
;   supportExtraInflation,0
;   denseSupportLayers,0
;   denseSupportInfill,50
;   supportLayerInterval,1
;   supportHorizontalPartOffset,0.4
;   supportUpperSeparationLayers,1
;   supportLowerSeparationLayers,1
;   supportGridSpacing,4
;   maxOverhangAngle,45
;   supportAngles,0
;   temperatureName,Extruder 1 Temperature,Heated Bed
;   temperatureNumber,0,0
;   temperatureSetpointCount,1,3
;   temperatureSetpointLayers,1,1,2,3
;   temperatureSetpointTemperatures,245,70,80,90
;   temperatureStabilizeAtStartup,1,1
;   temperatureHeatedBed,0,1
;   temperatureRelayBetweenLayers,0,0
;   temperatureRelayBetweenLoops,0,0
;   fanLayers,1
;   fanSpeeds,0
;   blipFanToFullPower,0
;   adjustSpeedForCooling,1
;   minSpeedLayerTime,15
;   minCoolingSpeedSlowdown,20
;   increaseFanForCooling,0
;   minFanLayerTime,45
;   maxCoolingFanSpeed,100
;   increaseFanForBridging,0
;   bridgingFanSpeed,100
;   use5D,1
;   relativeEdistances,0
;   allowEaxisZeroing,1
;   independentExtruderAxes,0
;   includeM10123,0
;   stickySupport,1
;   detectArcs,0
;   arcReplaceG2G3,0
;   arcRadialCompensation,1
;   gcodeXoffset,0
;   gcodeYoffset,0
;   gcodeZoffset,0
;   overrideMachineDefinition,0
;   machineTypeOverride,0
;   strokeXoverride,250
;   strokeYoverride,250
;   strokeZoverride,250
;   originOffsetXoverride,0
;   originOffsetYoverride,0
;   originOffsetZoverride,0
;   homeXdirOverride,-1
;   homeYdirOverride,-1
;   homeZdirOverride,-1
;   flipXoverride,1
;   flipYoverride,-1
;   flipZoverride,1
;   startingGcode,G28 ; home all axes
;   layerChangeGcode,
;   toolChangeGcode,
;   endingGcode,M104 S0 ; turn off extruder,M140 S0 ; turn off bed,M84 ; disable motors
;   createX3G,0
;   celebration,0
;   celebrationSong,Random Song
;   createMB5G,0
;   postProcessing,
;   defaultSpeed,5000
;   outlineUnderspeed,0.5
;   solidInfillUnderspeed,0.8
;   supportUnderspeed,0.8
;   rapidXYspeed,4800
;   rapidZspeed,1000
;   minBridgingArea,50
;   bridgingExtrusionMultiplier,1
;   bridgingSpeedMultiplier,1
;   filamentDiameter,3
;   filamentPricePerKg,46
;   useMinPrintHeight,0
;   minPrintHeight,0
;   useMaxPrintHeight,0
;   maxPrintHeight,0
;   useDiaphragm,1
;   diaphragmLayerInterval,20
;   robustSlicing,1
;   mergeAllIntoSolid,0
;   onlyRetractWhenCrossingOutline,1
;   retractBetweenLayers,1
;   useRetractionMinTravel,0
;   retractionMinTravel,3
;   useRetractionOozeRate,0
;   retractionOozeRate,100
;   onlyWipeOutlines,1
;   toolChangeRetractionDistance,12
;   toolChangeExtraRestartDistance,-0.5
;   toolChangeRetractionSpeed,600
;   allowThinWallGapFill,1
;   thinWallAllowedOverlapPercentage,10
G90
M82
M106 S0
M140 S70
M190 S70
M104 S245 T0
M109 S245 T0
G28 ; home all axes
G92 E0
G1 E-2 F2400
; layer 1, Z = 0.27
T0
; tool H0.3 W0.4
G1 X116.306 Y115.855 F4800
G1 Z0.27 F1000
G1 E0.2 F720
G92 E0
G1 X118.955 Y113.93 E0.0556 F1303
G1 X119.191 Y113.836 E0.0599
G1 X121.288 Y113.577 E0.0958
G1 X123.136 Y112.554 E0.1316
G1 X123.382 Y112.491 E0.1359
G1 X126.655 Y112.491 E0.1915
G1 X126.908 Y112.558 E0.1959
G1 X128.676 Y113.573 E0.2305
G1 X130.807 Y113.835 E0.267
G1 X131.043 Y113.929 E0.2713
G1 X133.692 Y115.853 E0.3269
G1 X133.857 Y116.056 E0.3313
G1 X134.691 Y117.916 E0.3659
G1 X136.261 Y119.382 E0.4024
G1 X136.397 Y119.596 E0.4067
G1 X137.409 Y122.711 E0.4623
G1 X137.422 Y122.973 E0.4668
G1 X136.996 Y124.999 E0.5019
G1 X137.423 Y127.028 E0.5371
G1 X137.409 Y127.29 E0.5416
G1 X136.397 Y130.404 E0.5972
G1 X136.26 Y130.618 E0.6015
G1 X134.688 Y132.087 E0.638
G1 X133.859 Y133.941 E0.6725
G1 X133.694 Y134.145 E0.6769
G1 X131.045 Y136.07 E0.7325
G1 X130.809 Y136.164 E0.7368
G1 X128.712 Y136.423 E0.7727
G1 X126.863 Y137.446 E0.8086
G1 X126.617 Y137.509 E0.8129
G1 X123.345 Y137.509 E0.8684
G1 X123.091 Y137.441 E0.8729
G1 X121.325 Y136.428 E0.9075
G1 X119.192 Y136.164 E0.9439
G1 X118.956 Y136.071 E0.9483
G1 X116.308 Y134.147 E1.0038
G1 X116.143 Y133.943 E1.0083
G1 X115.295 Y132.051 E1.0435
G1 X113.756 Y130.659 E1.0787
G1 X113.614 Y130.439 E1.0831
G1 X112.603 Y127.325 E1.1387
G1 X112.588 Y127.071 E1.143
G1 X112.989 Y125.002 E1.1788
G1 X112.588 Y122.927 E1.2147
G1 X112.603 Y122.673 E1.219
G1 X113.615 Y119.56 E1.2746
G1 X113.757 Y119.34 E1.279
G1 X115.296 Y117.948 E1.3143
G1 X116.141 Y116.059 E1.3494
G1 X116.306 Y115.855 E1.3539
G1 X116.584 Y116.148 F4800
G92 E0
G1 X119.149 Y114.283 E0.0538 F1303
G1 X119.291 Y114.227 E0.0564
G1 X121.414 Y113.964 E0.0927
G1 X123.286 Y112.929 E0.1291
G1 X123.433 Y112.891 E0.1316
G1 X126.603 Y112.891 E0.1854
G1 X126.755 Y112.931 E0.1881
G1 X128.547 Y113.96 E0.2232
G1 X130.707 Y114.226 E0.2601
G1 X130.849 Y114.282 E0.2627
G1 X133.414 Y116.146 E0.3166
G1 X133.513 Y116.268 E0.3192
G1 X134.359 Y118.153 E0.3543
G1 X135.951 Y119.639 E0.3913
G1 X136.033 Y119.768 E0.3939
G1 X137.012 Y122.785 E0.4477
G1 X137.02 Y122.942 E0.4504
G1 X136.587 Y124.999 E0.4861
G1 X137.02 Y127.059 E0.5218
G1 X137.012 Y127.216 E0.5245
G1 X136.032 Y130.232 E0.5783
G1 X135.95 Y130.361 E0.5809
G1 X134.356 Y131.85 E0.6179
G1 X133.515 Y133.73 E0.6529
G1 X133.416 Y133.852 E0.6556
G1 X130.851 Y135.717 E0.7094
G1 X130.709 Y135.773 E0.712
G1 X128.587 Y136.036 E0.7483
G1 X126.714 Y137.071 E0.7847
G1 X126.566 Y137.109 E0.7872
G1 X123.397 Y137.109 E0.841
G1 X123.245 Y137.068 E0.8437
G1 X121.455 Y136.041 E0.8788
G1 X119.292 Y135.773 E0.9158
G1 X119.15 Y135.717 E0.9183
G1 X116.585 Y133.854 E0.9722
G1 X116.486 Y133.732 E0.9748
G1 X115.625 Y131.811 E1.0106
G1 X114.064 Y130.397 E1.0463
G1 X113.978 Y130.265 E1.049
G1 X112.999 Y127.249 E1.1028
G1 X112.99 Y127.097 E1.1054
G1 X113.397 Y125.002 E1.1416
G1 X112.99 Y122.9 E1.178
G1 X112.999 Y122.748 E1.1806
G1 X113.979 Y119.733 E1.2344
G1 X114.065 Y119.601 E1.2371
G1 X115.627 Y118.188 E1.2728
G1 X116.485 Y116.27 E1.3085
G1 X116.584 Y116.148 E1.3112
G1 X116.862 Y116.44 F4800
G92 E0
G1 X119.343 Y114.636 E0.0521 F1303
G1 X119.39 Y114.618 E0.0529
G1 X121.491 Y114.358 E0.0889
G1 X121.542 Y114.364 E0.0897
G1 X121.545 Y114.365 E0.0898
G1 X121.546 Y114.363 E0.0898
G1 X121.583 Y114.328 E0.0907
G1 X123.435 Y113.304 E0.1266
G1 X123.484 Y113.291 E0.1275
G1 X126.55 Y113.291 E0.1796
G1 X126.601 Y113.304 E0.1804
G1 X128.451 Y114.366 E0.2167
G1 X128.455 Y114.365 E0.2167
G1 X128.506 Y114.358 E0.2176
G1 X130.608 Y114.617 E0.2536
G1 X130.655 Y114.636 E0.2544
G1 X133.137 Y116.438 E0.3065
G1 X133.17 Y116.479 E0.3074
G1 X134.042 Y118.426 E0.3436
G1 X134.047 Y118.427 E0.3437
G1 X134.091 Y118.451 E0.3445
G1 X135.641 Y119.897 E0.3805
G1 X135.668 Y119.94 E0.3814
G1 X136.615 Y122.859 E0.4335
G1 X136.618 Y122.911 E0.4344
G1 X136.178 Y124.999 E0.4706
G1 X136.618 Y127.09 E0.5069
G1 X136.615 Y127.143 E0.5078
G1 X135.667 Y130.06 E0.5598
G1 X135.64 Y130.103 E0.5607
G1 X134.094 Y131.548 E0.5966
G1 X134.049 Y131.572 E0.5975
G1 X134.041 Y131.574 E0.5976
G1 X133.172 Y133.519 E0.6338
G1 X133.139 Y133.559 E0.6347
G1 X130.657 Y135.363 E0.6868
G1 X130.61 Y135.382 E0.6876
G1 X128.509 Y135.642 E0.7236
G1 X128.459 Y135.636 E0.7244
G1 X128.455 Y135.634 E0.7245
G1 X128.452 Y135.638 E0.7246
G1 X128.415 Y135.673 E0.7254
G1 X126.564 Y136.696 E0.7613
G1 X126.515 Y136.709 E0.7622
G1 X123.449 Y136.709 E0.8142
G1 X123.399 Y136.695 E0.8151
G1 X121.548 Y135.633 E0.8514
G1 X121.542 Y135.636 E0.8515
G1 X121.492 Y135.642 E0.8523
G1 X119.391 Y135.383 E0.8883
G1 X119.344 Y135.364 E0.8891
G1 X116.863 Y133.561 E0.9412
G1 X116.83 Y133.521 E0.9421
G1 X115.956 Y131.571 E0.9784
G1 X114.371 Y130.136 E1.0147
G1 X114.342 Y130.092 E1.0155
G1 X113.395 Y127.174 E1.0676
G1 X113.392 Y127.124 E1.0685
G1 X113.796 Y125.045 E1.1044
G1 X113.818 Y124.999 E1.1053
G1 X113.816 Y124.998 E1.1053
G1 X113.795 Y124.952 E1.1062
G1 X113.392 Y122.874 E1.1421
G1 X113.396 Y122.824 E1.143
G1 X114.343 Y119.907 E1.195
G1 X114.372 Y119.863 E1.1959
G1 X115.957 Y118.428 E1.2322
G1 X116.829 Y116.481 E1.2684
G1 X116.862 Y116.44 E1.2693
G92 E0
G1 E-2 F2400
G1 X122.599 Y122.451 F4800
G1 E0.2 F2400
G92 E0
G1 X122.298 Y122.772 E0.0075 F977
G1 X122.04 Y123.129 E0.0149
G1 X121.829 Y123.514 E0.0224
G1 X121.669 Y123.918 E0.0298
G1 X121.56 Y124.344 E0.0372
G1 X121.505 Y124.78 E0.0447
G1 X121.505 Y125.22 E0.0522
G1 X121.56 Y125.656 E0.0596
G1 X121.669 Y126.082 E0.0671
G1 X121.831 Y126.491 E0.0746
G1 X122.043 Y126.876 E0.082
G1 X122.299 Y127.228 E0.0894
G1 X122.602 Y127.552 E0.0969
G1 X122.942 Y127.833 E0.1044
G1 X123.313 Y128.069 E0.1119
G1 X123.711 Y128.256 E0.1194
G1 X124.129 Y128.392 E0.1268
G1 X124.561 Y128.474 E0.1343
G1 X125 Y128.502 E0.1418
G1 X125.439 Y128.474 E0.1492
G1 X125.871 Y128.392 E0.1567
G1 X126.289 Y128.256 E0.1641
G1 X126.687 Y128.069 E0.1716
G1 X127.058 Y127.833 E0.1791
G1 X127.397 Y127.553 E0.1865
G1 X127.698 Y127.232 E0.194
G1 X127.957 Y126.876 E0.2015
G1 X128.169 Y126.49 E0.209
G1 X128.332 Y126.076 E0.2165
G1 X128.441 Y125.65 E0.224
G1 X128.495 Y125.214 E0.2314
G1 X128.494 Y124.774 E0.2389
G1 X128.439 Y124.338 E0.2464
G1 X128.328 Y123.912 E0.2538
G1 X128.166 Y123.504 E0.2613
G1 X127.953 Y123.119 E0.2688
G1 X127.694 Y122.763 E0.2762
G1 X127.393 Y122.443 E0.2837
G1 X127.054 Y122.164 E0.2912
G1 X126.682 Y121.928 E0.2986
G1 X126.284 Y121.742 E0.3061
G1 X125.865 Y121.607 E0.3136
G1 X125.433 Y121.525 E0.321
G1 X124.994 Y121.498 E0.3285
G1 X124.555 Y121.527 E0.336
G1 X124.123 Y121.61 E0.3434
G1 X123.705 Y121.746 E0.3509
G1 X123.308 Y121.934 E0.3584
G1 X122.937 Y122.171 E0.3658
G1 X122.599 Y122.451 E0.3733
G1 X122.873 Y122.743 F4800
G92 E0
G1 X122.607 Y123.027 E0.0066 F814
G1 X122.379 Y123.343 E0.0132
G1 X122.192 Y123.684 E0.0198
G1 X122.051 Y124.042 E0.0264
G1 X121.954 Y124.419 E0.033
G1 X121.905 Y124.805 E0.0396
G1 X121.905 Y125.195 E0.0462
G1 X121.954 Y125.581 E0.0528
G1 X122.051 Y125.958 E0.0594
G1 X122.194 Y126.32 E0.066
G1 X122.382 Y126.662 E0.0726
G1 X122.608 Y126.973 E0.0792
G1 X122.877 Y127.26 E0.0859
G1 X123.177 Y127.509 E0.0925
G1 X123.506 Y127.718 E0.0991
G1 X123.858 Y127.883 E0.1057
G1 X124.229 Y128.004 E0.1123
G1 X124.611 Y128.077 E0.1189
G1 X125 Y128.101 E0.1255
G1 X125.389 Y128.077 E0.1321
G1 X125.771 Y128.004 E0.1388
G1 X126.142 Y127.883 E0.1454
G1 X126.494 Y127.718 E0.152
G1 X126.823 Y127.509 E0.1586
G1 X127.123 Y127.261 E0.1652
G1 X127.389 Y126.977 E0.1718
G1 X127.618 Y126.662 E0.1784
G1 X127.806 Y126.32 E0.185
G1 X127.951 Y125.953 E0.1917
G1 X128.047 Y125.576 E0.1983
G1 X128.095 Y125.189 E0.205
G1 X128.094 Y124.8 E0.2116
G1 X128.045 Y124.414 E0.2182
G1 X127.948 Y124.037 E0.2248
G1 X127.804 Y123.675 E0.2314
G1 X127.615 Y123.334 E0.238
G1 X127.386 Y123.019 E0.2446
G1 X127.119 Y122.736 E0.2512
G1 X126.818 Y122.488 E0.2578
G1 X126.489 Y122.28 E0.2645
G1 X126.137 Y122.115 E0.2711
G1 X125.766 Y121.995 E0.2777
G1 X125.383 Y121.923 E0.2843
G1 X124.995 Y121.899 E0.2909
G1 X124.606 Y121.924 E0.2975
G1 X124.224 Y121.998 E0.3041
G1 X123.854 Y122.119 E0.3107
G1 X123.502 Y122.285 E0.3173
G1 X123.173 Y122.494 E0.324
G1 X122.873 Y122.743 E0.3306
G1 X123.148 Y123.035 F4800
G92 E0
G1 X122.917 Y123.282 E0.0058 F652
G1 X122.718 Y123.557 E0.0115
G1 X122.555 Y123.854 E0.0173
G1 X122.432 Y124.166 E0.0229
G1 X122.347 Y124.494 E0.0287
G1 X122.305 Y124.83 E0.0345
G1 X122.305 Y125.17 E0.0402
G1 X122.347 Y125.506 E0.046
G1 X122.432 Y125.834 E0.0517
G1 X122.557 Y126.15 E0.0575
G1 X122.72 Y126.447 E0.0632
G1 X122.917 Y126.718 E0.0689
G1 X123.151 Y126.968 E0.0748
G1 X123.413 Y127.185 E0.0805
G1 X123.699 Y127.366 E0.0863
G1 X124.006 Y127.511 E0.092
G1 X124.328 Y127.616 E0.0978
G1 X124.662 Y127.679 E0.1035
G1 X125 Y127.7 E0.1093
G1 X125.338 Y127.679 E0.1151
G1 X125.672 Y127.616 E0.1208
G1 X125.994 Y127.511 E0.1266
G1 X126.301 Y127.366 E0.1323
G1 X126.587 Y127.185 E0.1381
G1 X126.849 Y126.968 E0.1438
G1 X127.081 Y126.721 E0.1496
G1 X127.28 Y126.447 E0.1554
G1 X127.443 Y126.15 E0.1611
G1 X127.569 Y125.83 E0.167
G1 X127.653 Y125.501 E0.1727
G1 X127.695 Y125.165 E0.1785
G1 X127.695 Y124.826 E0.1842
G1 X127.651 Y124.49 E0.19
G1 X127.567 Y124.161 E0.1957
G1 X127.441 Y123.846 E0.2015
G1 X127.277 Y123.549 E0.2072
G1 X127.078 Y123.275 E0.213
G1 X126.845 Y123.029 E0.2188
G1 X126.583 Y122.813 E0.2245
G1 X126.297 Y122.632 E0.2303
G1 X125.99 Y122.488 E0.236
G1 X125.667 Y122.383 E0.2418
G1 X125.334 Y122.321 E0.2475
G1 X124.995 Y122.3 E0.2533
G1 X124.657 Y122.322 E0.2591
G1 X124.324 Y122.386 E0.2648
G1 X124.002 Y122.491 E0.2706
G1 X123.695 Y122.636 E0.2763
G1 X123.409 Y122.818 E0.2821
G1 X123.148 Y123.035 E0.2878
G1 X122.586 Y121.68 F4800
G92 E0
G1 X125.001 Y120.894 E0.0431 F977
G1 X127.414 Y121.678 E0.0862
G1 X128.903 Y123.732 E0.1293
G1 X128.906 Y126.268 E0.1723
G1 X127.414 Y128.32 E0.2154
G1 X124.999 Y129.106 E0.2585
G1 X122.586 Y128.321 E0.3016
G1 X121.097 Y126.268 E0.3446
G1 X121.094 Y123.732 E0.3877
G1 X122.586 Y121.68 E0.4308
G1 X120.847 Y119.477 F4800
G92 E0
G1 X121.034 Y119.342 E0.0039 F814
G1 X121.332 Y119.496 E0.0096
G1 X121.588 Y119.672 E0.0149
G1 X121.738 Y119.805 E0.0183
G1 X121.854 Y119.952 E0.0215
G1 X122.508 Y121.284 E0.0467
G1 X124.832 Y120.529 E0.0881
G1 X124.578 Y119.066 E0.1134
G1 X124.585 Y118.881 E0.1165
G1 X124.628 Y118.686 E0.1199
G1 X124.73 Y118.396 E0.1251
G1 X124.883 Y118.091 E0.1309
G1 X125.113 Y118.091 E0.1348
G1 X125.192 Y118.225 E0.1374
G1 X125.264 Y118.382 E0.1404
G1 X125.37 Y118.677 E0.1457
G1 X125.424 Y118.967 E0.1507
G1 X125.424 Y119.055 E0.1522
G1 X125.168 Y120.528 E0.1776
G1 X127.493 Y121.283 E0.2191
G1 X128.153 Y119.937 E0.2445
G1 X128.176 Y119.901 E0.2453
G1 X128.25 Y119.815 E0.2472
G1 X128.408 Y119.674 E0.2508
G1 X128.664 Y119.499 E0.2561
G1 X128.966 Y119.342 E0.2618
G1 X129.153 Y119.477 E0.2658
G1 X129.138 Y119.631 E0.2684
G1 X129.104 Y119.801 E0.2713
G1 X129.015 Y120.103 E0.2767
G1 X128.887 Y120.371 E0.2817
G1 X128.844 Y120.432 E0.283
G1 X127.765 Y121.481 E0.3085
G1 X129.2 Y123.459 E0.35
G1 X130.512 Y122.765 E0.3752
G1 X130.69 Y122.715 E0.3784
G1 X130.888 Y122.695 E0.3817
G1 X131.198 Y122.702 E0.387
G1 X131.535 Y122.754 E0.3928
G1 X131.606 Y122.973 E0.3967
G1 X131.501 Y123.09 E0.3994
G1 X131.373 Y123.208 E0.4023
G1 X131.12 Y123.404 E0.4077
G1 X130.935 Y123.511 E0.4114
G1 X130.819 Y123.56 E0.4135
G1 X129.304 Y123.778 E0.4395
G1 X129.306 Y126.222 E0.481
G1 X130.79 Y126.435 E0.5065
G1 X130.832 Y126.446 E0.5072
G1 X130.934 Y126.489 E0.5091
G1 X131.119 Y126.596 E0.5127
G1 X131.372 Y126.79 E0.5181
G1 X131.499 Y126.907 E0.5211
G1 X131.606 Y127.027 E0.5238
G1 X131.535 Y127.247 E0.5277
G1 X131.2 Y127.297 E0.5334
G1 X130.89 Y127.305 E0.5387
G1 X130.692 Y127.285 E0.5421
G1 X130.513 Y127.235 E0.5452
G1 X129.202 Y126.541 E0.5704
G1 X127.765 Y128.519 E0.6119
G1 X128.849 Y129.572 E0.6376
G1 X128.867 Y129.594 E0.6381
