; G-Code generated by Simplify3D(TM) Version 2.2.0
; Dec 26, 2014 at 11:12:19 AM
; Settings Summary
;   processName,PLA With Suppoers
;   applyToModels,Gear,Rack
;   profileLabel,-- Select Printer Profile --
;   printMaterial,Nylon
;   printQuality,Medium
;   extruderName,Extruder 1
;   extruderToolheadNumber,0
;   extruderDiameter,0.4
;   extruderAutoWidth,0
;   extruderWidth,0.4
;   extrusionMultiplier,1
;   extruderUseRetract,1
;   extruderRetractionDistance,1
;   extruderExtraRestartDistance,0
;   extruderRetractionZLift,0
;   extruderRetractionSpeed,1800
;   extruderUseCoasting,0
;   extruderCoastingDistance,0.2
;   extruderUseWipe,0
;   extruderWipeDistance,5
;   primaryExtruder,0
;   layerHeight,0.2
;   topSolidLayers,3
;   bottomSolidLayers,3
;   perimeterOutlines,2
;   printPerimetersInsideOut,1
;   startPointOption,2
;   startPointOriginX,0
;   startPointOriginY,0
;   startPointOriginZ,300
;   sequentialIslands,0
;   spiralVaseMode,0
;   firstLayerHeightPercentage,90
;   firstLayerWidthPercentage,100
;   firstLayerUnderspeed,0.5
;   useRaft,0
;   raftExtruder,0
;   raftLayers,3
;   raftOffset,3
;   raftSeparationDistance,0.14
;   raftInfill,85
;   disableRaftBaseLayers,0
;   useSkirt,1
;   skirtExtruder,0
;   skirtLayers,1
;   skirtOutlines,2
;   skirtOffset,4
;   infillExtruder,0
;   externalInfillPattern,Rectilinear
;   infillPercentage,20
;   outlineOverlapPercentage,15
;   infillExtrusionWidthPercentage,100
;   minInfillLength,6
;   infillLayerInterval,1
;   randomInfillStartPoint,0
;   infillAngles,45,-45
;   generateSupport,1
;   supportExtruder,0
;   supportInfill,30
;   supportExtraInflation,0
;   denseSupportLayers,0
;   denseSupportInfill,50
;   supportLayerInterval,1
;   supportHorizontalPartOffset,0.4
;   supportUpperSeparationLayers,1
;   supportLowerSeparationLayers,1
;   supportGridSpacing,4
;   maxOverhangAngle,45
;   supportAngles,0
;   temperatureName,Extruder 1 Temperature,Heated Bed
;   temperatureNumber,0,0
;   temperatureSetpointCount,1,1
;   temperatureSetpointLayers,1,1
;   temperatureSetpointTemperatures,220,40
;   temperatureStabilizeAtStartup,1,1
;   temperatureHeatedBed,0,1
;   temperatureRelayBetweenLayers,0,0
;   temperatureRelayBetweenLoops,0,0
;   fanLayers,1
;   fanSpeeds,0
;   blipFanToFullPower,0
;   adjustSpeedForCooling,1
;   minSpeedLayerTime,15
;   minCoolingSpeedSlowdown,20
;   increaseFanForCooling,0
;   minFanLayerTime,45
;   maxCoolingFanSpeed,100
;   increaseFanForBridging,0
;   bridgingFanSpeed,100
;   use5D,1
;   relativeEdistances,0
;   allowEaxisZeroing,1
;   independentExtruderAxes,0
;   includeM10123,0
;   stickySupport,1
;   detectArcs,0
;   arcReplaceG2G3,0
;   arcRadialCompensation,1
;   gcodeXoffset,0
;   gcodeYoffset,0
;   gcodeZoffset,0
;   overrideMachineDefinition,0
;   machineTypeOverride,0
;   strokeXoverride,250
;   strokeYoverride,250
;   strokeZoverride,250
;   originOffsetXoverride,0
;   originOffsetYoverride,0
;   originOffsetZoverride,0
;   homeXdirOverride,-1
;   homeYdirOverride,-1
;   homeZdirOverride,-1
;   flipXoverride,1
;   flipYoverride,-1
;   flipZoverride,1
;   startingGcode,G28 ; home all axes
;   layerChangeGcode,
;   toolChangeGcode,
;   endingGcode,M104 S0 ; turn off extruder,M140 S0 ; turn off bed,M84 ; disable motors
;   createX3G,0
;   celebration,0
;   celebrationSong,Random Song
;   createMB5G,0
;   postProcessing,
;   defaultSpeed,4000
;   outlineUnderspeed,0.5
;   solidInfillUnderspeed,0.8
;   supportUnderspeed,0.8
;   rapidXYspeed,4800
;   rapidZspeed,1000
;   minBridgingArea,50
;   bridgingExtrusionMultiplier,1
;   bridgingSpeedMultiplier,1
;   filamentDiameter,3
;   filamentPricePerKg,46
;   useMinPrintHeight,0
;   minPrintHeight,0
;   useMaxPrintHeight,0
;   maxPrintHeight,0
;   useDiaphragm,0
;   diaphragmLayerInterval,20
;   robustSlicing,1
;   mergeAllIntoSolid,0
;   onlyRetractWhenCrossingOutline,1
;   retractBetweenLayers,1
;   useRetractionMinTravel,0
;   retractionMinTravel,3
;   useRetractionOozeRate,0
;   retractionOozeRate,100
;   onlyWipeOutlines,1
;   toolChangeRetractionDistance,12
;   toolChangeExtraRestartDistance,-0.5
;   toolChangeRetractionSpeed,600
;   allowThinWallGapFill,1
;   thinWallAllowedOverlapPercentage,10
G90
M82
M106 S0
M140 S40
M190 S40
M104 S220 T0
M109 S220 T0
G28 ; home all axes
G92 E0
G1 E-1 F1800
; layer 1, Z = 0.18
T0
; tool H0.2 W0.4
G1 X46.432 Y107.446 F4800
G1 Z0.18 F1000
G1 E0 F540
G92 E0
G1 X46.574 Y107.39 E0.0017 F2000
G1 X48.697 Y107.127 E0.0259
G1 X50.569 Y106.092 E0.0502
G1 X50.716 Y106.054 E0.0519
G1 X53.886 Y106.054 E0.0877
G1 X54.038 Y106.095 E0.0895
G1 X55.864 Y107.143 E0.1134
G1 X57.957 Y107.368 E0.1372
G1 X58.103 Y107.424 E0.139
G1 X60.667 Y109.287 E0.1748
G1 X60.764 Y109.405 E0.1765
G1 X61.672 Y111.344 E0.2008
G1 X63.234 Y112.803 E0.225
G1 X63.316 Y112.931 E0.2267
G1 X64.284 Y115.914 E0.2622
G1 X64.293 Y116.066 E0.2639
G1 X63.878 Y118.201 E0.2885
G1 X64.303 Y120.223 E0.3119
G1 X64.295 Y120.38 E0.3137
G1 X63.315 Y123.395 E0.3496
G1 X63.233 Y123.524 E0.3513
G1 X61.639 Y125.013 E0.376
G1 X60.798 Y126.893 E0.3993
G1 X60.699 Y127.015 E0.4011
G1 X60.621 Y127.072 E0.4022
G1 X64.4 Y127.072 E0.4449
G1 X64.51 Y127.107 E0.4462
G1 X64.62 Y127.072 E0.4475
G1 X68.4 Y127.072 E0.4903
G1 X68.51 Y127.107 E0.4916
G1 X68.62 Y127.072 E0.4929
G1 X72.4 Y127.072 E0.5357
G1 X72.51 Y127.107 E0.537
G1 X72.62 Y127.072 E0.5383
G1 X76.4 Y127.072 E0.5811
G1 X76.51 Y127.107 E0.5824
G1 X76.62 Y127.072 E0.5837
G1 X80.4 Y127.072 E0.6265
G1 X80.51 Y127.107 E0.6278
G1 X80.62 Y127.072 E0.6291
G1 X84.4 Y127.072 E0.6719
G1 X84.51 Y127.107 E0.6732
G1 X84.62 Y127.072 E0.6745
G1 X88.4 Y127.072 E0.7173
G1 X88.51 Y127.107 E0.7186
G1 X88.62 Y127.072 E0.7199
G1 X92.4 Y127.072 E0.7627
G1 X92.51 Y127.107 E0.764
G1 X92.62 Y127.072 E0.7653
G1 X96.4 Y127.072 E0.8081
G1 X96.51 Y127.107 E0.8094
G1 X96.62 Y127.072 E0.8107
G1 X100.4 Y127.072 E0.8535
G1 X100.51 Y127.107 E0.8548
G1 X100.62 Y127.072 E0.8561
G1 X104.4 Y127.072 E0.8989
G1 X104.51 Y127.107 E0.9002
G1 X104.62 Y127.072 E0.9015
G1 X108.4 Y127.072 E0.9442
G1 X108.51 Y127.107 E0.9455
G1 X108.62 Y127.072 E0.9469
G1 X112.4 Y127.072 E0.9896
G1 X112.51 Y127.107 E0.9909
G1 X112.62 Y127.072 E0.9922
G1 X116.4 Y127.072 E1.035
G1 X116.51 Y127.107 E1.0363
G1 X116.62 Y127.072 E1.0376
G1 X120.4 Y127.072 E1.0804
G1 X120.51 Y127.107 E1.0817
G1 X120.62 Y127.072 E1.083
G1 X124.4 Y127.072 E1.1258
G1 X124.51 Y127.107 E1.1271
G1 X124.62 Y127.072 E1.1284
G1 X128.4 Y127.072 E1.1712
G1 X128.51 Y127.107 E1.1725
G1 X128.62 Y127.072 E1.1738
G1 X132.4 Y127.072 E1.2166
G1 X132.51 Y127.107 E1.2179
G1 X132.62 Y127.072 E1.2192
G1 X136.4 Y127.072 E1.262
G1 X136.51 Y127.107 E1.2633
G1 X136.62 Y127.072 E1.2646
G1 X140.4 Y127.072 E1.3074
G1 X140.51 Y127.107 E1.3087
G1 X140.62 Y127.072 E1.31
G1 X144.4 Y127.072 E1.3528
G1 X144.51 Y127.107 E1.3541
G1 X144.62 Y127.072 E1.3554
G1 X148.4 Y127.072 E1.3982
G1 X148.51 Y127.107 E1.3995
G1 X148.62 Y127.072 E1.4008
G1 X152.4 Y127.072 E1.4436
G1 X152.51 Y127.107 E1.4449
G1 X152.62 Y127.072 E1.4462
G1 X156.4 Y127.072 E1.4889
G1 X156.51 Y127.107 E1.4902
G1 X156.62 Y127.072 E1.4916
G1 X160.4 Y127.072 E1.5343
G1 X160.51 Y127.107 E1.5356
G1 X160.62 Y127.072 E1.5369
G1 X164.4 Y127.072 E1.5797
G1 X164.51 Y127.107 E1.581
G1 X164.62 Y127.072 E1.5823
G1 X168.4 Y127.072 E1.6251
G1 X168.51 Y127.107 E1.6264
G1 X168.62 Y127.072 E1.6277
G1 X172.4 Y127.072 E1.6705
G1 X172.51 Y127.107 E1.6718
G1 X172.62 Y127.072 E1.6731
G1 X176.4 Y127.072 E1.7159
G1 X176.51 Y127.107 E1.7172
G1 X176.62 Y127.072 E1.7185
G1 X180.4 Y127.072 E1.7613
G1 X180.51 Y127.107 E1.7626
G1 X180.62 Y127.072 E1.7639
G1 X184.4 Y127.072 E1.8067
G1 X184.51 Y127.107 E1.808
G1 X184.62 Y127.072 E1.8093
G1 X188.4 Y127.072 E1.8521
G1 X188.51 Y127.107 E1.8534
G1 X188.62 Y127.072 E1.8547
G1 X192.4 Y127.072 E1.8975
G1 X192.51 Y127.107 E1.8988
G1 X192.62 Y127.072 E1.9001
G1 X196.4 Y127.072 E1.9429
G1 X196.51 Y127.107 E1.9442
G1 X196.62 Y127.072 E1.9455
G1 X200.4 Y127.072 E1.9882
G1 X200.51 Y127.107 E1.9896
G1 X200.62 Y127.072 E1.9909
G1 X204.4 Y127.072 E2.0336
G1 X204.576 Y127.128 E2.0357
G1 X206.794 Y128.68 E2.0664
G1 X206.906 Y128.827 E2.0685
G1 X207.432 Y130.273 E2.0859
G1 X209.509 Y132.349 E2.1191
G1 X209.6 Y132.57 E2.1218
G1 X209.6 Y141.122 E2.2186
G1 X209.509 Y141.343 E2.2213
G1 X206.997 Y143.855 E2.2615
G1 X206.776 Y143.946 E2.2642
G1 X43.224 Y143.946 E4.1152
G1 X43.003 Y143.855 E4.1179
G1 X40.491 Y141.343 E4.1582
G1 X40.4 Y141.122 E4.1609
G1 X40.4 Y133.97 E4.2418
G1 X40.405 Y133.918 E4.2424
G1 X40.535 Y133.177 E4.2509
G1 X40.549 Y133.126 E4.2515
G1 X42.114 Y128.827 E4.3033
G1 X42.226 Y128.68 E4.3054
G1 X44.228 Y127.278 E4.333
G1 X43.899 Y127.039 E4.3376
G1 X43.802 Y126.922 E4.3394
G1 X42.878 Y124.946 E4.364
G1 X41.347 Y123.56 E4.3874
G1 X41.261 Y123.428 E4.3892
G1 X40.282 Y120.413 E4.4251
G1 X40.273 Y120.26 E4.4268
G1 X40.688 Y118.125 E4.4514
G1 X40.263 Y116.103 E4.4748
G1 X40.271 Y115.946 E4.4766
G1 X41.251 Y112.931 E4.5125
G1 X41.333 Y112.802 E4.5142
G1 X42.926 Y111.314 E4.5389
G1 X43.768 Y109.433 E4.5622
G1 X43.867 Y109.311 E4.564
G1 X46.432 Y107.446 E4.5999
G1 X46.673 Y107.781 F4800
G92 E0
G1 X48.774 Y107.521 E0.024 F2000
G1 X48.825 Y107.527 E0.0245
G1 X48.828 Y107.529 E0.0246
G1 X48.83 Y107.526 E0.0246
G1 X48.867 Y107.491 E0.0252
G1 X50.718 Y106.467 E0.0491
G1 X50.767 Y106.454 E0.0497
G1 X53.833 Y106.454 E0.0844
G1 X53.884 Y106.468 E0.085
G1 X55.738 Y107.532 E0.1092
G1 X57.862 Y107.76 E0.1334
G1 X57.911 Y107.779 E0.134
G1 X60.391 Y109.581 E0.1687
G1 X60.424 Y109.62 E0.1692
G1 X61.32 Y111.535 E0.1932
G1 X61.329 Y111.585 E0.1937
G1 X61.329 Y111.59 E0.1938
G1 X61.331 Y111.59 E0.1938
G1 X61.375 Y111.615 E0.1944
G1 X62.924 Y113.06 E0.2184
G1 X62.951 Y113.103 E0.219
G1 X63.888 Y115.989 E0.2533
G1 X63.891 Y116.04 E0.2539
G1 X63.487 Y118.118 E0.2778
G1 X63.465 Y118.164 E0.2784
G1 X63.463 Y118.167 E0.2784
G1 X63.901 Y120.254 E0.3026
G1 X63.898 Y120.306 E0.3032
G1 X62.95 Y123.223 E0.3379
G1 X62.923 Y123.266 E0.3385
G1 X61.377 Y124.711 E0.3624
G1 X61.332 Y124.735 E0.363
G1 X61.325 Y124.737 E0.3631
G1 X60.455 Y126.682 E0.3872
G1 X60.422 Y126.723 E0.3878
G1 X59.391 Y127.472 E0.4022
G1 X60.338 Y127.472 E0.4129
G1 X60.397 Y127.491 E0.4136
G1 X60.51 Y127.57 E0.4152
G1 X60.623 Y127.491 E0.4167
G1 X60.681 Y127.472 E0.4174
G1 X64.338 Y127.472 E0.4588
G1 X64.397 Y127.491 E0.4595
G1 X64.51 Y127.57 E0.4611
G1 X64.623 Y127.491 E0.4626
G1 X64.681 Y127.472 E0.4633
G1 X68.338 Y127.472 E0.5047
G1 X68.397 Y127.491 E0.5054
G1 X68.51 Y127.57 E0.507
G1 X68.623 Y127.491 E0.5085
G1 X68.681 Y127.472 E0.5092
G1 X72.338 Y127.472 E0.5506
G1 X72.397 Y127.491 E0.5513
G1 X72.51 Y127.57 E0.5529
G1 X72.623 Y127.491 E0.5544
G1 X72.681 Y127.472 E0.5551
G1 X76.338 Y127.472 E0.5965
G1 X76.397 Y127.491 E0.5972
G1 X76.51 Y127.57 E0.5988
G1 X76.623 Y127.491 E0.6003
G1 X76.681 Y127.472 E0.601
G1 X80.338 Y127.472 E0.6424
G1 X80.397 Y127.491 E0.6431
G1 X80.51 Y127.57 E0.6447
G1 X80.623 Y127.491 E0.6462
G1 X80.681 Y127.472 E0.6469
G1 X84.338 Y127.472 E0.6883
G1 X84.397 Y127.491 E0.689
G1 X84.51 Y127.57 E0.6906
G1 X84.623 Y127.491 E0.6921
G1 X84.681 Y127.472 E0.6928
G1 X88.338 Y127.472 E0.7342
G1 X88.397 Y127.491 E0.7349
G1 X88.51 Y127.57 E0.7365
G1 X88.623 Y127.491 E0.738
G1 X88.681 Y127.472 E0.7387
G1 X92.338 Y127.472 E0.7801
G1 X92.397 Y127.491 E0.7808
G1 X92.51 Y127.57 E0.7824
G1 X92.623 Y127.491 E0.7839
G1 X92.681 Y127.472 E0.7846
G1 X96.338 Y127.472 E0.826
G1 X96.397 Y127.491 E0.8267
G1 X96.51 Y127.57 E0.8283
G1 X96.623 Y127.491 E0.8298
G1 X96.681 Y127.472 E0.8305
G1 X100.338 Y127.472 E0.8719
G1 X100.397 Y127.491 E0.8726
G1 X100.51 Y127.57 E0.8742
G1 X100.623 Y127.491 E0.8757
G1 X100.681 Y127.472 E0.8764
G1 X104.338 Y127.472 E0.9178
G1 X104.397 Y127.491 E0.9185
G1 X104.51 Y127.57 E0.9201
G1 X104.623 Y127.491 E0.9216
G1 X104.681 Y127.472 E0.9223
G1 X108.338 Y127.472 E0.9637
G1 X108.397 Y127.491 E0.9644
G1 X108.51 Y127.57 E0.966
G1 X108.623 Y127.491 E0.9675
G1 X108.681 Y127.472 E0.9682
G1 X112.338 Y127.472 E1.0096
G1 X112.397 Y127.491 E1.0103
G1 X112.51 Y127.57 E1.0119
G1 X112.623 Y127.491 E1.0134
G1 X112.681 Y127.472 E1.0141
G1 X116.338 Y127.472 E1.0555
G1 X116.397 Y127.491 E1.0562
G1 X116.51 Y127.57 E1.0578
G1 X116.623 Y127.491 E1.0593
G1 X116.681 Y127.472 E1.06
G1 X120.338 Y127.472 E1.1014
G1 X120.397 Y127.491 E1.1021
G1 X120.51 Y127.57 E1.1037
G1 X120.623 Y127.491 E1.1052
G1 X120.681 Y127.472 E1.1059
G1 X124.338 Y127.472 E1.1473
G1 X124.397 Y127.491 E1.148
G1 X124.51 Y127.57 E1.1496
G1 X124.623 Y127.491 E1.1511
G1 X124.681 Y127.472 E1.1518
G1 X128.338 Y127.472 E1.1932
G1 X128.397 Y127.491 E1.1939
G1 X128.51 Y127.57 E1.1955
G1 X128.623 Y127.491 E1.197
G1 X128.681 Y127.472 E1.1977
G1 X132.338 Y127.472 E1.2391
G1 X132.397 Y127.491 E1.2398
G1 X132.51 Y127.57 E1.2414
G1 X132.623 Y127.491 E1.2429
G1 X132.681 Y127.472 E1.2436
G1 X136.338 Y127.472 E1.285
G1 X136.397 Y127.491 E1.2857
G1 X136.51 Y127.57 E1.2873
G1 X136.623 Y127.491 E1.2888
G1 X136.681 Y127.472 E1.2895
G1 X140.338 Y127.472 E1.3309
G1 X140.397 Y127.491 E1.3316
G1 X140.51 Y127.57 E1.3332
G1 X140.623 Y127.491 E1.3347
G1 X140.681 Y127.472 E1.3354
G1 X144.338 Y127.472 E1.3768
G1 X144.397 Y127.491 E1.3775
G1 X144.51 Y127.57 E1.3791
G1 X144.623 Y127.491 E1.3806
G1 X144.681 Y127.472 E1.3813
G1 X148.338 Y127.472 E1.4227
G1 X148.397 Y127.491 E1.4234
G1 X148.51 Y127.57 E1.425
G1 X148.623 Y127.491 E1.4265
G1 X148.681 Y127.472 E1.4272
G1 X152.338 Y127.472 E1.4686
G1 X152.397 Y127.491 E1.4693
G1 X152.51 Y127.57 E1.4709
G1 X152.623 Y127.491 E1.4724
G1 X152.681 Y127.472 E1.4731
G1 X156.338 Y127.472 E1.5145
G1 X156.397 Y127.491 E1.5152
G1 X156.51 Y127.57 E1.5168
G1 X156.623 Y127.491 E1.5183
G1 X156.681 Y127.472 E1.519
G1 X160.338 Y127.472 E1.5604
G1 X160.397 Y127.491 E1.5611
G1 X160.51 Y127.57 E1.5626
G1 X160.623 Y127.491 E1.5642
G1 X160.681 Y127.472 E1.5649
G1 X164.338 Y127.472 E1.6063
G1 X164.397 Y127.491 E1.607
G1 X164.51 Y127.57 E1.6085
G1 X164.623 Y127.491 E1.6101
G1 X164.681 Y127.472 E1.6108
G1 X168.338 Y127.472 E1.6522
G1 X168.397 Y127.491 E1.6529
G1 X168.51 Y127.57 E1.6544
G1 X168.623 Y127.491 E1.656
G1 X168.681 Y127.472 E1.6567
G1 X172.338 Y127.472 E1.6981
G1 X172.397 Y127.491 E1.6988
G1 X172.51 Y127.57 E1.7003
G1 X172.623 Y127.491 E1.7019
G1 X172.681 Y127.472 E1.7026
G1 X176.338 Y127.472 E1.744
G1 X176.397 Y127.491 E1.7447
G1 X176.51 Y127.57 E1.7462
G1 X176.623 Y127.491 E1.7478
G1 X176.681 Y127.472 E1.7485
G1 X180.338 Y127.472 E1.7899
G1 X180.397 Y127.491 E1.7906
G1 X180.51 Y127.57 E1.7921
G1 X180.623 Y127.491 E1.7937
G1 X180.681 Y127.472 E1.7944
G1 X184.338 Y127.472 E1.8358
G1 X184.397 Y127.491 E1.8365
G1 X184.51 Y127.57 E1.838
G1 X184.623 Y127.491 E1.8396
G1 X184.681 Y127.472 E1.8403
G1 X188.338 Y127.472 E1.8817
G1 X188.397 Y127.491 E1.8824
G1 X188.51 Y127.57 E1.8839
G1 X188.623 Y127.491 E1.8855
G1 X188.681 Y127.472 E1.8862
G1 X192.338 Y127.472 E1.9276
G1 X192.397 Y127.491 E1.9283
G1 X192.51 Y127.57 E1.9298
G1 X192.623 Y127.491 E1.9314
G1 X192.681 Y127.472 E1.9321
G1 X196.338 Y127.472 E1.9735
G1 X196.397 Y127.491 E1.9742
G1 X196.51 Y127.57 E1.9757
G1 X196.623 Y127.491 E1.9773
G1 X196.681 Y127.472 E1.978
G1 X200.338 Y127.472 E2.0194
G1 X200.397 Y127.491 E2.0201
G1 X200.51 Y127.57 E2.0216
G1 X200.623 Y127.491 E2.0232
G1 X200.681 Y127.472 E2.0239
G1 X204.338 Y127.472 E2.0653
G1 X204.397 Y127.491 E2.066
G1 X206.514 Y128.973 E2.0952
G1 X206.551 Y129.022 E2.0959
G1 X207.087 Y130.493 E2.1136
G1 X209.17 Y132.576 E2.147
G1 X209.2 Y132.649 E2.1479
G1 X209.2 Y141.043 E2.2429
G1 X209.17 Y141.116 E2.2438
G1 X206.77 Y143.515 E2.2822
G1 X206.697 Y143.546 E2.2831
G1 X43.303 Y143.546 E4.1323
G1 X43.23 Y143.515 E4.1332
G1 X40.83 Y141.116 E4.1716
G1 X40.8 Y141.043 E4.1725
G1 X40.8 Y133.987 E4.2524
G1 X40.802 Y133.97 E4.2526
G1 X40.926 Y133.263 E4.2607
G1 X40.931 Y133.246 E4.2609
G1 X42.468 Y129.022 E4.3118
G1 X42.506 Y128.973 E4.3125
G1 X44.623 Y127.491 E4.3417
G1 X44.681 Y127.472 E4.3424
G1 X45.175 Y127.472 E4.348
G1 X44.175 Y126.745 E4.362
G1 X44.142 Y126.706 E4.3626
G1 X43.246 Y124.791 E4.3865
G1 X43.237 Y124.741 E4.3871
G1 X43.238 Y124.733 E4.3872
G1 X41.654 Y123.299 E4.4113
