; G-Code generated by Simplify3D(TM) Version 2.2.0
; Dec 28, 2014 at 5:28:44 PM
; Settings Summary
;   processName,PLA
;   applyToModels,Rack
;   profileLabel,-- Select Printer Profile --
;   printMaterial,PLA
;   printQuality,High
;   extruderName,Extruder 1
;   extruderToolheadNumber,0
;   extruderDiameter,0.4
;   extruderAutoWidth,1
;   extruderWidth,0.48
;   extrusionMultiplier,0.9
;   extruderUseRetract,1
;   extruderRetractionDistance,1
;   extruderExtraRestartDistance,0
;   extruderRetractionZLift,0
;   extruderRetractionSpeed,1800
;   extruderUseCoasting,0
;   extruderCoastingDistance,0.2
;   extruderUseWipe,0
;   extruderWipeDistance,5
;   primaryExtruder,0
;   layerHeight,0.2
;   topSolidLayers,4
;   bottomSolidLayers,4
;   perimeterOutlines,3
;   printPerimetersInsideOut,1
;   startPointOption,2
;   startPointOriginX,0
;   startPointOriginY,0
;   startPointOriginZ,300
;   sequentialIslands,0
;   spiralVaseMode,0
;   firstLayerHeightPercentage,90
;   firstLayerWidthPercentage,100
;   firstLayerUnderspeed,0.5
;   useRaft,0
;   raftExtruder,0
;   raftLayers,3
;   raftOffset,3
;   raftSeparationDistance,0.14
;   raftInfill,85
;   disableRaftBaseLayers,0
;   useSkirt,1
;   skirtExtruder,0
;   skirtLayers,2
;   skirtOutlines,4
;   skirtOffset,8
;   infillExtruder,0
;   externalInfillPattern,Rectilinear
;   infillPercentage,40
;   outlineOverlapPercentage,15
;   infillExtrusionWidthPercentage,100
;   minInfillLength,5
;   infillLayerInterval,1
;   randomInfillStartPoint,0
;   infillAngles,45,-45
;   generateSupport,1
;   supportExtruder,0
;   supportInfill,40
;   supportExtraInflation,0
;   denseSupportLayers,0
;   denseSupportInfill,70
;   supportLayerInterval,1
;   supportHorizontalPartOffset,0.3
;   supportUpperSeparationLayers,1
;   supportLowerSeparationLayers,1
;   supportGridSpacing,3
;   maxOverhangAngle,45
;   supportAngles,0
;   temperatureName,Extruder 1 Temperature,Heated Bed
;   temperatureNumber,0,0
;   temperatureSetpointCount,1,1
;   temperatureSetpointLayers,1,1
;   temperatureSetpointTemperatures,190,60
;   temperatureStabilizeAtStartup,1,1
;   temperatureHeatedBed,0,1
;   temperatureRelayBetweenLayers,0,0
;   temperatureRelayBetweenLoops,0,0
;   fanLayers,1,2
;   fanSpeeds,0,100
;   blipFanToFullPower,0
;   adjustSpeedForCooling,1
;   minSpeedLayerTime,15
;   minCoolingSpeedSlowdown,20
;   increaseFanForCooling,0
;   minFanLayerTime,45
;   maxCoolingFanSpeed,100
;   increaseFanForBridging,0
;   bridgingFanSpeed,100
;   use5D,1
;   relativeEdistances,0
;   allowEaxisZeroing,1
;   independentExtruderAxes,0
;   includeM10123,0
;   stickySupport,1
;   detectArcs,0
;   arcReplaceG2G3,0
;   arcRadialCompensation,1
;   gcodeXoffset,0
;   gcodeYoffset,0
;   gcodeZoffset,0
;   overrideMachineDefinition,0
;   machineTypeOverride,0
;   strokeXoverride,250
;   strokeYoverride,250
;   strokeZoverride,250
;   originOffsetXoverride,0
;   originOffsetYoverride,0
;   originOffsetZoverride,0
;   homeXdirOverride,-1
;   homeYdirOverride,-1
;   homeZdirOverride,-1
;   flipXoverride,1
;   flipYoverride,-1
;   flipZoverride,1
;   startingGcode,G28 ; home all axes
;   layerChangeGcode,
;   toolChangeGcode,
;   endingGcode,M104 S0 ; turn off extruder,M140 S0 ; turn off bed,M84 ; disable motors,G28 ; home all axes
;   createX3G,0
;   celebration,0
;   celebrationSong,Random Song
;   createMB5G,0
;   postProcessing,
;   defaultSpeed,6000
;   outlineUnderspeed,0.5
;   solidInfillUnderspeed,0.8
;   supportUnderspeed,0.8
;   rapidXYspeed,10000
;   rapidZspeed,1000
;   minBridgingArea,50
;   bridgingExtrusionMultiplier,1
;   bridgingSpeedMultiplier,1
;   filamentDiameter,3
;   filamentPricePerKg,46
;   useMinPrintHeight,0
;   minPrintHeight,0
;   useMaxPrintHeight,0
;   maxPrintHeight,0
;   useDiaphragm,0
;   diaphragmLayerInterval,20
;   robustSlicing,1
;   mergeAllIntoSolid,0
;   onlyRetractWhenCrossingOutline,1
;   retractBetweenLayers,1
;   useRetractionMinTravel,0
;   retractionMinTravel,3
;   useRetractionOozeRate,0
;   retractionOozeRate,100
;   onlyWipeOutlines,1
;   toolChangeRetractionDistance,12
;   toolChangeExtraRestartDistance,-0.5
;   toolChangeRetractionSpeed,600
;   allowThinWallGapFill,1
;   thinWallAllowedOverlapPercentage,10
G90
M82
M106 S0
M140 S60
M190 S60
M104 S190 T0
M109 S190 T0
G28 ; home all axes
G92 E0
G1 E-1 F1800
; layer 1, Z = 0.18
T0
; tool H0.2 W0.48
G1 X41.307 Y106.32 F10000
G1 Z0.18 F1000
G1 E0 F540
G92 E0
G1 X208.603 Y106.32 E2.0449 F3000
G1 X209.22 Y106.576 E2.053
G1 X214.379 Y111.735 E2.1422
G1 X214.635 Y112.352 E2.1504
G1 X214.635 Y137.648 E2.4596
G1 X214.379 Y138.265 E2.4677
G1 X209.22 Y143.424 E2.5569
G1 X208.603 Y143.68 E2.5651
G1 X41.307 Y143.68 E4.61
G1 X40.69 Y143.424 E4.6181
G1 X35.531 Y138.265 E4.7073
G1 X35.275 Y137.648 E4.7155
G1 X35.275 Y112.352 E5.0247
G1 X35.531 Y111.735 E5.0328
G1 X40.69 Y106.576 E5.122
G1 X41.307 Y106.32 E5.1302
G1 X41.403 Y106.8 F10000
G92 E0
G1 X208.507 Y106.8 E2.0425 F3000
G1 X208.948 Y106.983 E2.0484
G1 X213.972 Y112.007 E2.1352
G1 X214.155 Y112.448 E2.1411
G1 X214.155 Y137.552 E2.4479
G1 X213.972 Y137.993 E2.4537
G1 X208.948 Y143.017 E2.5406
G1 X208.507 Y143.2 E2.5464
G1 X41.403 Y143.2 E4.589
G1 X40.962 Y143.017 E4.5948
G1 X35.938 Y137.993 E4.6816
G1 X35.755 Y137.552 E4.6875
G1 X35.755 Y112.448 E4.9943
G1 X35.938 Y112.007 E5.0002
G1 X40.962 Y106.983 E5.087
G1 X41.403 Y106.8 E5.0928
G1 X41.498 Y107.28 F10000
G92 E0
G1 X208.412 Y107.28 E2.0402 F3000
G1 X208.677 Y107.39 E2.0437
G1 X213.565 Y112.278 E2.1282
G1 X213.675 Y112.543 E2.1317
G1 X213.675 Y137.457 E2.4362
G1 X213.565 Y137.722 E2.4397
G1 X208.677 Y142.61 E2.5242
G1 X208.412 Y142.72 E2.5278
G1 X41.498 Y142.72 E4.568
G1 X41.233 Y142.61 E4.5715
G1 X36.345 Y137.722 E4.656
G1 X36.235 Y137.457 E4.6595
G1 X36.235 Y112.543 E4.964
G1 X36.345 Y112.278 E4.9675
G1 X41.233 Y107.39 E5.052
G1 X41.498 Y107.28 E5.0555
G1 X41.594 Y107.76 F10000
G92 E0
G1 X208.316 Y107.76 E2.0379 F3000
G1 X208.405 Y107.797 E2.039
G1 X213.158 Y112.55 E2.1212
G1 X213.195 Y112.639 E2.1224
G1 X213.195 Y137.361 E2.4246
G1 X213.158 Y137.45 E2.4257
G1 X208.405 Y142.203 E2.5079
G1 X208.316 Y142.24 E2.5091
G1 X41.594 Y142.24 E4.5469
G1 X41.505 Y142.203 E4.5481
G1 X36.752 Y137.45 E4.6303
G1 X36.715 Y137.361 E4.6315
G1 X36.715 Y112.639 E4.9336
G1 X36.752 Y112.55 E4.9348
G1 X41.505 Y107.797 E5.017
G1 X41.594 Y107.76 E5.0182
G92 E0
G1 E-1 F1800
G1 X46.155 Y117.2 F10000
G1 E0 F1800
G92 E0
G1 X203.755 Y117.2 E1.9264 F2500
G1 X203.755 Y132.8 E2.117
G1 X46.155 Y132.8 E4.0434
G1 X46.155 Y117.2 E4.2341
G1 X45.675 Y116.72 F10000
G92 E0
G1 X204.235 Y116.72 E1.9381 F2000
G1 X204.235 Y133.28 E2.1405
G1 X45.675 Y133.28 E4.0786
G1 X45.675 Y116.72 E4.281
G1 X45.195 Y116.24 F10000
G92 E0
G1 X204.715 Y116.24 E1.9498 F1500
G1 X204.715 Y133.76 E2.164
G1 X45.195 Y133.76 E4.1138
G1 X45.195 Y116.24 E4.328
G1 X46.563 Y117.811 F10000
G92 E0
G1 X46.766 Y117.608 E0.0035 F2400
G1 X47.445 Y117.608 E0.0118
G1 X46.563 Y118.49 E0.0271
G1 X46.563 Y119.169 E0.0354
G1 X48.124 Y117.608 E0.0623
G1 X48.803 Y117.608 E0.0706
G1 X46.563 Y119.848 E0.1094
G1 X46.563 Y120.527 E0.1177
G1 X49.482 Y117.608 E0.1681
G1 X50.161 Y117.608 E0.1764
G1 X46.563 Y121.205 E0.2386
G1 X46.563 Y121.884 E0.2469
G1 X50.839 Y117.608 E0.3208
G1 X51.518 Y117.608 E0.3291
G1 X46.563 Y122.563 E0.4148
G1 X46.563 Y123.242 E0.4231
G1 X52.197 Y117.608 E0.5205
G1 X52.876 Y117.608 E0.5287
G1 X46.563 Y123.921 E0.6379
G1 X46.563 Y124.6 E0.6462
G1 X53.555 Y117.608 E0.767
G1 X54.233 Y117.608 E0.7753
G1 X46.563 Y125.278 E0.9079
G1 X46.563 Y125.957 E0.9162
G1 X54.912 Y117.608 E1.0605
G1 X55.591 Y117.608 E1.0688
G1 X46.563 Y126.636 E1.2249
G1 X46.563 Y127.315 E1.2332
G1 X56.27 Y117.608 E1.401
G1 X56.949 Y117.608 E1.4093
G1 X46.563 Y127.994 E1.5888
G1 X46.563 Y128.673 E1.5971
G1 X57.628 Y117.608 E1.7884
G1 X58.306 Y117.608 E1.7967
G1 X46.563 Y129.351 E1.9997
G1 X46.563 Y130.03 E2.008
G1 X58.985 Y117.608 E2.2227
G1 X59.664 Y117.608 E2.231
G1 X46.563 Y130.709 E2.4575
G1 X46.563 Y131.388 E2.4658
G1 X60.343 Y117.608 E2.704
G1 X61.022 Y117.608 E2.7123
G1 X46.563 Y132.067 E2.9622
G1 X46.563 Y132.392 E2.9662
G1 X46.916 Y132.392 E2.9705
G1 X61.7 Y117.608 E3.226
G1 X62.379 Y117.608 E3.2343
G1 X47.595 Y132.392 E3.4899
G1 X48.274 Y132.392 E3.4982
G1 X63.058 Y117.608 E3.7537
G1 X63.737 Y117.608 E3.762
G1 X48.953 Y132.392 E4.0176
G1 X49.632 Y132.392 E4.0259
G1 X64.416 Y117.608 E4.2815
G1 X65.095 Y117.608 E4.2898
G1 X50.311 Y132.392 E4.5453
G1 X50.989 Y132.392 E4.5536
G1 X65.773 Y117.608 E4.8092
G1 X66.452 Y117.608 E4.8175
G1 X51.668 Y132.392 E5.073
G1 X52.347 Y132.392 E5.0813
G1 X67.131 Y117.608 E5.3369
G1 X67.81 Y117.608 E5.3452
G1 X53.026 Y132.392 E5.6007
G1 X53.705 Y132.392 E5.609
G1 X68.489 Y117.608 E5.8646
G1 X69.168 Y117.608 E5.8729
G1 X54.384 Y132.392 E6.1284
G1 X55.062 Y132.392 E6.1367
G1 X69.846 Y117.608 E6.3923
G1 X70.525 Y117.608 E6.4006
G1 X55.741 Y132.392 E6.6561
G1 X56.42 Y132.392 E6.6644
G1 X71.204 Y117.608 E6.92
G1 X71.883 Y117.608 E6.9283
G1 X57.099 Y132.392 E7.1839
G1 X57.778 Y132.392 E7.1922
G1 X72.562 Y117.608 E7.4477
G1 X73.24 Y117.608 E7.456
G1 X58.456 Y132.392 E7.7116
G1 X59.135 Y132.392 E7.7199
G1 X73.919 Y117.608 E7.9754
G1 X74.598 Y117.608 E7.9837
G1 X59.814 Y132.392 E8.2393
G1 X60.493 Y132.392 E8.2476
G1 X75.277 Y117.608 E8.5031
G1 X75.956 Y117.608 E8.5114
G1 X61.172 Y132.392 E8.767
G1 X61.851 Y132.392 E8.7753
G1 X76.635 Y117.608 E9.0308
G1 X77.313 Y117.608 E9.0391
G1 X62.529 Y132.392 E9.2947
G1 X63.208 Y132.392 E9.303
G1 X77.992 Y117.608 E9.5585
G1 X78.671 Y117.608 E9.5668
G1 X63.887 Y132.392 E9.8224
G1 X64.566 Y132.392 E9.8307
G1 X79.35 Y117.608 E10.0863
G1 X80.029 Y117.608 E10.0946
G1 X65.245 Y132.392 E10.3501
G1 X65.924 Y132.392 E10.3584
G1 X80.708 Y117.608 E10.614
G1 X81.386 Y117.608 E10.6223
G1 X66.602 Y132.392 E10.8778
G1 X67.281 Y132.392 E10.8861
G1 X82.065 Y117.608 E11.1417
G1 X82.744 Y117.608 E11.15
G1 X67.96 Y132.392 E11.4055
G1 X68.639 Y132.392 E11.4138
G1 X83.423 Y117.608 E11.6694
G1 X84.102 Y117.608 E11.6777
G1 X69.318 Y132.392 E11.9332
G1 X69.996 Y132.392 E11.9415
G1 X84.78 Y117.608 E12.1971
G1 X85.459 Y117.608 E12.2054
G1 X70.675 Y132.392 E12.461
G1 X71.354 Y132.392 E12.4692
G1 X86.138 Y117.608 E12.7248
G1 X86.817 Y117.608 E12.7331
G1 X72.033 Y132.392 E12.9887
G1 X72.712 Y132.392 E12.997
G1 X87.496 Y117.608 E13.2525
G1 X88.175 Y117.608 E13.2608
G1 X73.391 Y132.392 E13.5164
G1 X74.069 Y132.392 E13.5247
G1 X88.853 Y117.608 E13.7802
G1 X89.532 Y117.608 E13.7885
G1 X74.748 Y132.392 E14.0441
G1 X75.427 Y132.392 E14.0524
G1 X90.211 Y117.608 E14.3079
G1 X90.89 Y117.608 E14.3162
G1 X76.106 Y132.392 E14.5718
G1 X76.785 Y132.392 E14.5801
G1 X91.569 Y117.608 E14.8356
G1 X92.248 Y117.608 E14.8439
G1 X77.464 Y132.392 E15.0995
G1 X78.142 Y132.392 E15.1078
G1 X92.926 Y117.608 E15.3634
G1 X93.605 Y117.608 E15.3716
G1 X78.821 Y132.392 E15.6272
G1 X79.5 Y132.392 E15.6355
G1 X94.284 Y117.608 E15.8911
G1 X94.963 Y117.608 E15.8994
G1 X80.179 Y132.392 E16.1549
G1 X80.858 Y132.392 E16.1632
G1 X95.642 Y117.608 E16.4188
G1 X96.32 Y117.608 E16.4271
G1 X81.536 Y132.392 E16.6826
G1 X82.215 Y132.392 E16.6909
G1 X96.999 Y117.608 E16.9465
G1 X97.678 Y117.608 E16.9548
G1 X82.894 Y132.392 E17.2103
G1 X83.573 Y132.392 E17.2186
G1 X98.357 Y117.608 E17.4742
G1 X99.036 Y117.608 E17.4825
G1 X84.252 Y132.392 E17.738
G1 X84.931 Y132.392 E17.7463
G1 X99.715 Y117.608 E18.0019
G1 X100.393 Y117.608 E18.0102
G1 X85.609 Y132.392 E18.2658
G1 X86.288 Y132.392 E18.274
G1 X101.072 Y117.608 E18.5296
G1 X101.751 Y117.608 E18.5379
G1 X86.967 Y132.392 E18.7935
G1 X87.646 Y132.392 E18.8018
G1 X102.43 Y117.608 E19.0573
G1 X103.109 Y117.608 E19.0656
G1 X88.325 Y132.392 E19.3212
G1 X89.003 Y132.392 E19.3295
G1 X103.787 Y117.608 E19.585
G1 X104.466 Y117.608 E19.5933
G1 X89.682 Y132.392 E19.8489
G1 X90.361 Y132.392 E19.8572
G1 X105.145 Y117.608 E20.1127
G1 X105.824 Y117.608 E20.121
G1 X91.04 Y132.392 E20.3766
G1 X91.719 Y132.392 E20.3849
G1 X106.503 Y117.608 E20.6404
G1 X107.182 Y117.608 E20.6487
G1 X92.398 Y132.392 E20.9043
G1 X93.076 Y132.392 E20.9126
G1 X107.86 Y117.608 E21.1682
G1 X108.539 Y117.608 E21.1765
G1 X93.755 Y132.392 E21.432
G1 X94.434 Y132.392 E21.4403
G1 X109.218 Y117.608 E21.6959
G1 X109.897 Y117.608 E21.7042
G1 X95.113 Y132.392 E21.9597
G1 X95.792 Y132.392 E21.968
G1 X110.576 Y117.608 E22.2236
G1 X111.255 Y117.608 E22.2319
G1 X96.471 Y132.392 E22.4874
G1 X97.149 Y132.392 E22.4957
G1 X111.933 Y117.608 E22.7513
G1 X112.612 Y117.608 E22.7596
G1 X97.828 Y132.392 E23.0151
G1 X98.507 Y132.392 E23.0234
G1 X113.291 Y117.608 E23.279
G1 X113.97 Y117.608 E23.2873
G1 X99.186 Y132.392 E23.5428
G1 X99.865 Y132.392 E23.5511
G1 X114.649 Y117.608 E23.8067
G1 X115.327 Y117.608 E23.815
G1 X100.543 Y132.392 E24.0706
G1 X101.222 Y132.392 E24.0789
G1 X116.006 Y117.608 E24.3344
G1 X116.685 Y117.608 E24.3427
G1 X101.901 Y132.392 E24.5983
G1 X102.58 Y132.392 E24.6066
G1 X117.364 Y117.608 E24.8621
G1 X118.043 Y117.608 E24.8704
G1 X103.259 Y132.392 E25.126
G1 X103.938 Y132.392 E25.1343
G1 X118.722 Y117.608 E25.3898
G1 X119.4 Y117.608 E25.3981
G1 X104.616 Y132.392 E25.6537
G1 X105.295 Y132.392 E25.662
G1 X120.079 Y117.608 E25.9175
G1 X120.758 Y117.608 E25.9258
G1 X105.974 Y132.392 E26.1814
G1 X106.653 Y132.392 E26.1897
G1 X121.437 Y117.608 E26.4452
G1 X122.116 Y117.608 E26.4535
G1 X107.332 Y132.392 E26.7091
G1 X108.011 Y132.392 E26.7174
G1 X122.795 Y117.608 E26.973
G1 X123.473 Y117.608 E26.9813
G1 X108.689 Y132.392 E27.2368
G1 X109.368 Y132.392 E27.2451
G1 X124.152 Y117.608 E27.5007
G1 X124.831 Y117.608 E27.509
G1 X110.047 Y132.392 E27.7645
G1 X110.726 Y132.392 E27.7728
G1 X125.51 Y117.608 E28.0284
G1 X126.189 Y117.608 E28.0367
G1 X111.405 Y132.392 E28.2922
G1 X112.083 Y132.392 E28.3005
G1 X126.867 Y117.608 E28.5561
G1 X127.546 Y117.608 E28.5644
G1 X112.762 Y132.392 E28.8199
G1 X113.441 Y132.392 E28.8282
G1 X128.225 Y117.608 E29.0838
G1 X128.904 Y117.608 E29.0921
G1 X114.12 Y132.392 E29.3476
G1 X114.799 Y132.392 E29.3559
G1 X129.583 Y117.608 E29.6115
G1 X130.262 Y117.608 E29.6198
G1 X115.478 Y132.392 E29.8754
G1 X116.156 Y132.392 E29.8837
G1 X130.94 Y117.608 E30.1392
G1 X131.619 Y117.608 E30.1475
G1 X116.835 Y132.392 E30.4031
G1 X117.514 Y132.392 E30.4114
G1 X132.298 Y117.608 E30.6669
G1 X132.977 Y117.608 E30.6752
G1 X118.193 Y132.392 E30.9308
G1 X118.872 Y132.392 E30.9391
G1 X133.656 Y117.608 E31.1946
G1 X134.334 Y117.608 E31.2029
G1 X119.55 Y132.392 E31.4585
G1 X120.229 Y132.392 E31.4668
G1 X135.013 Y117.608 E31.7223
G1 X135.692 Y117.608 E31.7306
G1 X120.908 Y132.392 E31.9862
G1 X121.587 Y132.392 E31.9945
G1 X136.371 Y117.608 E32.25
G1 X137.05 Y117.608 E32.2583
G1 X122.266 Y132.392 E32.5139
G1 X122.945 Y132.392 E32.5222
G1 X137.729 Y117.608 E32.7778
G1 X138.407 Y117.608 E32.7861
G1 X123.623 Y132.392 E33.0416
G1 X124.302 Y132.392 E33.0499
G1 X139.086 Y117.608 E33.3055
G1 X139.765 Y117.608 E33.3138
G1 X124.981 Y132.392 E33.5693
G1 X125.66 Y132.392 E33.5776
G1 X140.444 Y117.608 E33.8332
G1 X141.123 Y117.608 E33.8415
G1 X126.339 Y132.392 E34.097
G1 X127.018 Y132.392 E34.1053
G1 X141.802 Y117.608 E34.3609
G1 X142.48 Y117.608 E34.3692
G1 X127.696 Y132.392 E34.6247
G1 X128.375 Y132.392 E34.633
G1 X143.159 Y117.608 E34.8886
G1 X143.838 Y117.608 E34.8969
G1 X129.054 Y132.392 E35.1524
G1 X129.733 Y132.392 E35.1607
G1 X144.517 Y117.608 E35.4163
G1 X145.196 Y117.608 E35.4246
G1 X130.412 Y132.392 E35.6802
G1 X131.09 Y132.392 E35.6885
G1 X145.874 Y117.608 E35.944
G1 X146.553 Y117.608 E35.9523
G1 X131.769 Y132.392 E36.2079
G1 X132.448 Y132.392 E36.2162
G1 X147.232 Y117.608 E36.4717
G1 X147.911 Y117.608 E36.48
G1 X133.127 Y132.392 E36.7356
G1 X133.806 Y132.392 E36.7439
G1 X148.59 Y117.608 E36.9994
G1 X149.269 Y117.608 E37.0077
G1 X134.485 Y132.392 E37.2633
G1 X135.163 Y132.392 E37.2716
G1 X149.947 Y117.608 E37.5271
G1 X150.626 Y117.608 E37.5354
G1 X135.842 Y132.392 E37.791
G1 X136.521 Y132.392 E37.7993
G1 X151.305 Y117.608 E38.0548
G1 X151.984 Y117.608 E38.0631
G1 X137.2 Y132.392 E38.3187
G1 X137.879 Y132.392 E38.327
G1 X152.663 Y117.608 E38.5826
G1 X153.342 Y117.608 E38.5909
G1 X138.558 Y132.392 E38.8464
G1 X139.236 Y132.392 E38.8547
