; generated by Slic3r 0.9.9 on 2014-12-26 at 19:43:38

; layer_height = 0.2
; perimeters = 3
; top_solid_layers = 3
; bottom_solid_layers = 3
; fill_density = 0.2
; perimeter_speed = 75
; infill_speed = 100
; travel_speed = 100
; nozzle_diameter = 0.4
; filament_diameter = 3
; extrusion_multiplier = 1
; perimeters extrusion width = 0.67mm
; infill extrusion width = 0.67mm
; solid infill extrusion width = 0.67mm
; top infill extrusion width = 0.67mm
; first layer extrusion width = 0.80mm

G21 ; set units to millimeters
M107
M190 S70 ; wait for bed temperature to be reached
M104 S188 ; set temperature
; 10" i3v 3mm PLA for .40mm Hexagon 8-9-14
G1 Z5 F50 ; lift nozzle
G28 ; home all axes
M109 S188 ; wait for temperature to be reached
G90 ; use absolute coordinates
G92 E0
M82 ; use absolute distances for extrusion
G1 F1800.000 E-1.00000
G92 E0
G1 Z0.400 F6000.000
G1 X42.623 Y112.911
G1 F1800.000 E1.00000
G1 X43.133 Y112.741 F1350.000 E1.02173
G1 X43.663 Y112.611 E1.04378
G1 X44.193 Y112.521 E1.06551
G1 X44.733 Y112.481 E1.08739
G1 X205.273 Y112.481 E7.57531
G1 X205.813 Y112.521 E7.59720
G1 X206.613 Y112.671 E7.63009
G1 X207.133 Y112.821 E7.65196
G1 X207.633 Y113.011 E7.67358
G1 X208.123 Y113.241 E7.69545
G1 X208.363 Y113.381 E7.70668
G1 X208.813 Y113.661 E7.72810
G1 X209.253 Y113.991 E7.75033
G1 X209.653 Y114.351 E7.77208
G1 X210.033 Y114.741 E7.79408
G1 X210.533 Y115.381 E7.82691
G1 X210.953 Y116.071 E7.85955
G1 X211.283 Y116.811 E7.89229
G1 X211.453 Y117.321 E7.91402
G1 X211.583 Y117.851 E7.93607
G1 X211.673 Y118.381 E7.95780
G1 X211.713 Y118.921 E7.97968
G1 X211.703 Y128.421 E8.36361
G1 X211.683 Y128.701 E8.37495
G1 X211.613 Y129.271 E8.39816
G1 X211.493 Y129.821 E8.42091
G1 X211.413 Y130.091 E8.43229
G1 X211.223 Y130.621 E8.45505
G1 X210.863 Y131.391 E8.48940
G1 X210.723 Y131.631 E8.50063
G1 X210.403 Y132.101 E8.52360
G1 X208.283 Y134.991 E8.66845
G1 X207.733 Y135.601 E8.70165
G1 X207.113 Y136.141 E8.73487
G1 X206.663 Y136.451 E8.75696
G1 X206.183 Y136.731 E8.77941
G1 X205.443 Y137.071 E8.81233
G1 X204.923 Y137.241 E8.83443
G1 X204.393 Y137.381 E8.85659
G1 X204.123 Y137.431 E8.86769
G1 X203.303 Y137.511 E8.90098
G1 X45.693 Y137.511 E15.27050
G1 X45.413 Y137.491 E15.28184
G1 X44.873 Y137.431 E15.30380
G1 X44.603 Y137.381 E15.31490
G1 X44.073 Y137.241 E15.33705
G1 X43.553 Y137.071 E15.35916
G1 X42.813 Y136.731 E15.39207
G1 X42.333 Y136.451 E15.41453
G1 X41.673 Y135.971 E15.44751
G1 X41.073 Y135.411 E15.48068
G1 X40.893 Y135.201 E15.49185
G1 X40.553 Y134.781 E15.51369
G1 X40.243 Y134.321 E15.53611
G1 X39.983 Y133.841 E15.55817
G1 X39.753 Y133.351 E15.58005
G1 X38.593 Y130.151 E15.71760
G1 X38.433 Y129.581 E15.74153
G1 X38.333 Y129.001 E15.76532
G1 X38.283 Y128.421 E15.78884
G1 X38.293 Y118.901 E16.17358
G1 X38.343 Y118.371 E16.19509
G1 X38.423 Y117.831 E16.21715
G1 X38.483 Y117.571 E16.22793
G1 X38.553 Y117.311 E16.23882
G1 X38.733 Y116.801 E16.26067
G1 X39.063 Y116.061 E16.29342
G1 X39.193 Y115.821 E16.30445
G1 X39.483 Y115.371 E16.32608
G1 X39.983 Y114.731 E16.35890
G1 X40.163 Y114.531 E16.36978
G1 X40.553 Y114.161 E16.39150
G1 X40.763 Y113.981 E16.40268
G1 X41.193 Y113.661 E16.42434
G1 X41.883 Y113.241 E16.45699
G1 X42.523 Y112.950 E16.48541
G1 F1800.000 E15.48541
G92 E0
G1 X46.778 Y124.921 F6000.000
G1 F1800.000 E1.00000
G1 X203.207 Y124.921 F1350.000 E7.32180
G1 X203.207 Y126.350 E7.37956
G1 X202.762 Y126.350 E7.39754
G1 X202.503 Y127.064 E7.42823
G1 X202.243 Y126.350 E7.45891
G1 X198.762 Y126.350 E7.59957
G1 X198.503 Y127.064 E7.63026
G1 X198.243 Y126.350 E7.66094
G1 X194.762 Y126.350 E7.80160
G1 X194.503 Y127.064 E7.83228
G1 X194.243 Y126.350 E7.86297
G1 X190.762 Y126.350 E8.00363
G1 X190.503 Y127.064 E8.03431
G1 X190.243 Y126.350 E8.06499
G1 X186.762 Y126.350 E8.20566
G1 X186.503 Y127.064 E8.23634
G1 X186.243 Y126.350 E8.26702
G1 X182.762 Y126.350 E8.40768
G1 X182.503 Y127.064 E8.43837
G1 X182.243 Y126.350 E8.46905
G1 X178.762 Y126.350 E8.60971
G1 X178.503 Y127.064 E8.64039
G1 X178.243 Y126.350 E8.67108
G1 X174.762 Y126.350 E8.81174
G1 X174.503 Y127.064 E8.84242
G1 X174.243 Y126.350 E8.87310
G1 X170.762 Y126.350 E9.01377
G1 X170.503 Y127.064 E9.04445
G1 X170.243 Y126.350 E9.07513
G1 X166.762 Y126.350 E9.21579
G1 X166.503 Y127.064 E9.24647
G1 X166.243 Y126.350 E9.27715
G1 X162.762 Y126.350 E9.41782
G1 X162.503 Y127.064 E9.44850
G1 X162.243 Y126.350 E9.47918
G1 X158.762 Y126.350 E9.61985
G1 X158.503 Y127.064 E9.65053
G1 X158.243 Y126.350 E9.68121
G1 X154.762 Y126.350 E9.82187
G1 X154.503 Y127.064 E9.85255
G1 X154.243 Y126.350 E9.88324
G1 X150.762 Y126.350 E10.02390
G1 X150.503 Y127.064 E10.05458
G1 X150.243 Y126.350 E10.08526
G1 X146.762 Y126.350 E10.22593
G1 X146.503 Y127.064 E10.25661
G1 X146.243 Y126.350 E10.28729
G1 X142.762 Y126.350 E10.42795
G1 X142.503 Y127.064 E10.45863
G1 X142.243 Y126.350 E10.48932
G1 X138.762 Y126.350 E10.62998
G1 X138.503 Y127.064 E10.66066
G1 X138.243 Y126.350 E10.69134
G1 X134.762 Y126.350 E10.83201
G1 X134.503 Y127.064 E10.86269
G1 X134.243 Y126.350 E10.89337
G1 X130.762 Y126.350 E11.03403
G1 X130.503 Y127.063 E11.06471
G1 X130.243 Y126.350 E11.09539
G1 X126.762 Y126.350 E11.23605
G1 X126.503 Y127.063 E11.26673
G1 X126.243 Y126.350 E11.29741
G1 X122.762 Y126.350 E11.43807
G1 X122.503 Y127.063 E11.46875
G1 X122.243 Y126.350 E11.49943
G1 X118.762 Y126.350 E11.64010
G1 X118.503 Y127.063 E11.67077
G1 X118.243 Y126.350 E11.70145
G1 X114.762 Y126.350 E11.84212
G1 X114.503 Y127.064 E11.87280
G1 X114.243 Y126.350 E11.90347
G1 X110.762 Y126.350 E12.04414
G1 X110.503 Y127.064 E12.07482
G1 X110.243 Y126.350 E12.10550
G1 X106.762 Y126.350 E12.24617
G1 X106.503 Y127.064 E12.27685
G1 X106.243 Y126.350 E12.30753
G1 X102.762 Y126.350 E12.44819
G1 X102.503 Y127.064 E12.47887
G1 X102.243 Y126.350 E12.50955
G1 X98.762 Y126.350 E12.65022
G1 X98.503 Y127.064 E12.68090
G1 X98.243 Y126.350 E12.71158
G1 X94.762 Y126.350 E12.85225
G1 X94.503 Y127.064 E12.88293
G1 X94.243 Y126.350 E12.91361
G1 X90.762 Y126.350 E13.05427
G1 X90.503 Y127.064 E13.08495
G1 X90.243 Y126.350 E13.11564
G1 X86.762 Y126.350 E13.25630
G1 X86.503 Y127.064 E13.28698
G1 X86.243 Y126.350 E13.31766
G1 X82.762 Y126.350 E13.45833
G1 X82.503 Y127.064 E13.48901
G1 X82.243 Y126.350 E13.51969
G1 X78.762 Y126.350 E13.66035
G1 X78.503 Y127.064 E13.69104
G1 X78.243 Y126.350 E13.72172
G1 X74.762 Y126.350 E13.86238
G1 X74.503 Y127.064 E13.89306
G1 X74.243 Y126.350 E13.92374
G1 X70.762 Y126.350 E14.06441
G1 X70.503 Y127.064 E14.09509
G1 X70.243 Y126.350 E14.12577
G1 X66.762 Y126.350 E14.26644
G1 X66.503 Y127.064 E14.29712
G1 X66.243 Y126.350 E14.32780
G1 X62.762 Y126.350 E14.46846
G1 X62.503 Y127.064 E14.49914
G1 X62.243 Y126.350 E14.52982
G1 X58.762 Y126.350 E14.67049
G1 X58.503 Y127.064 E14.70117
G1 X58.243 Y126.350 E14.73185
G1 X54.762 Y126.350 E14.87252
G1 X54.503 Y127.064 E14.90320
G1 X54.243 Y126.350 E14.93388
G1 X50.762 Y126.350 E15.07454
G1 X50.503 Y127.064 E15.10522
G1 X50.243 Y126.350 E15.13591
G1 X46.778 Y126.350 E15.27593
G1 X46.778 Y125.028 E15.32936
G1 X46.064 Y124.207 F6000.000
G1 X203.922 Y124.207 F1350.000 E21.70888
G1 X203.922 Y127.064 E21.82436
G1 X203.262 Y127.064 E21.85100
G1 X202.503 Y129.152 E21.94077
G1 X201.743 Y127.064 E22.03053
G1 X199.262 Y127.064 E22.13078
G1 X198.503 Y129.152 E22.22055
G1 X197.743 Y127.064 E22.31031
G1 X195.262 Y127.064 E22.41056
G1 X194.503 Y129.152 E22.50033
G1 X193.743 Y127.064 E22.59010
G1 X191.262 Y127.064 E22.69034
G1 X190.503 Y129.152 E22.78011
G1 X189.743 Y127.064 E22.86988
G1 X187.262 Y127.064 E22.97012
G1 X186.503 Y129.152 E23.05989
G1 X185.743 Y127.064 E23.14966
G1 X183.262 Y127.064 E23.24990
G1 X182.503 Y129.152 E23.33967
G1 X181.743 Y127.064 E23.42944
G1 X179.262 Y127.064 E23.52968
G1 X178.503 Y129.152 E23.61945
G1 X177.743 Y127.064 E23.70922
G1 X175.262 Y127.064 E23.80947
G1 X174.503 Y129.152 E23.89923
G1 X173.743 Y127.064 E23.98900
G1 X171.262 Y127.064 E24.08925
G1 X170.503 Y129.152 E24.17901
G1 X169.743 Y127.064 E24.26878
G1 X167.262 Y127.064 E24.36903
G1 X166.503 Y129.152 E24.45879
G1 X165.743 Y127.064 E24.54856
G1 X163.262 Y127.064 E24.64881
G1 X162.503 Y129.152 E24.73857
G1 X161.743 Y127.064 E24.82834
G1 X159.262 Y127.064 E24.92859
G1 X158.503 Y129.152 E25.01835
G1 X157.743 Y127.064 E25.10812
G1 X155.262 Y127.064 E25.20837
G1 X154.503 Y129.152 E25.29814
G1 X153.743 Y127.064 E25.38790
G1 X151.262 Y127.064 E25.48815
G1 X150.503 Y129.152 E25.57792
G1 X149.743 Y127.064 E25.66768
G1 X147.262 Y127.064 E25.76793
G1 X146.503 Y129.152 E25.85770
G1 X145.743 Y127.064 E25.94746
G1 X143.262 Y127.064 E26.04771
G1 X142.503 Y129.152 E26.13748
G1 X141.743 Y127.064 E26.22724
G1 X139.262 Y127.064 E26.32749
G1 X138.503 Y129.152 E26.41726
G1 X137.743 Y127.064 E26.50703
G1 X135.262 Y127.064 E26.60727
G1 X134.503 Y129.152 E26.69704
G1 X133.743 Y127.064 E26.78680
G1 X131.262 Y127.064 E26.88705
G1 X130.503 Y129.152 E26.97682
G1 X129.743 Y127.064 E27.06658
G1 X127.262 Y127.064 E27.16683
G1 X126.503 Y129.152 E27.25659
G1 X125.743 Y127.064 E27.34636
G1 X123.262 Y127.064 E27.44661
G1 X122.503 Y129.152 E27.53637
G1 X121.743 Y127.064 E27.62614
G1 X119.262 Y127.064 E27.72639
G1 X118.503 Y129.152 E27.81615
G1 X117.743 Y127.064 E27.90591
G1 X115.262 Y127.064 E28.00616
G1 X114.503 Y129.152 E28.09593
G1 X113.743 Y127.064 E28.18569
G1 X111.262 Y127.064 E28.28594
G1 X110.503 Y129.152 E28.37571
G1 X109.743 Y127.064 E28.46547
G1 X107.262 Y127.064 E28.56572
G1 X106.503 Y129.152 E28.65549
G1 X105.743 Y127.064 E28.74526
G1 X103.262 Y127.064 E28.84550
G1 X102.503 Y129.152 E28.93527
G1 X101.743 Y127.064 E29.02504
G1 X99.262 Y127.064 E29.12528
G1 X98.503 Y129.152 E29.21505
G1 X97.743 Y127.064 E29.30482
G1 X95.262 Y127.064 E29.40507
G1 X94.503 Y129.152 E29.49483
G1 X93.743 Y127.064 E29.58460
G1 X91.262 Y127.064 E29.68485
G1 X90.503 Y129.152 E29.77461
G1 X89.743 Y127.064 E29.86438
G1 X87.262 Y127.064 E29.96463
G1 X86.503 Y129.152 E30.05439
G1 X85.743 Y127.064 E30.14416
G1 X83.262 Y127.064 E30.24441
G1 X82.503 Y129.152 E30.33417
G1 X81.743 Y127.064 E30.42394
G1 X79.262 Y127.064 E30.52419
G1 X78.503 Y129.152 E30.61395
G1 X77.743 Y127.064 E30.70372
G1 X75.262 Y127.064 E30.80397
G1 X74.503 Y129.152 E30.89374
G1 X73.743 Y127.064 E30.98350
G1 X71.262 Y127.064 E31.08375
G1 X70.503 Y129.152 E31.17352
G1 X69.743 Y127.064 E31.26328
G1 X67.262 Y127.064 E31.36353
G1 X66.503 Y129.152 E31.45330
G1 X65.743 Y127.064 E31.54306
G1 X63.262 Y127.064 E31.64331
G1 X62.503 Y129.152 E31.73308
G1 X61.743 Y127.064 E31.82284
G1 X59.262 Y127.064 E31.92309
G1 X58.503 Y129.152 E32.01286
G1 X57.743 Y127.064 E32.10263
G1 X55.262 Y127.064 E32.20287
G1 X54.503 Y129.152 E32.29264
G1 X53.743 Y127.064 E32.38241
G1 X51.262 Y127.064 E32.48265
G1 X50.503 Y129.152 E32.57242
G1 X49.743 Y127.064 E32.66219
G1 X47.262 Y127.064 E32.76243
G1 X46.503 Y129.152 E32.85220
G1 X46.064 Y127.947 E32.90402
G1 X46.064 Y124.314 E33.05083
G1 X45.350 Y123.493 F6000.000
G1 X204.636 Y123.493 F945.000 E39.48808
G1 X204.636 Y127.778 E39.66128
G1 X203.762 Y127.778 E39.69657
G1 X202.789 Y130.452 E39.81157
G1 X202.216 Y130.452 E39.83473
G1 X201.243 Y127.778 E39.94972
G1 X199.762 Y127.778 E40.00955
G1 X198.789 Y130.452 E40.12454
G1 X198.216 Y130.452 E40.14770
G1 X197.243 Y127.778 E40.26269
G1 X195.762 Y127.778 E40.32252
G1 X194.789 Y130.452 E40.43752
G1 X194.216 Y130.452 E40.46068
G1 X193.243 Y127.778 E40.57567
G1 X191.762 Y127.778 E40.63550
G1 X190.789 Y130.452 E40.75049
G1 X190.216 Y130.452 E40.77365
G1 X189.243 Y127.778 E40.88865
G1 X187.762 Y127.778 E40.94848
G1 X186.789 Y130.452 E41.06347
G1 X186.216 Y130.452 E41.08663
G1 X185.243 Y127.778 E41.20162
G1 X183.762 Y127.778 E41.26145
G1 X182.789 Y130.452 E41.37644
G1 X182.216 Y130.452 E41.39961
G1 X181.243 Y127.778 E41.51460
G1 X179.762 Y127.778 E41.57443
G1 X178.789 Y130.452 E41.68942
G1 X178.216 Y130.452 E41.71258
G1 X177.243 Y127.778 E41.82757
G1 X175.762 Y127.778 E41.88740
G1 X174.789 Y130.452 E42.00239
G1 X174.216 Y130.452 E42.02556
G1 X173.243 Y127.778 E42.14055
G1 X171.762 Y127.778 E42.20038
G1 X170.789 Y130.452 E42.31537
G1 X170.216 Y130.452 E42.33853
G1 X169.243 Y127.778 E42.45352
G1 X167.762 Y127.778 E42.51335
G1 X166.789 Y130.452 E42.62835
G1 X166.216 Y130.452 E42.65151
G1 X165.243 Y127.778 E42.76650
G1 X163.762 Y127.778 E42.82633
G1 X162.789 Y130.452 E42.94132
G1 X162.216 Y130.452 E42.96448
G1 X161.243 Y127.778 E43.07948
G1 X159.762 Y127.778 E43.13931
G1 X158.789 Y130.452 E43.25430
G1 X158.216 Y130.452 E43.27746
G1 X157.243 Y127.778 E43.39245
G1 X155.762 Y127.778 E43.45228
G1 X154.789 Y130.452 E43.56727
G1 X154.216 Y130.452 E43.59044
G1 X153.243 Y127.778 E43.70543
G1 X151.762 Y127.778 E43.76526
G1 X150.789 Y130.452 E43.88025
G1 X150.216 Y130.452 E43.90341
G1 X149.243 Y127.778 E44.01840
G1 X147.762 Y127.778 E44.07823
G1 X146.789 Y130.452 E44.19323
G1 X146.216 Y130.452 E44.21639
G1 X145.243 Y127.778 E44.33138
G1 X143.762 Y127.778 E44.39121
G1 X142.789 Y130.452 E44.50620
G1 X142.216 Y130.452 E44.52936
G1 X141.243 Y127.778 E44.64436
G1 X139.762 Y127.778 E44.70419
G1 X138.789 Y130.452 E44.81918
G1 X138.216 Y130.452 E44.84234
G1 X137.243 Y127.778 E44.95733
G1 X135.762 Y127.778 E45.01716
G1 X134.789 Y130.452 E45.13215
G1 X134.216 Y130.452 E45.15531
G1 X133.243 Y127.778 E45.27031
G1 X131.762 Y127.778 E45.33014
G1 X130.789 Y130.452 E45.44513
G1 X130.216 Y130.452 E45.46829
G1 X129.243 Y127.778 E45.58328
G1 X127.762 Y127.778 E45.64312
G1 X126.789 Y130.452 E45.75811
G1 X126.216 Y130.452 E45.78127
G1 X125.243 Y127.778 E45.89626
G1 X123.762 Y127.778 E45.95609
G1 X122.789 Y130.452 E46.07108
G1 X122.216 Y130.452 E46.09425
G1 X121.243 Y127.778 E46.20924
G1 X119.762 Y127.778 E46.26907
G1 X118.789 Y130.452 E46.38406
G1 X118.216 Y130.452 E46.40722
G1 X117.243 Y127.778 E46.52221
G1 X115.762 Y127.778 E46.58205
G1 X114.789 Y130.452 E46.69704
G1 X114.216 Y130.452 E46.72020
G1 X113.243 Y127.778 E46.83519
G1 X111.762 Y127.778 E46.89502
G1 X110.789 Y130.452 E47.01001
G1 X110.216 Y130.452 E47.03318
G1 X109.243 Y127.778 E47.14817
G1 X107.762 Y127.778 E47.20800
G1 X106.789 Y130.452 E47.32299
G1 X106.216 Y130.452 E47.34615
G1 X105.243 Y127.778 E47.46114
G1 X103.762 Y127.778 E47.52097
G1 X102.789 Y130.452 E47.63597
G1 X102.216 Y130.452 E47.65913
G1 X101.243 Y127.778 E47.77412
G1 X99.762 Y127.778 E47.83395
G1 X98.789 Y130.452 E47.94894
G1 X98.216 Y130.452 E47.97210
G1 X97.243 Y127.778 E48.08710
G1 X95.762 Y127.778 E48.14693
G1 X94.789 Y130.452 E48.26192
G1 X94.216 Y130.452 E48.28508
G1 X93.243 Y127.778 E48.40007
G1 X91.762 Y127.778 E48.45990
G1 X90.789 Y130.452 E48.57489
G1 X90.216 Y130.452 E48.59806
G1 X89.243 Y127.778 E48.71305
G1 X87.762 Y127.778 E48.77288
G1 X86.789 Y130.452 E48.88787
G1 X86.216 Y130.452 E48.91103
G1 X85.243 Y127.778 E49.02602
G1 X83.762 Y127.778 E49.08585
G1 X82.789 Y130.452 E49.20084
G1 X82.216 Y130.452 E49.22401
G1 X81.243 Y127.778 E49.33900
G1 X79.762 Y127.778 E49.39883
G1 X78.789 Y130.452 E49.51382
G1 X78.216 Y130.452 E49.53698
G1 X77.243 Y127.778 E49.65197
G1 X75.762 Y127.778 E49.71180
G1 X74.789 Y130.452 E49.82680
G1 X74.216 Y130.452 E49.84996
G1 X73.243 Y127.778 E49.96495
G1 X71.762 Y127.778 E50.02478
G1 X70.789 Y130.452 E50.13977
G1 X70.216 Y130.452 E50.16293
G1 X69.243 Y127.778 E50.27793
G1 X67.762 Y127.778 E50.33776
G1 X66.789 Y130.452 E50.45275
G1 X66.216 Y130.452 E50.47591
G1 X65.243 Y127.778 E50.59090
G1 X63.762 Y127.778 E50.65073
G1 X62.789 Y130.452 E50.76572
G1 X62.216 Y130.452 E50.78889
G1 X61.243 Y127.778 E50.90388
G1 X59.762 Y127.778 E50.96371
G1 X58.789 Y130.452 E51.07870
G1 X58.216 Y130.452 E51.10186
G1 X57.243 Y127.778 E51.21685
G1 X55.762 Y127.778 E51.27668
G1 X54.789 Y130.452 E51.39168
G1 X54.216 Y130.452 E51.41484
G1 X53.243 Y127.778 E51.52983
G1 X51.762 Y127.778 E51.58966
G1 X50.789 Y130.452 E51.70465
G1 X50.216 Y130.452 E51.72781
G1 X49.243 Y127.778 E51.84280
G1 X47.762 Y127.778 E51.90263
G1 X46.789 Y130.452 E52.01763
G1 X46.216 Y130.452 E52.04079
G1 X45.350 Y128.073 E52.14313
G1 X45.350 Y123.600 E52.32389
G1 X45.968 Y123.850 F6000.000
G1 X47.295 Y125.833
G1 X47.378 Y125.438 F360.000 E52.33161
G1 X47.773 Y125.833 E52.34230
G1 X47.856 Y125.438 E52.35002
G1 X48.251 Y125.833 E52.36071
