; G-Code generated by Simplify3D(TM) Version 2.2.0
; Dec 26, 2014 at 11:09:52 AM
; Settings Summary
;   processName,Nylon 40% no fill
;   applyToModels,Rack
;   profileLabel,-- Select Printer Profile --
;   printMaterial,Nylon
;   printQuality,Medium
;   extruderName,Extruder 1
;   extruderToolheadNumber,0
;   extruderDiameter,0.4
;   extruderAutoWidth,0
;   extruderWidth,0.4
;   extrusionMultiplier,1
;   extruderUseRetract,1
;   extruderRetractionDistance,2
;   extruderExtraRestartDistance,0.2
;   extruderRetractionZLift,0
;   extruderRetractionSpeed,2400
;   extruderUseCoasting,0
;   extruderCoastingDistance,0.2
;   extruderUseWipe,0
;   extruderWipeDistance,5
;   primaryExtruder,0
;   layerHeight,0.3
;   topSolidLayers,4
;   bottomSolidLayers,4
;   perimeterOutlines,4
;   printPerimetersInsideOut,1
;   startPointOption,2
;   startPointOriginX,0
;   startPointOriginY,0
;   startPointOriginZ,300
;   sequentialIslands,0
;   spiralVaseMode,0
;   firstLayerHeightPercentage,90
;   firstLayerWidthPercentage,100
;   firstLayerUnderspeed,0.5
;   useRaft,0
;   raftExtruder,0
;   raftLayers,3
;   raftOffset,3
;   raftSeparationDistance,0.14
;   raftInfill,85
;   disableRaftBaseLayers,0
;   useSkirt,1
;   skirtExtruder,0
;   skirtLayers,1
;   skirtOutlines,3
;   skirtOffset,4
;   infillExtruder,0
;   externalInfillPattern,Rectilinear
;   infillPercentage,20
;   outlineOverlapPercentage,15
;   infillExtrusionWidthPercentage,100
;   minInfillLength,6
;   infillLayerInterval,1
;   randomInfillStartPoint,1
;   infillAngles,45,-45
;   generateSupport,0
;   supportExtruder,0
;   supportInfill,30
;   supportExtraInflation,0
;   denseSupportLayers,0
;   denseSupportInfill,50
;   supportLayerInterval,1
;   supportHorizontalPartOffset,0.4
;   supportUpperSeparationLayers,1
;   supportLowerSeparationLayers,1
;   supportGridSpacing,4
;   maxOverhangAngle,45
;   supportAngles,0
;   temperatureName,Extruder 1 Temperature,Heated Bed
;   temperatureNumber,0,0
;   temperatureSetpointCount,1,3
;   temperatureSetpointLayers,1,1,2,3
;   temperatureSetpointTemperatures,245,70,80,90
;   temperatureStabilizeAtStartup,1,1
;   temperatureHeatedBed,0,1
;   temperatureRelayBetweenLayers,0,0
;   temperatureRelayBetweenLoops,0,0
;   fanLayers,1
;   fanSpeeds,0
;   blipFanToFullPower,0
;   adjustSpeedForCooling,1
;   minSpeedLayerTime,15
;   minCoolingSpeedSlowdown,20
;   increaseFanForCooling,0
;   minFanLayerTime,45
;   maxCoolingFanSpeed,100
;   increaseFanForBridging,0
;   bridgingFanSpeed,100
;   use5D,1
;   relativeEdistances,0
;   allowEaxisZeroing,1
;   independentExtruderAxes,0
;   includeM10123,0
;   stickySupport,1
;   detectArcs,0
;   arcReplaceG2G3,0
;   arcRadialCompensation,1
;   gcodeXoffset,0
;   gcodeYoffset,0
;   gcodeZoffset,0
;   overrideMachineDefinition,0
;   machineTypeOverride,0
;   strokeXoverride,250
;   strokeYoverride,250
;   strokeZoverride,250
;   originOffsetXoverride,0
;   originOffsetYoverride,0
;   originOffsetZoverride,0
;   homeXdirOverride,-1
;   homeYdirOverride,-1
;   homeZdirOverride,-1
;   flipXoverride,1
;   flipYoverride,-1
;   flipZoverride,1
;   startingGcode,G28 ; home all axes
;   layerChangeGcode,
;   toolChangeGcode,
;   endingGcode,M104 S0 ; turn off extruder,M140 S0 ; turn off bed,M84 ; disable motors
;   createX3G,0
;   celebration,0
;   celebrationSong,Random Song
;   createMB5G,0
;   postProcessing,
;   defaultSpeed,5000
;   outlineUnderspeed,0.5
;   solidInfillUnderspeed,0.8
;   supportUnderspeed,0.8
;   rapidXYspeed,4800
;   rapidZspeed,1000
;   minBridgingArea,50
;   bridgingExtrusionMultiplier,1
;   bridgingSpeedMultiplier,1
;   filamentDiameter,3
;   filamentPricePerKg,46
;   useMinPrintHeight,0
;   minPrintHeight,0
;   useMaxPrintHeight,0
;   maxPrintHeight,0
;   useDiaphragm,1
;   diaphragmLayerInterval,20
;   robustSlicing,1
;   mergeAllIntoSolid,0
;   onlyRetractWhenCrossingOutline,1
;   retractBetweenLayers,1
;   useRetractionMinTravel,0
;   retractionMinTravel,3
;   useRetractionOozeRate,0
;   retractionOozeRate,100
;   onlyWipeOutlines,1
;   toolChangeRetractionDistance,12
;   toolChangeExtraRestartDistance,-0.5
;   toolChangeRetractionSpeed,600
;   allowThinWallGapFill,1
;   thinWallAllowedOverlapPercentage,10
G90
M82
M106 S0
M140 S70
M190 S70
M104 S245 T0
M109 S245 T0
G28 ; home all axes
G92 E0
G1 E-2 F2400
; layer 1, Z = 0.27
T0
; tool H0.3 W0.4
G1 X44.265 Y126.765 F4800
G1 Z0.27 F1000
G1 E0.2 F720
G92 E0
G1 X44.558 Y126.672 E0.0052 F2500
G1 X48.462 Y126.672 E0.0715
G1 X48.51 Y126.687 E0.0724
G1 X48.558 Y126.672 E0.0732
G1 X52.462 Y126.672 E0.1395
G1 X52.51 Y126.687 E0.1403
G1 X52.558 Y126.672 E0.1412
G1 X56.462 Y126.672 E0.2075
G1 X56.51 Y126.687 E0.2083
G1 X56.558 Y126.672 E0.2092
G1 X60.462 Y126.672 E0.2754
G1 X60.51 Y126.687 E0.2763
G1 X60.558 Y126.672 E0.2772
G1 X64.462 Y126.672 E0.3434
G1 X64.51 Y126.687 E0.3443
G1 X64.558 Y126.672 E0.3452
G1 X68.462 Y126.672 E0.4114
G1 X68.51 Y126.687 E0.4123
G1 X68.558 Y126.672 E0.4131
G1 X72.462 Y126.672 E0.4794
G1 X72.51 Y126.687 E0.4803
G1 X72.558 Y126.672 E0.4811
G1 X76.462 Y126.672 E0.5474
G1 X76.51 Y126.687 E0.5483
G1 X76.558 Y126.672 E0.5491
G1 X80.462 Y126.672 E0.6154
G1 X80.51 Y126.687 E0.6162
G1 X80.558 Y126.672 E0.6171
G1 X84.462 Y126.672 E0.6834
G1 X84.51 Y126.687 E0.6842
G1 X84.558 Y126.672 E0.6851
G1 X88.462 Y126.672 E0.7513
G1 X88.51 Y126.687 E0.7522
G1 X88.558 Y126.672 E0.7531
G1 X92.462 Y126.672 E0.8193
G1 X92.51 Y126.687 E0.8202
G1 X92.558 Y126.672 E0.8211
G1 X96.462 Y126.672 E0.8873
G1 X96.51 Y126.687 E0.8882
G1 X96.558 Y126.672 E0.889
G1 X100.462 Y126.672 E0.9553
G1 X100.51 Y126.687 E0.9562
G1 X100.558 Y126.672 E0.957
G1 X104.462 Y126.672 E1.0233
G1 X104.51 Y126.687 E1.0242
G1 X104.558 Y126.672 E1.025
G1 X108.462 Y126.672 E1.0913
G1 X108.51 Y126.687 E1.0921
G1 X108.558 Y126.672 E1.093
G1 X112.462 Y126.672 E1.1593
G1 X112.51 Y126.687 E1.1601
G1 X112.558 Y126.672 E1.161
G1 X116.462 Y126.672 E1.2272
G1 X116.51 Y126.687 E1.2281
G1 X116.558 Y126.672 E1.229
G1 X120.462 Y126.672 E1.2952
G1 X120.51 Y126.687 E1.2961
G1 X120.558 Y126.672 E1.297
G1 X124.462 Y126.672 E1.3632
G1 X124.51 Y126.687 E1.3641
G1 X124.558 Y126.672 E1.3649
G1 X128.462 Y126.672 E1.4312
G1 X128.51 Y126.687 E1.4321
G1 X128.558 Y126.672 E1.4329
G1 X132.462 Y126.672 E1.4992
G1 X132.51 Y126.687 E1.5001
G1 X132.558 Y126.672 E1.5009
G1 X136.462 Y126.672 E1.5672
G1 X136.51 Y126.687 E1.568
G1 X136.558 Y126.672 E1.5689
G1 X140.462 Y126.672 E1.6352
G1 X140.51 Y126.687 E1.636
G1 X140.558 Y126.672 E1.6369
G1 X144.462 Y126.672 E1.7031
G1 X144.51 Y126.687 E1.704
G1 X144.558 Y126.672 E1.7049
G1 X148.462 Y126.672 E1.7711
G1 X148.51 Y126.687 E1.772
G1 X148.558 Y126.672 E1.7729
G1 X152.462 Y126.672 E1.8391
G1 X152.51 Y126.687 E1.84
G1 X152.558 Y126.672 E1.8408
G1 X156.462 Y126.672 E1.9071
G1 X156.51 Y126.687 E1.908
G1 X156.558 Y126.672 E1.9088
G1 X160.462 Y126.672 E1.9751
G1 X160.51 Y126.687 E1.976
G1 X160.558 Y126.672 E1.9768
G1 X164.462 Y126.672 E2.0431
G1 X164.51 Y126.687 E2.0439
G1 X164.558 Y126.672 E2.0448
G1 X168.462 Y126.672 E2.1111
G1 X168.51 Y126.687 E2.1119
G1 X168.558 Y126.672 E2.1128
G1 X172.462 Y126.672 E2.179
G1 X172.51 Y126.687 E2.1799
G1 X172.558 Y126.672 E2.1808
G1 X176.462 Y126.672 E2.247
G1 X176.51 Y126.687 E2.2479
G1 X176.558 Y126.672 E2.2488
G1 X180.462 Y126.672 E2.315
G1 X180.51 Y126.687 E2.3159
G1 X180.558 Y126.672 E2.3167
G1 X184.462 Y126.672 E2.383
G1 X184.51 Y126.687 E2.3839
G1 X184.558 Y126.672 E2.3847
G1 X188.462 Y126.672 E2.451
G1 X188.51 Y126.687 E2.4519
G1 X188.558 Y126.672 E2.4527
G1 X192.462 Y126.672 E2.519
G1 X192.51 Y126.687 E2.5198
G1 X192.558 Y126.672 E2.5207
G1 X196.462 Y126.672 E2.587
G1 X196.51 Y126.687 E2.5878
G1 X196.558 Y126.672 E2.5887
G1 X200.462 Y126.672 E2.6549
G1 X200.51 Y126.687 E2.6558
G1 X200.558 Y126.672 E2.6567
G1 X204.462 Y126.672 E2.7229
G1 X204.755 Y126.765 E2.7282
G1 X207.073 Y128.388 E2.7762
G1 X207.261 Y128.632 E2.7814
G1 X207.778 Y130.053 E2.8071
G1 X209.848 Y132.123 E2.8568
G1 X210 Y132.49 E2.8635
G1 X210 Y141.202 E3.0114
G1 X209.848 Y141.569 E3.0182
G1 X207.223 Y144.194 E3.0812
G1 X206.856 Y144.346 E3.088
G1 X43.144 Y144.346 E5.8672
G1 X42.777 Y144.194 E5.874
G1 X40.152 Y141.569 E5.937
G1 X40 Y141.202 E5.9437
G1 X40 Y133.952 E6.0668
G1 X40.008 Y133.865 E6.0683
G1 X40.144 Y133.09 E6.0816
G1 X40.167 Y133.006 E6.0831
G1 X41.759 Y128.632 E6.1621
G1 X41.946 Y128.388 E6.1674
G1 X44.265 Y126.765 E6.2154
G1 X44.444 Y127.128 F4800
G92 E0
G1 X44.62 Y127.072 E0.0031 F2500
G1 X48.4 Y127.072 E0.0673
G1 X48.51 Y127.107 E0.0693
G1 X48.62 Y127.072 E0.0712
G1 X52.4 Y127.072 E0.1354
G1 X52.51 Y127.107 E0.1374
G1 X52.62 Y127.072 E0.1393
G1 X56.4 Y127.072 E0.2035
G1 X56.51 Y127.107 E0.2054
G1 X56.62 Y127.072 E0.2074
G1 X60.4 Y127.072 E0.2716
G1 X60.51 Y127.107 E0.2735
G1 X60.62 Y127.072 E0.2755
G1 X64.4 Y127.072 E0.3397
G1 X64.51 Y127.107 E0.3416
G1 X64.62 Y127.072 E0.3436
G1 X68.4 Y127.072 E0.4077
G1 X68.51 Y127.107 E0.4097
G1 X68.62 Y127.072 E0.4117
G1 X72.4 Y127.072 E0.4758
G1 X72.51 Y127.107 E0.4778
G1 X72.62 Y127.072 E0.4797
G1 X76.4 Y127.072 E0.5439
G1 X76.51 Y127.107 E0.5459
G1 X76.62 Y127.072 E0.5478
G1 X80.4 Y127.072 E0.612
G1 X80.51 Y127.107 E0.614
G1 X80.62 Y127.072 E0.6159
G1 X84.4 Y127.072 E0.6801
G1 X84.51 Y127.107 E0.6821
G1 X84.62 Y127.072 E0.684
G1 X88.4 Y127.072 E0.7482
G1 X88.51 Y127.107 E0.7501
G1 X88.62 Y127.072 E0.7521
G1 X92.4 Y127.072 E0.8163
G1 X92.51 Y127.107 E0.8182
G1 X92.62 Y127.072 E0.8202
G1 X96.4 Y127.072 E0.8844
G1 X96.51 Y127.107 E0.8863
G1 X96.62 Y127.072 E0.8883
G1 X100.4 Y127.072 E0.9524
G1 X100.51 Y127.107 E0.9544
G1 X100.62 Y127.072 E0.9564
G1 X104.4 Y127.072 E1.0205
G1 X104.51 Y127.107 E1.0225
G1 X104.62 Y127.072 E1.0244
G1 X108.4 Y127.072 E1.0886
G1 X108.51 Y127.107 E1.0906
G1 X108.62 Y127.072 E1.0925
G1 X112.4 Y127.072 E1.1567
G1 X112.51 Y127.107 E1.1587
G1 X112.62 Y127.072 E1.1606
G1 X116.4 Y127.072 E1.2248
G1 X116.51 Y127.107 E1.2267
G1 X116.62 Y127.072 E1.2287
G1 X120.4 Y127.072 E1.2929
G1 X120.51 Y127.107 E1.2948
G1 X120.62 Y127.072 E1.2968
G1 X124.4 Y127.072 E1.361
G1 X124.51 Y127.107 E1.3629
G1 X124.62 Y127.072 E1.3649
G1 X128.4 Y127.072 E1.4291
G1 X128.51 Y127.107 E1.431
G1 X128.62 Y127.072 E1.433
G1 X132.4 Y127.072 E1.4971
G1 X132.51 Y127.107 E1.4991
G1 X132.62 Y127.072 E1.5011
G1 X136.4 Y127.072 E1.5652
G1 X136.51 Y127.107 E1.5672
G1 X136.62 Y127.072 E1.5691
G1 X140.4 Y127.072 E1.6333
G1 X140.51 Y127.107 E1.6353
G1 X140.62 Y127.072 E1.6372
G1 X144.4 Y127.072 E1.7014
G1 X144.51 Y127.107 E1.7034
G1 X144.62 Y127.072 E1.7053
G1 X148.4 Y127.072 E1.7695
G1 X148.51 Y127.107 E1.7714
G1 X148.62 Y127.072 E1.7734
G1 X152.4 Y127.072 E1.8376
G1 X152.51 Y127.107 E1.8395
G1 X152.62 Y127.072 E1.8415
G1 X156.4 Y127.072 E1.9057
G1 X156.51 Y127.107 E1.9076
G1 X156.62 Y127.072 E1.9096
G1 X160.4 Y127.072 E1.9738
G1 X160.51 Y127.107 E1.9757
G1 X160.62 Y127.072 E1.9777
G1 X164.4 Y127.072 E2.0418
G1 X164.51 Y127.107 E2.0438
G1 X164.62 Y127.072 E2.0457
G1 X168.4 Y127.072 E2.1099
G1 X168.51 Y127.107 E2.1119
G1 X168.62 Y127.072 E2.1138
G1 X172.4 Y127.072 E2.178
G1 X172.51 Y127.107 E2.18
G1 X172.62 Y127.072 E2.1819
G1 X176.4 Y127.072 E2.2461
G1 X176.51 Y127.107 E2.2481
G1 X176.62 Y127.072 E2.25
G1 X180.4 Y127.072 E2.3142
G1 X180.51 Y127.107 E2.3161
G1 X180.62 Y127.072 E2.3181
G1 X184.4 Y127.072 E2.3823
G1 X184.51 Y127.107 E2.3842
G1 X184.62 Y127.072 E2.3862
G1 X188.4 Y127.072 E2.4504
G1 X188.51 Y127.107 E2.4523
G1 X188.62 Y127.072 E2.4543
G1 X192.4 Y127.072 E2.5184
G1 X192.51 Y127.107 E2.5204
G1 X192.62 Y127.072 E2.5224
G1 X196.4 Y127.072 E2.5865
G1 X196.51 Y127.107 E2.5885
G1 X196.62 Y127.072 E2.5904
G1 X200.4 Y127.072 E2.6546
G1 X200.51 Y127.107 E2.6566
G1 X200.62 Y127.072 E2.6585
G1 X204.4 Y127.072 E2.7227
G1 X204.576 Y127.128 E2.7258
G1 X206.794 Y128.68 E2.7718
G1 X206.906 Y128.827 E2.7749
G1 X207.432 Y130.273 E2.8011
G1 X209.509 Y132.349 E2.8509
G1 X209.6 Y132.57 E2.855
G1 X209.6 Y141.122 E3.0002
G1 X209.509 Y141.343 E3.0042
G1 X206.997 Y143.855 E3.0645
G1 X206.776 Y143.946 E3.0686
G1 X43.224 Y143.946 E5.8451
G1 X43.003 Y143.855 E5.8492
G1 X40.491 Y141.343 E5.9095
G1 X40.4 Y141.122 E5.9135
G1 X40.4 Y133.97 E6.035
G1 X40.405 Y133.918 E6.0358
G1 X40.535 Y133.177 E6.0486
G1 X40.549 Y133.126 E6.0495
G1 X42.114 Y128.827 E6.1272
G1 X42.226 Y128.68 E6.1303
G1 X44.444 Y127.128 E6.1763
G1 X44.681 Y127.472 F4800
G92 E0
G1 X48.338 Y127.472 E0.0621 F2500
G1 X48.397 Y127.491 E0.0631
G1 X48.51 Y127.57 E0.0655
G1 X48.623 Y127.491 E0.0678
G1 X48.681 Y127.472 E0.0688
G1 X52.338 Y127.472 E0.1309
G1 X52.397 Y127.491 E0.132
G1 X52.51 Y127.57 E0.1343
G1 X52.623 Y127.491 E0.1367
G1 X52.681 Y127.472 E0.1377
G1 X56.338 Y127.472 E0.1998
G1 X56.397 Y127.491 E0.2008
G1 X56.51 Y127.57 E0.2032
G1 X56.623 Y127.491 E0.2055
G1 X56.681 Y127.472 E0.2065
G1 X60.338 Y127.472 E0.2686
G1 X60.397 Y127.491 E0.2697
G1 X60.51 Y127.57 E0.272
G1 X60.623 Y127.491 E0.2743
G1 X60.681 Y127.472 E0.2754
G1 X64.338 Y127.472 E0.3375
G1 X64.397 Y127.491 E0.3385
G1 X64.51 Y127.57 E0.3409
G1 X64.623 Y127.491 E0.3432
G1 X64.681 Y127.472 E0.3442
G1 X68.338 Y127.472 E0.4063
G1 X68.397 Y127.491 E0.4074
G1 X68.51 Y127.57 E0.4097
G1 X68.623 Y127.491 E0.412
G1 X68.681 Y127.472 E0.4131
G1 X72.338 Y127.472 E0.4752
G1 X72.397 Y127.491 E0.4762
G1 X72.51 Y127.57 E0.4786
G1 X72.623 Y127.491 E0.4809
G1 X72.681 Y127.472 E0.4819
G1 X76.338 Y127.472 E0.544
G1 X76.397 Y127.491 E0.5451
G1 X76.51 Y127.57 E0.5474
G1 X76.623 Y127.491 E0.5497
G1 X76.681 Y127.472 E0.5508
G1 X80.338 Y127.472 E0.6129
G1 X80.397 Y127.491 E0.6139
G1 X80.51 Y127.57 E0.6162
G1 X80.623 Y127.491 E0.6186
G1 X80.681 Y127.472 E0.6196
G1 X84.338 Y127.472 E0.6817
G1 X84.397 Y127.491 E0.6828
G1 X84.51 Y127.57 E0.6851
G1 X84.623 Y127.491 E0.6874
G1 X84.681 Y127.472 E0.6885
G1 X88.338 Y127.472 E0.7506
G1 X88.397 Y127.491 E0.7516
G1 X88.51 Y127.57 E0.7539
G1 X88.623 Y127.491 E0.7563
G1 X88.681 Y127.472 E0.7573
G1 X92.338 Y127.472 E0.8194
G1 X92.397 Y127.491 E0.8205
G1 X92.51 Y127.57 E0.8228
G1 X92.623 Y127.491 E0.8251
G1 X92.681 Y127.472 E0.8262
G1 X96.338 Y127.472 E0.8883
G1 X96.397 Y127.491 E0.8893
G1 X96.51 Y127.57 E0.8916
G1 X96.623 Y127.491 E0.894
G1 X96.681 Y127.472 E0.895
G1 X100.338 Y127.472 E0.9571
G1 X100.397 Y127.491 E0.9582
G1 X100.51 Y127.57 E0.9605
G1 X100.623 Y127.491 E0.9628
G1 X100.681 Y127.472 E0.9639
G1 X104.338 Y127.472 E1.026
G1 X104.397 Y127.491 E1.027
G1 X104.51 Y127.57 E1.0293
G1 X104.623 Y127.491 E1.0317
G1 X104.681 Y127.472 E1.0327
G1 X108.338 Y127.472 E1.0948
G1 X108.397 Y127.491 E1.0958
G1 X108.51 Y127.57 E1.0982
G1 X108.623 Y127.491 E1.1005
G1 X108.681 Y127.472 E1.1016
G1 X112.338 Y127.472 E1.1636
G1 X112.397 Y127.491 E1.1647
G1 X112.51 Y127.57 E1.167
G1 X112.623 Y127.491 E1.1694
G1 X112.681 Y127.472 E1.1704
G1 X116.338 Y127.472 E1.2325
G1 X116.397 Y127.491 E1.2335
G1 X116.51 Y127.57 E1.2359
G1 X116.623 Y127.491 E1.2382
G1 X116.681 Y127.472 E1.2393
G1 X120.338 Y127.472 E1.3013
G1 X120.397 Y127.491 E1.3024
G1 X120.51 Y127.57 E1.3047
G1 X120.623 Y127.491 E1.3071
G1 X120.681 Y127.472 E1.3081
G1 X124.338 Y127.472 E1.3702
G1 X124.397 Y127.491 E1.3712
G1 X124.51 Y127.57 E1.3736
G1 X124.623 Y127.491 E1.3759
G1 X124.681 Y127.472 E1.377
G1 X128.338 Y127.472 E1.439
G1 X128.397 Y127.491 E1.4401
G1 X128.51 Y127.57 E1.4424
G1 X128.623 Y127.491 E1.4448
G1 X128.681 Y127.472 E1.4458
G1 X132.338 Y127.472 E1.5079
G1 X132.397 Y127.491 E1.5089
G1 X132.51 Y127.57 E1.5113
G1 X132.623 Y127.491 E1.5136
G1 X132.681 Y127.472 E1.5146
G1 X136.338 Y127.472 E1.5767
G1 X136.397 Y127.491 E1.5778
G1 X136.51 Y127.57 E1.5801
G1 X136.623 Y127.491 E1.5825
G1 X136.681 Y127.472 E1.5835
G1 X140.338 Y127.472 E1.6456
G1 X140.397 Y127.491 E1.6466
G1 X140.51 Y127.57 E1.649
G1 X140.623 Y127.491 E1.6513
G1 X140.681 Y127.472 E1.6523
G1 X144.338 Y127.472 E1.7144
G1 X144.397 Y127.491 E1.7155
G1 X144.51 Y127.57 E1.7178
G1 X144.623 Y127.491 E1.7201
G1 X144.681 Y127.472 E1.7212
G1 X148.338 Y127.472 E1.7833
G1 X148.397 Y127.491 E1.7843
G1 X148.51 Y127.57 E1.7867
G1 X148.623 Y127.491 E1.789
G1 X148.681 Y127.472 E1.79
G1 X152.338 Y127.472 E1.8521
G1 X152.397 Y127.491 E1.8532
G1 X152.51 Y127.57 E1.8555
