; G-Code generated by Simplify3D(TM) Version 2.2.0
; Dec 26, 2014 at 3:56:05 PM
; Settings Summary
;   processName,PLA With Suppoers
;   applyToModels,Rack
;   profileLabel,-- Select Printer Profile --
;   printMaterial,PLA
;   printQuality,Medium
;   extruderName,Extruder 1
;   extruderToolheadNumber,0
;   extruderDiameter,0.4
;   extruderAutoWidth,0
;   extruderWidth,0.4
;   extrusionMultiplier,0.9
;   extruderUseRetract,1
;   extruderRetractionDistance,1
;   extruderExtraRestartDistance,0
;   extruderRetractionZLift,0
;   extruderRetractionSpeed,1800
;   extruderUseCoasting,0
;   extruderCoastingDistance,0.2
;   extruderUseWipe,0
;   extruderWipeDistance,5
;   primaryExtruder,0
;   layerHeight,0.2
;   topSolidLayers,3
;   bottomSolidLayers,3
;   perimeterOutlines,2
;   printPerimetersInsideOut,1
;   startPointOption,2
;   startPointOriginX,0
;   startPointOriginY,0
;   startPointOriginZ,300
;   sequentialIslands,0
;   spiralVaseMode,0
;   firstLayerHeightPercentage,90
;   firstLayerWidthPercentage,100
;   firstLayerUnderspeed,0.5
;   useRaft,0
;   raftExtruder,0
;   raftLayers,3
;   raftOffset,3
;   raftSeparationDistance,0.14
;   raftInfill,85
;   disableRaftBaseLayers,0
;   useSkirt,1
;   skirtExtruder,0
;   skirtLayers,1
;   skirtOutlines,2
;   skirtOffset,4
;   infillExtruder,0
;   externalInfillPattern,Rectilinear
;   infillPercentage,20
;   outlineOverlapPercentage,15
;   infillExtrusionWidthPercentage,100
;   minInfillLength,6
;   infillLayerInterval,1
;   randomInfillStartPoint,0
;   infillAngles,45,-45
;   generateSupport,1
;   supportExtruder,0
;   supportInfill,30
;   supportExtraInflation,0
;   denseSupportLayers,0
;   denseSupportInfill,50
;   supportLayerInterval,1
;   supportHorizontalPartOffset,0.4
;   supportUpperSeparationLayers,1
;   supportLowerSeparationLayers,1
;   supportGridSpacing,4
;   maxOverhangAngle,45
;   supportAngles,0
;   temperatureName,Extruder 1 Temperature,Heated Bed
;   temperatureNumber,0,0
;   temperatureSetpointCount,1,1
;   temperatureSetpointLayers,1,1
;   temperatureSetpointTemperatures,190,60
;   temperatureStabilizeAtStartup,1,1
;   temperatureHeatedBed,0,1
;   temperatureRelayBetweenLayers,0,0
;   temperatureRelayBetweenLoops,0,0
;   fanLayers,1,2
;   fanSpeeds,0,100
;   blipFanToFullPower,0
;   adjustSpeedForCooling,1
;   minSpeedLayerTime,15
;   minCoolingSpeedSlowdown,20
;   increaseFanForCooling,0
;   minFanLayerTime,45
;   maxCoolingFanSpeed,100
;   increaseFanForBridging,0
;   bridgingFanSpeed,100
;   use5D,1
;   relativeEdistances,0
;   allowEaxisZeroing,1
;   independentExtruderAxes,0
;   includeM10123,0
;   stickySupport,1
;   detectArcs,0
;   arcReplaceG2G3,0
;   arcRadialCompensation,1
;   gcodeXoffset,0
;   gcodeYoffset,0
;   gcodeZoffset,0
;   overrideMachineDefinition,0
;   machineTypeOverride,0
;   strokeXoverride,250
;   strokeYoverride,250
;   strokeZoverride,250
;   originOffsetXoverride,0
;   originOffsetYoverride,0
;   originOffsetZoverride,0
;   homeXdirOverride,-1
;   homeYdirOverride,-1
;   homeZdirOverride,-1
;   flipXoverride,1
;   flipYoverride,-1
;   flipZoverride,1
;   startingGcode,G28 ; home all axes
;   layerChangeGcode,
;   toolChangeGcode,
;   endingGcode,M104 S0 ; turn off extruder,M140 S0 ; turn off bed,M84 ; disable motors,G28 ; home all axes
;   createX3G,0
;   celebration,0
;   celebrationSong,Random Song
;   createMB5G,0
;   postProcessing,
;   defaultSpeed,4000
;   outlineUnderspeed,0.5
;   solidInfillUnderspeed,0.8
;   supportUnderspeed,0.8
;   rapidXYspeed,4800
;   rapidZspeed,1000
;   minBridgingArea,50
;   bridgingExtrusionMultiplier,1
;   bridgingSpeedMultiplier,1
;   filamentDiameter,3
;   filamentPricePerKg,46
;   useMinPrintHeight,0
;   minPrintHeight,0
;   useMaxPrintHeight,0
;   maxPrintHeight,0
;   useDiaphragm,0
;   diaphragmLayerInterval,20
;   robustSlicing,1
;   mergeAllIntoSolid,0
;   onlyRetractWhenCrossingOutline,1
;   retractBetweenLayers,1
;   useRetractionMinTravel,0
;   retractionMinTravel,3
;   useRetractionOozeRate,0
;   retractionOozeRate,100
;   onlyWipeOutlines,1
;   toolChangeRetractionDistance,12
;   toolChangeExtraRestartDistance,-0.5
;   toolChangeRetractionSpeed,600
;   allowThinWallGapFill,1
;   thinWallAllowedOverlapPercentage,10
G90
M82
M106 S0
M140 S60
M190 S60
M104 S190 T0
M109 S190 T0
G28 ; home all axes
G92 E0
G1 E-1 F1800
; layer 1, Z = 0.18
T0
; tool H0.2 W0.4
G1 X44.085 Y115.447 F4800
G1 Z0.18 F1000
G1 E0 F540
G92 E0
G1 X204.776 Y115.447 E1.6368 F2000
G1 X204.996 Y115.539 E1.6392
G1 X207.508 Y118.051 E1.6754
G1 X207.6 Y118.271 E1.6778
G1 X207.6 Y131.824 E1.8159
G1 X207.508 Y132.044 E1.8183
G1 X204.996 Y134.556 E1.8545
G1 X204.776 Y134.647 E1.8569
G1 X44.085 Y134.647 E3.4937
G1 X43.864 Y134.556 E3.4961
G1 X41.352 Y132.044 E3.5323
G1 X41.261 Y131.824 E3.5348
G1 X41.261 Y118.271 E3.6728
G1 X41.352 Y118.051 E3.6752
G1 X43.864 Y115.539 E3.7114
G1 X44.085 Y115.447 E3.7138
G1 X44.164 Y115.847 F4800
G92 E0
G1 X204.696 Y115.847 E1.6352 F2000
G1 X204.77 Y115.878 E1.636
G1 X207.169 Y118.277 E1.6705
G1 X207.2 Y118.351 E1.6713
G1 X207.2 Y131.744 E1.8078
G1 X207.169 Y131.817 E1.8086
G1 X204.77 Y134.217 E1.8431
G1 X204.696 Y134.247 E1.844
G1 X44.164 Y134.247 E3.4791
G1 X44.091 Y134.217 E3.4799
G1 X41.691 Y131.817 E3.5145
G1 X41.661 Y131.744 E3.5153
G1 X41.661 Y118.351 E3.6517
G1 X41.691 Y118.277 E3.6525
G1 X44.091 Y115.878 E3.6871
G1 X44.164 Y115.847 E3.6879
G92 E0
G1 E-1 F1800
G1 X46.061 Y120.247 F4800
G1 E0 F1800
G92 E0
G1 X46.8 Y120.247 E0.0075 F1000
G1 X46.8 Y129.847 E0.1053
G1 X46.061 Y129.847 E0.1128
G1 X46.061 Y120.247 E0.2106
G1 X46.405 Y120.813 F4800
G92 E0
G1 X46.456 Y120.762 E0.0007 F2000
G1 X46.456 Y121.328 E0.0065
G1 X46.405 Y121.378 E0.0072
G1 X46.405 Y121.944 E0.013
G1 X46.456 Y121.893 E0.0137
G1 X46.456 Y122.459 E0.0195
G1 X46.405 Y122.51 E0.0202
G1 X46.405 Y123.075 E0.026
G1 X46.456 Y123.025 E0.0267
G1 X46.456 Y123.59 E0.0325
G1 X46.405 Y123.641 E0.0332
G1 X46.405 Y124.207 E0.039
G1 X46.456 Y124.156 E0.0397
G1 X46.456 Y124.722 E0.0454
G1 X46.405 Y124.773 E0.0462
G1 X46.405 Y125.338 E0.0519
G1 X46.456 Y125.288 E0.0527
G1 X46.456 Y125.853 E0.0584
G1 X46.405 Y125.904 E0.0592
G1 X46.405 Y126.47 E0.0649
G1 X46.456 Y126.419 E0.0657
G1 X46.456 Y126.985 E0.0714
G1 X46.405 Y127.035 E0.0721
G1 X46.405 Y127.601 E0.0779
G1 X46.456 Y127.55 E0.0786
G1 X46.456 Y128.116 E0.0844
G1 X46.405 Y128.167 E0.0851
G1 X46.405 Y128.732 E0.0909
G1 X46.456 Y128.682 E0.0916
G1 X46.456 Y129.247 E0.0974
G1 X46.405 Y129.298 E0.0981
G1 X46.405 Y129.503 E0.1002
G1 X46.456 Y129.503 E0.1007
G1 X46.456 Y129.247 E0.1033
G92 E0
G1 E-1 F1800
G1 X50.061 Y129.847 F4800
G1 E0 F1800
G92 E0
G1 X50.061 Y120.247 E0.0978 F1000
G1 X50.8 Y120.247 E0.1053
G1 X50.8 Y129.847 E0.2031
G1 X50.061 Y129.847 E0.2106
G1 X50.456 Y129.207 F4800
G92 E0
G1 X50.456 Y129.503 E0.003 F2000
G1 X50.405 Y129.503 E0.0035
G1 X50.405 Y129.258 E0.006
G1 X50.456 Y129.207 E0.0068
G1 X50.456 Y128.641 E0.0125
G1 X50.405 Y128.692 E0.0133
G1 X50.405 Y128.126 E0.019
G1 X50.456 Y128.076 E0.0198
G1 X50.456 Y127.51 E0.0255
G1 X50.405 Y127.561 E0.0262
G1 X50.405 Y126.995 E0.032
G1 X50.456 Y126.944 E0.0327
G1 X50.456 Y126.379 E0.0385
G1 X50.405 Y126.429 E0.0392
G1 X50.405 Y125.864 E0.045
G1 X50.456 Y125.813 E0.0457
G1 X50.456 Y125.247 E0.0515
G1 X50.405 Y125.298 E0.0522
G1 X50.405 Y124.732 E0.058
G1 X50.456 Y124.682 E0.0587
G1 X50.456 Y124.116 E0.0645
G1 X50.405 Y124.167 E0.0652
G1 X50.405 Y123.601 E0.071
G1 X50.456 Y123.55 E0.0717
G1 X50.456 Y122.985 E0.0775
G1 X50.405 Y123.035 E0.0782
G1 X50.405 Y122.47 E0.0839
G1 X50.456 Y122.419 E0.0847
G1 X50.456 Y121.853 E0.0904
G1 X50.405 Y121.904 E0.0912
G1 X50.405 Y121.338 E0.0969
G1 X50.456 Y121.288 E0.0977
G1 X50.456 Y120.722 E0.1034
G1 X50.405 Y120.773 E0.1042
G92 E0
G1 E-1 F1800
G1 X54.061 Y120.247 F4800
G1 E0 F1800
G92 E0
G1 X54.8 Y120.247 E0.0075 F1000
G1 X54.8 Y129.847 E0.1053
G1 X54.061 Y129.847 E0.1128
G1 X54.061 Y120.247 E0.2106
G1 X54.405 Y120.732 F4800
G92 E0
G1 X54.456 Y120.682 E0.0007 F2000
G1 X54.456 Y121.247 E0.0065
G1 X54.405 Y121.298 E0.0072
G1 X54.405 Y121.864 E0.013
G1 X54.456 Y121.813 E0.0137
G1 X54.456 Y122.379 E0.0195
G1 X54.405 Y122.429 E0.0202
G1 X54.405 Y122.995 E0.026
G1 X54.456 Y122.944 E0.0267
G1 X54.456 Y123.51 E0.0325
G1 X54.405 Y123.561 E0.0332
G1 X54.405 Y124.126 E0.039
G1 X54.456 Y124.076 E0.0397
G1 X54.456 Y124.641 E0.0454
G1 X54.405 Y124.692 E0.0462
G1 X54.405 Y125.258 E0.0519
G1 X54.456 Y125.207 E0.0527
G1 X54.456 Y125.773 E0.0584
G1 X54.405 Y125.824 E0.0592
G1 X54.405 Y126.389 E0.0649
G1 X54.456 Y126.338 E0.0657
G1 X54.456 Y126.904 E0.0714
G1 X54.405 Y126.955 E0.0721
G1 X54.405 Y127.521 E0.0779
G1 X54.456 Y127.47 E0.0786
G1 X54.456 Y128.036 E0.0844
G1 X54.405 Y128.086 E0.0851
G1 X54.405 Y128.652 E0.0909
G1 X54.456 Y128.601 E0.0916
G1 X54.456 Y129.167 E0.0974
G1 X54.405 Y129.218 E0.0981
G1 X54.405 Y129.503 E0.101
G1 X54.456 Y129.503 E0.1015
G1 X54.456 Y129.167 E0.105
G92 E0
G1 E-1 F1800
G1 X58.061 Y129.847 F4800
G1 E0 F1800
G92 E0
G1 X58.061 Y120.247 E0.0978 F1000
G1 X58.8 Y120.247 E0.1053
G1 X58.8 Y129.847 E0.2031
G1 X58.061 Y129.847 E0.2106
G1 X58.456 Y129.127 F4800
G92 E0
G1 X58.456 Y129.503 E0.0038 F2000
G1 X58.405 Y129.503 E0.0044
G1 X58.405 Y129.177 E0.0077
G1 X58.456 Y129.127 E0.0084
G1 X58.456 Y128.561 E0.0142
G1 X58.405 Y128.612 E0.0149
G1 X58.405 Y128.046 E0.0207
G1 X58.456 Y127.995 E0.0214
G1 X58.456 Y127.43 E0.0272
G1 X58.405 Y127.48 E0.0279
G1 X58.405 Y126.915 E0.0336
G1 X58.456 Y126.864 E0.0344
G1 X58.456 Y126.298 E0.0401
G1 X58.405 Y126.349 E0.0409
G1 X58.405 Y125.783 E0.0466
G1 X58.456 Y125.733 E0.0474
G1 X58.456 Y125.167 E0.0531
G1 X58.405 Y125.218 E0.0539
G1 X58.405 Y124.652 E0.0596
G1 X58.456 Y124.601 E0.0603
G1 X58.456 Y124.036 E0.0661
G1 X58.405 Y124.086 E0.0668
G1 X58.405 Y123.521 E0.0726
G1 X58.456 Y123.47 E0.0733
G1 X58.456 Y122.904 E0.0791
G1 X58.405 Y122.955 E0.0798
G1 X58.405 Y122.389 E0.0856
G1 X58.456 Y122.338 E0.0863
G1 X58.456 Y121.773 E0.0921
G1 X58.405 Y121.824 E0.0928
G1 X58.405 Y121.258 E0.0986
G1 X58.456 Y121.207 E0.0993
G1 X58.456 Y120.641 E0.1051
G1 X58.405 Y120.692 E0.1058
G92 E0
G1 E-1 F1800
G1 X62.061 Y120.247 F4800
G1 E0 F1800
G92 E0
G1 X62.8 Y120.247 E0.0075 F1000
G1 X62.8 Y129.847 E0.1053
G1 X62.061 Y129.847 E0.1128
G1 X62.061 Y120.247 E0.2106
G1 X62.405 Y120.652 F4800
G92 E0
G1 X62.456 Y120.601 E0.0007 F2000
G1 X62.456 Y121.167 E0.0065
G1 X62.405 Y121.218 E0.0072
G1 X62.405 Y121.783 E0.013
G1 X62.456 Y121.733 E0.0137
G1 X62.456 Y122.298 E0.0195
G1 X62.405 Y122.349 E0.0202
G1 X62.405 Y122.915 E0.026
G1 X62.456 Y122.864 E0.0267
G1 X62.456 Y123.43 E0.0325
G1 X62.405 Y123.48 E0.0332
G1 X62.405 Y124.046 E0.039
G1 X62.456 Y123.995 E0.0397
G1 X62.456 Y124.561 E0.0454
G1 X62.405 Y124.612 E0.0462
G1 X62.405 Y125.177 E0.0519
G1 X62.456 Y125.127 E0.0527
G1 X62.456 Y125.692 E0.0584
G1 X62.405 Y125.743 E0.0592
G1 X62.405 Y126.309 E0.0649
G1 X62.456 Y126.258 E0.0657
G1 X62.456 Y126.824 E0.0714
G1 X62.405 Y126.874 E0.0721
G1 X62.405 Y127.44 E0.0779
G1 X62.456 Y127.389 E0.0786
G1 X62.456 Y127.955 E0.0844
G1 X62.405 Y128.006 E0.0851
G1 X62.405 Y128.572 E0.0909
G1 X62.456 Y128.521 E0.0916
G1 X62.456 Y129.087 E0.0974
G1 X62.405 Y129.137 E0.0981
G1 X62.405 Y129.503 E0.1018
G1 X62.456 Y129.503 E0.1024
G1 X62.456 Y129.087 E0.1066
G92 E0
G1 E-1 F1800
G1 X66.061 Y129.847 F4800
G1 E0 F1800
G92 E0
G1 X66.061 Y120.247 E0.0978 F1000
G1 X66.8 Y120.247 E0.1053
G1 X66.8 Y129.847 E0.2031
G1 X66.061 Y129.847 E0.2106
G1 X66.456 Y129.046 F4800
G92 E0
G1 X66.456 Y129.503 E0.0047 F2000
G1 X66.405 Y129.503 E0.0052
G1 X66.405 Y129.097 E0.0093
G1 X66.456 Y129.046 E0.01
G1 X66.456 Y128.481 E0.0158
G1 X66.405 Y128.531 E0.0165
G1 X66.405 Y127.966 E0.0223
G1 X66.456 Y127.915 E0.023
G1 X66.456 Y127.349 E0.0288
G1 X66.405 Y127.4 E0.0295
G1 X66.405 Y126.834 E0.0353
G1 X66.456 Y126.784 E0.036
G1 X66.456 Y126.218 E0.0418
G1 X66.405 Y126.269 E0.0425
G1 X66.405 Y125.703 E0.0483
G1 X66.456 Y125.652 E0.049
G1 X66.456 Y125.087 E0.0548
G1 X66.405 Y125.137 E0.0555
G1 X66.405 Y124.572 E0.0612
G1 X66.456 Y124.521 E0.062
G1 X66.456 Y123.955 E0.0677
G1 X66.405 Y124.006 E0.0685
G1 X66.405 Y123.44 E0.0742
G1 X66.456 Y123.389 E0.075
G1 X66.456 Y122.824 E0.0807
G1 X66.405 Y122.874 E0.0815
G1 X66.405 Y122.309 E0.0872
G1 X66.456 Y122.258 E0.0879
G1 X66.456 Y121.692 E0.0937
G1 X66.405 Y121.743 E0.0944
G1 X66.405 Y121.177 E0.1002
G1 X66.456 Y121.127 E0.1009
G1 X66.456 Y120.591 E0.1064
G1 X66.425 Y120.591 E0.1067
G1 X66.405 Y120.612 E0.107
G92 E0
G1 E-1 F1800
G1 X70.061 Y120.247 F4800
G1 E0 F1800
G92 E0
G1 X70.8 Y120.247 E0.0075 F1000
G1 X70.8 Y129.847 E0.1053
G1 X70.061 Y129.847 E0.1128
G1 X70.061 Y120.247 E0.2106
G1 X70.405 Y121.137 F4800
G92 E0
G1 X70.456 Y121.087 E0.0007 F2000
G1 X70.456 Y121.652 E0.0065
G1 X70.405 Y121.703 E0.0072
G1 X70.405 Y122.269 E0.013
G1 X70.456 Y122.218 E0.0137
G1 X70.456 Y122.784 E0.0195
G1 X70.405 Y122.834 E0.0202
G1 X70.405 Y123.4 E0.026
G1 X70.456 Y123.349 E0.0267
G1 X70.456 Y123.915 E0.0325
G1 X70.405 Y123.966 E0.0332
G1 X70.405 Y124.531 E0.039
G1 X70.456 Y124.481 E0.0397
G1 X70.456 Y125.046 E0.0454
G1 X70.405 Y125.097 E0.0462
G1 X70.405 Y125.663 E0.0519
G1 X70.456 Y125.612 E0.0527
G1 X70.456 Y126.178 E0.0584
G1 X70.405 Y126.228 E0.0592
G1 X70.405 Y126.794 E0.0649
G1 X70.456 Y126.743 E0.0657
G1 X70.456 Y127.309 E0.0714
G1 X70.405 Y127.36 E0.0721
G1 X70.405 Y127.925 E0.0779
G1 X70.456 Y127.875 E0.0786
G1 X70.456 Y128.44 E0.0844
G1 X70.405 Y128.491 E0.0851
G1 X70.405 Y129.057 E0.0909
G1 X70.456 Y129.006 E0.0916
G1 X70.456 Y129.503 E0.0967
G1 X70.405 Y129.503 E0.0972
G1 X70.405 Y129.057 E0.1018
G92 E0
G1 E-1 F1800
G1 X74.061 Y129.847 F4800
G1 E0 F1800
G92 E0
G1 X74.061 Y120.247 E0.0978 F1000
G1 X74.8 Y120.247 E0.1053
G1 X74.8 Y129.847 E0.2031
G1 X74.061 Y129.847 E0.2106
G1 X74.405 Y129.017 F4800
G92 E0
G1 X74.405 Y129.503 E0.005 F2000
G1 X74.456 Y129.503 E0.0055
G1 X74.456 Y128.966 E0.0109
G1 X74.405 Y129.017 E0.0117
G1 X74.405 Y128.451 E0.0174
G1 X74.456 Y128.4 E0.0182
G1 X74.456 Y127.835 E0.0239
G1 X74.405 Y127.885 E0.0247
G1 X74.405 Y127.32 E0.0304
G1 X74.456 Y127.269 E0.0312
G1 X74.456 Y126.703 E0.0369
G1 X74.405 Y126.754 E0.0376
G1 X74.405 Y126.188 E0.0434
G1 X74.456 Y126.137 E0.0441
G1 X74.456 Y125.572 E0.0499
G1 X74.405 Y125.623 E0.0506
G1 X74.405 Y125.057 E0.0564
G1 X74.456 Y125.006 E0.0571
G1 X74.456 Y124.44 E0.0629
G1 X74.405 Y124.491 E0.0636
G1 X74.405 Y123.925 E0.0694
G1 X74.456 Y123.875 E0.0701
G1 X74.456 Y123.309 E0.0759
G1 X74.405 Y123.36 E0.0766
G1 X74.405 Y122.794 E0.0824
G1 X74.456 Y122.743 E0.0831
G1 X74.456 Y122.178 E0.0889
G1 X74.405 Y122.228 E0.0896
G1 X74.405 Y121.663 E0.0953
G1 X74.456 Y121.612 E0.0961
G1 X74.456 Y121.046 E0.1018
G1 X74.405 Y121.097 E0.1026
G92 E0
G1 E-1 F1800
G1 X78.061 Y120.247 F4800
G1 E0 F1800
G92 E0
G1 X78.8 Y120.247 E0.0075 F1000
G1 X78.8 Y129.847 E0.1053
G1 X78.061 Y129.847 E0.1128
G1 X78.061 Y120.247 E0.2106
G1 X78.405 Y121.057 F4800
G92 E0
G1 X78.456 Y121.006 E0.0007 F2000
G1 X78.456 Y121.572 E0.0065
G1 X78.405 Y121.623 E0.0072
G1 X78.405 Y122.188 E0.013
G1 X78.456 Y122.137 E0.0137
G1 X78.456 Y122.703 E0.0195
G1 X78.405 Y122.754 E0.0202
G1 X78.405 Y123.32 E0.026
G1 X78.456 Y123.269 E0.0267
G1 X78.456 Y123.835 E0.0325
G1 X78.405 Y123.885 E0.0332
G1 X78.405 Y124.451 E0.039
G1 X78.456 Y124.4 E0.0397
G1 X78.456 Y124.966 E0.0454
G1 X78.405 Y125.017 E0.0462
G1 X78.405 Y125.582 E0.0519
G1 X78.456 Y125.532 E0.0527
G1 X78.456 Y126.097 E0.0584
G1 X78.405 Y126.148 E0.0592
G1 X78.405 Y126.714 E0.0649
G1 X78.456 Y126.663 E0.0657
G1 X78.456 Y127.229 E0.0714
G1 X78.405 Y127.279 E0.0721
G1 X78.405 Y127.845 E0.0779
G1 X78.456 Y127.794 E0.0786
G1 X78.456 Y128.36 E0.0844
G1 X78.405 Y128.411 E0.0851
G1 X78.405 Y128.976 E0.0909
G1 X78.456 Y128.926 E0.0916
G1 X78.456 Y129.491 E0.0974
G1 X78.444 Y129.503 E0.0976
G1 X78.456 Y129.503 E0.0977
G1 X78.456 Y129.491 E0.0978
G92 E0
G1 E-1 F1800
G1 X82.061 Y129.847 F4800
G1 E0 F1800
G92 E0
G1 X82.061 Y120.247 E0.0978 F1000
G1 X82.8 Y120.247 E0.1053
G1 X82.8 Y129.847 E0.2031
G1 X82.061 Y129.847 E0.2106
G1 X82.456 Y129.451 F4800
G92 E0
G1 X82.456 Y129.503 E0.0005 F2000
