; G-Code generated by Simplify3D(TM) Version 2.2.0
; Dec 28, 2014 at 2:04:53 PM
; Settings Summary
;   processName,PLA Fast
;   applyToModels,Rack
;   profileLabel,-- Select Printer Profile --
;   printMaterial,PLA
;   printQuality,Fast
;   extruderName,Extruder 1
;   extruderToolheadNumber,0
;   extruderDiameter,0.4
;   extruderAutoWidth,1
;   extruderWidth,0.48
;   extrusionMultiplier,0.9
;   extruderUseRetract,1
;   extruderRetractionDistance,1
;   extruderExtraRestartDistance,0
;   extruderRetractionZLift,0
;   extruderRetractionSpeed,1800
;   extruderUseCoasting,0
;   extruderCoastingDistance,0.2
;   extruderUseWipe,0
;   extruderWipeDistance,5
;   primaryExtruder,0
;   layerHeight,0.3
;   topSolidLayers,3
;   bottomSolidLayers,3
;   perimeterOutlines,3
;   printPerimetersInsideOut,1
;   startPointOption,2
;   startPointOriginX,0
;   startPointOriginY,0
;   startPointOriginZ,300
;   sequentialIslands,0
;   spiralVaseMode,0
;   firstLayerHeightPercentage,90
;   firstLayerWidthPercentage,100
;   firstLayerUnderspeed,0.5
;   useRaft,0
;   raftExtruder,0
;   raftLayers,3
;   raftOffset,3
;   raftSeparationDistance,0.14
;   raftInfill,85
;   disableRaftBaseLayers,0
;   useSkirt,1
;   skirtExtruder,0
;   skirtLayers,1
;   skirtOutlines,4
;   skirtOffset,10
;   infillExtruder,0
;   externalInfillPattern,Rectilinear
;   infillPercentage,15
;   outlineOverlapPercentage,15
;   infillExtrusionWidthPercentage,100
;   minInfillLength,5
;   infillLayerInterval,1
;   randomInfillStartPoint,0
;   infillAngles,45,-45
;   generateSupport,1
;   supportExtruder,0
;   supportInfill,25
;   supportExtraInflation,0
;   denseSupportLayers,0
;   denseSupportInfill,70
;   supportLayerInterval,1
;   supportHorizontalPartOffset,0.3
;   supportUpperSeparationLayers,1
;   supportLowerSeparationLayers,1
;   supportGridSpacing,4
;   maxOverhangAngle,45
;   supportAngles,0
;   temperatureName,Extruder 1 Temperature,Heated Bed
;   temperatureNumber,0,0
;   temperatureSetpointCount,1,1
;   temperatureSetpointLayers,1,1
;   temperatureSetpointTemperatures,190,60
;   temperatureStabilizeAtStartup,1,1
;   temperatureHeatedBed,0,1
;   temperatureRelayBetweenLayers,0,0
;   temperatureRelayBetweenLoops,0,0
;   fanLayers,1,2
;   fanSpeeds,0,100
;   blipFanToFullPower,0
;   adjustSpeedForCooling,1
;   minSpeedLayerTime,15
;   minCoolingSpeedSlowdown,20
;   increaseFanForCooling,0
;   minFanLayerTime,45
;   maxCoolingFanSpeed,100
;   increaseFanForBridging,0
;   bridgingFanSpeed,100
;   use5D,1
;   relativeEdistances,0
;   allowEaxisZeroing,1
;   independentExtruderAxes,0
;   includeM10123,0
;   stickySupport,1
;   detectArcs,0
;   arcReplaceG2G3,0
;   arcRadialCompensation,1
;   gcodeXoffset,0
;   gcodeYoffset,0
;   gcodeZoffset,0
;   overrideMachineDefinition,0
;   machineTypeOverride,0
;   strokeXoverride,250
;   strokeYoverride,250
;   strokeZoverride,250
;   originOffsetXoverride,0
;   originOffsetYoverride,0
;   originOffsetZoverride,0
;   homeXdirOverride,-1
;   homeYdirOverride,-1
;   homeZdirOverride,-1
;   flipXoverride,1
;   flipYoverride,-1
;   flipZoverride,1
;   startingGcode,G28 ; home all axes
;   layerChangeGcode,
;   toolChangeGcode,
;   endingGcode,M104 S0 ; turn off extruder,M140 S0 ; turn off bed,M84 ; disable motors,G28 ; home all axes
;   createX3G,0
;   celebration,0
;   celebrationSong,Random Song
;   createMB5G,0
;   postProcessing,
;   defaultSpeed,6000
;   outlineUnderspeed,0.5
;   solidInfillUnderspeed,0.8
;   supportUnderspeed,0.8
;   rapidXYspeed,10000
;   rapidZspeed,1000
;   minBridgingArea,50
;   bridgingExtrusionMultiplier,1
;   bridgingSpeedMultiplier,1
;   filamentDiameter,3
;   filamentPricePerKg,46
;   useMinPrintHeight,0
;   minPrintHeight,0
;   useMaxPrintHeight,0
;   maxPrintHeight,0
;   useDiaphragm,0
;   diaphragmLayerInterval,20
;   robustSlicing,1
;   mergeAllIntoSolid,0
;   onlyRetractWhenCrossingOutline,1
;   retractBetweenLayers,1
;   useRetractionMinTravel,0
;   retractionMinTravel,3
;   useRetractionOozeRate,0
;   retractionOozeRate,100
;   onlyWipeOutlines,1
;   toolChangeRetractionDistance,12
;   toolChangeExtraRestartDistance,-0.5
;   toolChangeRetractionSpeed,600
;   allowThinWallGapFill,1
;   thinWallAllowedOverlapPercentage,10
G90
M82
M106 S0
M140 S60
M190 S60
M104 S190 T0
M109 S190 T0
G28 ; home all axes
G92 E0
G1 E-1 F1800
; layer 1, Z = 0.27
T0
; tool H0.3 W0.48
G1 X40.479 Y104.32 F10000
G1 Z0.27 F1000
G1 E0 F540
G92 E0
G1 X209.431 Y104.32 E3.0977 F3000
G1 X210.049 Y104.576 E3.1099
G1 X216.379 Y110.906 E3.2741
G1 X216.635 Y111.524 E3.2863
G1 X216.635 Y138.476 E3.7805
G1 X216.379 Y139.094 E3.7928
G1 X210.049 Y145.424 E3.9569
G1 X209.431 Y145.68 E3.9692
G1 X40.479 Y145.68 E7.0668
G1 X39.861 Y145.424 E7.0791
G1 X33.531 Y139.094 E7.2432
G1 X33.275 Y138.476 E7.2555
G1 X33.275 Y111.524 E7.7497
G1 X33.531 Y110.906 E7.7619
G1 X39.861 Y104.576 E7.9261
G1 X40.479 Y104.32 E7.9383
G1 X40.574 Y104.8 F10000
G92 E0
G1 X209.336 Y104.8 E3.0942 F3000
G1 X209.777 Y104.983 E3.1029
G1 X215.972 Y111.178 E3.2636
G1 X216.155 Y111.619 E3.2723
G1 X216.155 Y138.381 E3.763
G1 X215.972 Y138.822 E3.7718
G1 X209.777 Y145.017 E3.9324
G1 X209.336 Y145.2 E3.9411
G1 X40.574 Y145.2 E7.0353
G1 X40.133 Y145.017 E7.0441
G1 X33.938 Y138.822 E7.2047
G1 X33.755 Y138.381 E7.2135
G1 X33.755 Y111.619 E7.7041
G1 X33.938 Y111.178 E7.7129
G1 X40.133 Y104.983 E7.8735
G1 X40.574 Y104.8 E7.8823
G1 X40.67 Y105.28 F10000
G92 E0
G1 X209.24 Y105.28 E3.0907 F3000
G1 X209.505 Y105.39 E3.0959
G1 X215.565 Y111.45 E3.2531
G1 X215.675 Y111.715 E3.2583
G1 X215.675 Y138.285 E3.7455
G1 X215.565 Y138.55 E3.7507
G1 X209.505 Y144.61 E3.9079
G1 X209.24 Y144.72 E3.9131
G1 X40.67 Y144.72 E7.0038
G1 X40.405 Y144.61 E7.0091
G1 X34.345 Y138.55 E7.1662
G1 X34.235 Y138.285 E7.1715
G1 X34.235 Y111.715 E7.6586
G1 X34.345 Y111.45 E7.6639
G1 X40.405 Y105.39 E7.821
G1 X40.67 Y105.28 E7.8263
G1 X40.765 Y105.76 F10000
G92 E0
G1 X209.145 Y105.76 E3.0872 F3000
G1 X209.233 Y105.797 E3.0889
G1 X215.158 Y111.722 E3.2426
G1 X215.195 Y111.81 E3.2443
G1 X215.195 Y138.19 E3.728
G1 X215.158 Y138.278 E3.7297
G1 X209.233 Y144.203 E3.8834
G1 X209.145 Y144.24 E3.8851
G1 X40.765 Y144.24 E6.9723
G1 X40.677 Y144.203 E6.9741
G1 X34.752 Y138.278 E7.1277
G1 X34.715 Y138.19 E7.1295
G1 X34.715 Y111.81 E7.6131
G1 X34.752 Y111.722 E7.6149
G1 X40.677 Y105.797 E7.7685
G1 X40.765 Y105.76 E7.7703
G92 E0
G1 E-1 F1800
G1 X46.155 Y117.2 F10000
G1 E0 F1800
G92 E0
G1 X203.755 Y117.2 E2.8895 F2500
G1 X203.755 Y132.8 E3.1756
G1 X46.155 Y132.8 E6.0651
G1 X46.155 Y117.2 E6.3511
G1 X45.675 Y116.72 F10000
G92 E0
G1 X204.235 Y116.72 E2.9071 F2000
G1 X204.235 Y133.28 E3.2108
G1 X45.675 Y133.28 E6.1179
G1 X45.675 Y116.72 E6.4215
G1 X45.195 Y116.24 F10000
G92 E0
G1 X204.715 Y116.24 E2.9247 F1500
G1 X204.715 Y133.76 E3.246
G1 X45.195 Y133.76 E6.1707
G1 X45.195 Y116.24 E6.4919
G1 X46.563 Y117.811 F10000
G92 E0
G1 X46.766 Y117.608 E0.0053 F2400
G1 X47.445 Y117.608 E0.0177
G1 X46.563 Y118.49 E0.0406
G1 X46.563 Y119.169 E0.053
G1 X48.124 Y117.608 E0.0935
G1 X48.803 Y117.608 E0.106
G1 X46.563 Y119.848 E0.164
G1 X46.563 Y120.527 E0.1765
G1 X49.482 Y117.608 E0.2522
G1 X50.161 Y117.608 E0.2646
G1 X46.563 Y121.205 E0.3579
G1 X46.563 Y121.884 E0.3703
G1 X50.839 Y117.608 E0.4812
G1 X51.518 Y117.608 E0.4937
G1 X46.563 Y122.563 E0.6221
G1 X46.563 Y123.242 E0.6346
G1 X52.197 Y117.608 E0.7807
G1 X52.876 Y117.608 E0.7931
G1 X46.563 Y123.921 E0.9568
G1 X46.563 Y124.6 E0.9693
G1 X53.555 Y117.608 E1.1505
G1 X54.233 Y117.608 E1.163
G1 X46.563 Y125.278 E1.3619
G1 X46.563 Y125.957 E1.3743
G1 X54.912 Y117.608 E1.5908
G1 X55.591 Y117.608 E1.6033
G1 X46.563 Y126.636 E1.8373
G1 X46.563 Y127.315 E1.8498
G1 X56.27 Y117.608 E2.1015
G1 X56.949 Y117.608 E2.1139
G1 X46.563 Y127.994 E2.3832
G1 X46.563 Y128.673 E2.3957
G1 X57.628 Y117.608 E2.6826
G1 X58.306 Y117.608 E2.695
G1 X46.563 Y129.351 E2.9995
G1 X46.563 Y130.03 E3.0119
G1 X58.985 Y117.608 E3.334
G1 X59.664 Y117.608 E3.3465
G1 X46.563 Y130.709 E3.6862
G1 X46.563 Y131.388 E3.6986
G1 X60.343 Y117.608 E4.0559
G1 X61.022 Y117.608 E4.0684
G1 X46.563 Y132.067 E4.4433
G1 X46.563 Y132.392 E4.4492
G1 X46.916 Y132.392 E4.4557
G1 X61.7 Y117.608 E4.8391
G1 X62.379 Y117.608 E4.8515
G1 X47.595 Y132.392 E5.2348
G1 X48.274 Y132.392 E5.2473
G1 X63.058 Y117.608 E5.6306
G1 X63.737 Y117.608 E5.6431
G1 X48.953 Y132.392 E6.0264
G1 X49.632 Y132.392 E6.0388
G1 X64.416 Y117.608 E6.4222
G1 X65.095 Y117.608 E6.4346
G1 X50.311 Y132.392 E6.818
G1 X50.989 Y132.392 E6.8304
G1 X65.773 Y117.608 E7.2137
G1 X66.452 Y117.608 E7.2262
G1 X51.668 Y132.392 E7.6095
G1 X52.347 Y132.392 E7.622
G1 X67.131 Y117.608 E8.0053
G1 X67.81 Y117.608 E8.0178
G1 X53.026 Y132.392 E8.4011
G1 X53.705 Y132.392 E8.4135
G1 X68.489 Y117.608 E8.7969
G1 X69.168 Y117.608 E8.8093
G1 X54.384 Y132.392 E9.1927
G1 X55.062 Y132.392 E9.2051
G1 X69.846 Y117.608 E9.5884
G1 X70.525 Y117.608 E9.6009
G1 X55.741 Y132.392 E9.9842
G1 X56.42 Y132.392 E9.9967
G1 X71.204 Y117.608 E10.38
G1 X71.883 Y117.608 E10.3925
G1 X57.099 Y132.392 E10.7758
G1 X57.778 Y132.392 E10.7882
G1 X72.562 Y117.608 E11.1716
G1 X73.24 Y117.608 E11.184
G1 X58.456 Y132.392 E11.5674
G1 X59.135 Y132.392 E11.5798
G1 X73.919 Y117.608 E11.9631
G1 X74.598 Y117.608 E11.9756
G1 X59.814 Y132.392 E12.3589
G1 X60.493 Y132.392 E12.3714
G1 X75.277 Y117.608 E12.7547
G1 X75.956 Y117.608 E12.7671
G1 X61.172 Y132.392 E13.1505
G1 X61.851 Y132.392 E13.1629
G1 X76.635 Y117.608 E13.5463
G1 X77.313 Y117.608 E13.5587
G1 X62.529 Y132.392 E13.942
G1 X63.208 Y132.392 E13.9545
G1 X77.992 Y117.608 E14.3378
G1 X78.671 Y117.608 E14.3503
G1 X63.887 Y132.392 E14.7336
G1 X64.566 Y132.392 E14.7461
G1 X79.35 Y117.608 E15.1294
G1 X80.029 Y117.608 E15.1418
G1 X65.245 Y132.392 E15.5252
G1 X65.924 Y132.392 E15.5376
G1 X80.708 Y117.608 E15.921
G1 X81.386 Y117.608 E15.9334
G1 X66.602 Y132.392 E16.3167
G1 X67.281 Y132.392 E16.3292
G1 X82.065 Y117.608 E16.7125
G1 X82.744 Y117.608 E16.725
G1 X67.96 Y132.392 E17.1083
G1 X68.639 Y132.392 E17.1207
G1 X83.423 Y117.608 E17.5041
G1 X84.102 Y117.608 E17.5165
G1 X69.318 Y132.392 E17.8999
G1 X69.996 Y132.392 E17.9123
G1 X84.78 Y117.608 E18.2956
G1 X85.459 Y117.608 E18.3081
G1 X70.675 Y132.392 E18.6914
G1 X71.354 Y132.392 E18.7039
G1 X86.138 Y117.608 E19.0872
G1 X86.817 Y117.608 E19.0997
G1 X72.033 Y132.392 E19.483
G1 X72.712 Y132.392 E19.4954
G1 X87.496 Y117.608 E19.8788
G1 X88.175 Y117.608 E19.8912
G1 X73.391 Y132.392 E20.2746
G1 X74.069 Y132.392 E20.287
G1 X88.853 Y117.608 E20.6703
G1 X89.532 Y117.608 E20.6828
G1 X74.748 Y132.392 E21.0661
G1 X75.427 Y132.392 E21.0786
G1 X90.211 Y117.608 E21.4619
G1 X90.89 Y117.608 E21.4743
G1 X76.106 Y132.392 E21.8577
G1 X76.785 Y132.392 E21.8701
G1 X91.569 Y117.608 E22.2535
G1 X92.248 Y117.608 E22.2659
G1 X77.464 Y132.392 E22.6492
G1 X78.142 Y132.392 E22.6617
G1 X92.926 Y117.608 E23.045
G1 X93.605 Y117.608 E23.0575
G1 X78.821 Y132.392 E23.4408
G1 X79.5 Y132.392 E23.4533
G1 X94.284 Y117.608 E23.8366
G1 X94.963 Y117.608 E23.849
G1 X80.179 Y132.392 E24.2324
G1 X80.858 Y132.392 E24.2448
G1 X95.642 Y117.608 E24.6282
G1 X96.32 Y117.608 E24.6406
G1 X81.536 Y132.392 E25.0239
G1 X82.215 Y132.392 E25.0364
G1 X96.999 Y117.608 E25.4197
G1 X97.678 Y117.608 E25.4322
G1 X82.894 Y132.392 E25.8155
G1 X83.573 Y132.392 E25.8279
G1 X98.357 Y117.608 E26.2113
G1 X99.036 Y117.608 E26.2237
G1 X84.252 Y132.392 E26.6071
G1 X84.931 Y132.392 E26.6195
G1 X99.715 Y117.608 E27.0028
G1 X100.393 Y117.608 E27.0153
G1 X85.609 Y132.392 E27.3986
G1 X86.288 Y132.392 E27.4111
G1 X101.072 Y117.608 E27.7944
G1 X101.751 Y117.608 E27.8069
G1 X86.967 Y132.392 E28.1902
G1 X87.646 Y132.392 E28.2026
G1 X102.43 Y117.608 E28.586
G1 X103.109 Y117.608 E28.5984
G1 X88.325 Y132.392 E28.9818
G1 X89.003 Y132.392 E28.9942
G1 X103.787 Y117.608 E29.3775
G1 X104.466 Y117.608 E29.39
G1 X89.682 Y132.392 E29.7733
G1 X90.361 Y132.392 E29.7858
G1 X105.145 Y117.608 E30.1691
G1 X105.824 Y117.608 E30.1815
G1 X91.04 Y132.392 E30.5649
G1 X91.719 Y132.392 E30.5773
G1 X106.503 Y117.608 E30.9607
G1 X107.182 Y117.608 E30.9731
G1 X92.398 Y132.392 E31.3564
G1 X93.076 Y132.392 E31.3689
G1 X107.86 Y117.608 E31.7522
G1 X108.539 Y117.608 E31.7647
G1 X93.755 Y132.392 E32.148
G1 X94.434 Y132.392 E32.1605
G1 X109.218 Y117.608 E32.5438
G1 X109.897 Y117.608 E32.5562
G1 X95.113 Y132.392 E32.9396
G1 X95.792 Y132.392 E32.952
G1 X110.576 Y117.608 E33.3354
G1 X111.255 Y117.608 E33.3478
G1 X96.471 Y132.392 E33.7311
G1 X97.149 Y132.392 E33.7436
G1 X111.933 Y117.608 E34.1269
G1 X112.612 Y117.608 E34.1394
G1 X97.828 Y132.392 E34.5227
G1 X98.507 Y132.392 E34.5351
G1 X113.291 Y117.608 E34.9185
G1 X113.97 Y117.608 E34.9309
G1 X99.186 Y132.392 E35.3143
G1 X99.865 Y132.392 E35.3267
G1 X114.649 Y117.608 E35.71
G1 X115.327 Y117.608 E35.7225
G1 X100.543 Y132.392 E36.1058
G1 X101.222 Y132.392 E36.1183
G1 X116.006 Y117.608 E36.5016
G1 X116.685 Y117.608 E36.5141
G1 X101.901 Y132.392 E36.8974
G1 X102.58 Y132.392 E36.9098
G1 X117.364 Y117.608 E37.2932
G1 X118.043 Y117.608 E37.3056
G1 X103.259 Y132.392 E37.689
G1 X103.938 Y132.392 E37.7014
G1 X118.722 Y117.608 E38.0847
G1 X119.4 Y117.608 E38.0972
G1 X104.616 Y132.392 E38.4805
G1 X105.295 Y132.392 E38.493
G1 X120.079 Y117.608 E38.8763
G1 X120.758 Y117.608 E38.8888
G1 X105.974 Y132.392 E39.2721
G1 X106.653 Y132.392 E39.2845
G1 X121.437 Y117.608 E39.6679
G1 X122.116 Y117.608 E39.6803
G1 X107.332 Y132.392 E40.0637
G1 X108.011 Y132.392 E40.0761
G1 X122.795 Y117.608 E40.4594
G1 X123.473 Y117.608 E40.4719
G1 X108.689 Y132.392 E40.8552
G1 X109.368 Y132.392 E40.8677
G1 X124.152 Y117.608 E41.251
G1 X124.831 Y117.608 E41.2634
G1 X110.047 Y132.392 E41.6468
G1 X110.726 Y132.392 E41.6592
G1 X125.51 Y117.608 E42.0426
G1 X126.189 Y117.608 E42.055
G1 X111.405 Y132.392 E42.4383
G1 X112.083 Y132.392 E42.4508
G1 X126.867 Y117.608 E42.8341
G1 X127.546 Y117.608 E42.8466
G1 X112.762 Y132.392 E43.2299
G1 X113.441 Y132.392 E43.2424
G1 X128.225 Y117.608 E43.6257
G1 X128.904 Y117.608 E43.6381
G1 X114.12 Y132.392 E44.0215
G1 X114.799 Y132.392 E44.0339
G1 X129.583 Y117.608 E44.4173
G1 X130.262 Y117.608 E44.4297
G1 X115.478 Y132.392 E44.813
G1 X116.156 Y132.392 E44.8255
G1 X130.94 Y117.608 E45.2088
G1 X131.619 Y117.608 E45.2213
G1 X116.835 Y132.392 E45.6046
G1 X117.514 Y132.392 E45.617
G1 X132.298 Y117.608 E46.0004
G1 X132.977 Y117.608 E46.0128
G1 X118.193 Y132.392 E46.3962
G1 X118.872 Y132.392 E46.4086
G1 X133.656 Y117.608 E46.7919
G1 X134.334 Y117.608 E46.8044
G1 X119.55 Y132.392 E47.1877
G1 X120.229 Y132.392 E47.2002
G1 X135.013 Y117.608 E47.5835
G1 X135.692 Y117.608 E47.596
G1 X120.908 Y132.392 E47.9793
G1 X121.587 Y132.392 E47.9917
G1 X136.371 Y117.608 E48.3751
G1 X137.05 Y117.608 E48.3875
G1 X122.266 Y132.392 E48.7709
G1 X122.945 Y132.392 E48.7833
G1 X137.729 Y117.608 E49.1666
G1 X138.407 Y117.608 E49.1791
G1 X123.623 Y132.392 E49.5624
G1 X124.302 Y132.392 E49.5749
G1 X139.086 Y117.608 E49.9582
G1 X139.765 Y117.608 E49.9706
G1 X124.981 Y132.392 E50.354
G1 X125.66 Y132.392 E50.3664
G1 X140.444 Y117.608 E50.7498
G1 X141.123 Y117.608 E50.7622
G1 X126.339 Y132.392 E51.1455
G1 X127.018 Y132.392 E51.158
G1 X141.802 Y117.608 E51.5413
G1 X142.48 Y117.608 E51.5538
G1 X127.696 Y132.392 E51.9371
G1 X128.375 Y132.392 E51.9496
G1 X143.159 Y117.608 E52.3329
G1 X143.838 Y117.608 E52.3453
G1 X129.054 Y132.392 E52.7287
G1 X129.733 Y132.392 E52.7411
G1 X144.517 Y117.608 E53.1245
G1 X145.196 Y117.608 E53.1369
G1 X130.412 Y132.392 E53.5202
G1 X131.09 Y132.392 E53.5327
G1 X145.874 Y117.608 E53.916
G1 X146.553 Y117.608 E53.9285
G1 X131.769 Y132.392 E54.3118
G1 X132.448 Y132.392 E54.3242
G1 X147.232 Y117.608 E54.7076
G1 X147.911 Y117.608 E54.72
G1 X133.127 Y132.392 E55.1034
G1 X133.806 Y132.392 E55.1158
G1 X148.59 Y117.608 E55.4991
G1 X149.269 Y117.608 E55.5116
G1 X134.485 Y132.392 E55.8949
G1 X135.163 Y132.392 E55.9074
G1 X149.947 Y117.608 E56.2907
G1 X150.626 Y117.608 E56.3032
G1 X135.842 Y132.392 E56.6865
G1 X136.521 Y132.392 E56.6989
G1 X151.305 Y117.608 E57.0823
G1 X151.984 Y117.608 E57.0947
G1 X137.2 Y132.392 E57.4781
G1 X137.879 Y132.392 E57.4905
G1 X152.663 Y117.608 E57.8738
G1 X153.342 Y117.608 E57.8863
G1 X138.558 Y132.392 E58.2696
