; G-Code generated by Simplify3D(TM) Version 2.2.0
; Dec 27, 2014 at 10:44:42 PM
; Settings Summary
;   processName,PLA Fast
;   applyToModels,Servo_Beam
;   profileLabel,-- Select Printer Profile --
;   printMaterial,PLA
;   printQuality,Fast
;   extruderName,Extruder 1
;   extruderToolheadNumber,0
;   extruderDiameter,0.4
;   extruderAutoWidth,1
;   extruderWidth,0.48
;   extrusionMultiplier,0.9
;   extruderUseRetract,1
;   extruderRetractionDistance,1
;   extruderExtraRestartDistance,0
;   extruderRetractionZLift,0
;   extruderRetractionSpeed,1800
;   extruderUseCoasting,0
;   extruderCoastingDistance,0.2
;   extruderUseWipe,0
;   extruderWipeDistance,5
;   primaryExtruder,0
;   layerHeight,0.3
;   topSolidLayers,3
;   bottomSolidLayers,3
;   perimeterOutlines,3
;   printPerimetersInsideOut,1
;   startPointOption,2
;   startPointOriginX,0
;   startPointOriginY,0
;   startPointOriginZ,300
;   sequentialIslands,0
;   spiralVaseMode,0
;   firstLayerHeightPercentage,90
;   firstLayerWidthPercentage,100
;   firstLayerUnderspeed,0.5
;   useRaft,0
;   raftExtruder,0
;   raftLayers,3
;   raftOffset,3
;   raftSeparationDistance,0.14
;   raftInfill,85
;   disableRaftBaseLayers,0
;   useSkirt,1
;   skirtExtruder,0
;   skirtLayers,1
;   skirtOutlines,2
;   skirtOffset,4
;   infillExtruder,0
;   externalInfillPattern,Rectilinear
;   infillPercentage,15
;   outlineOverlapPercentage,15
;   infillExtrusionWidthPercentage,100
;   minInfillLength,5
;   infillLayerInterval,1
;   randomInfillStartPoint,0
;   infillAngles,45,-45
;   generateSupport,1
;   supportExtruder,0
;   supportInfill,25
;   supportExtraInflation,0
;   denseSupportLayers,0
;   denseSupportInfill,70
;   supportLayerInterval,1
;   supportHorizontalPartOffset,0.3
;   supportUpperSeparationLayers,1
;   supportLowerSeparationLayers,1
;   supportGridSpacing,4
;   maxOverhangAngle,45
;   supportAngles,0
;   temperatureName,Extruder 1 Temperature,Heated Bed
;   temperatureNumber,0,0
;   temperatureSetpointCount,1,1
;   temperatureSetpointLayers,1,1
;   temperatureSetpointTemperatures,190,60
;   temperatureStabilizeAtStartup,1,1
;   temperatureHeatedBed,0,1
;   temperatureRelayBetweenLayers,0,0
;   temperatureRelayBetweenLoops,0,0
;   fanLayers,1,2
;   fanSpeeds,0,100
;   blipFanToFullPower,0
;   adjustSpeedForCooling,1
;   minSpeedLayerTime,15
;   minCoolingSpeedSlowdown,20
;   increaseFanForCooling,0
;   minFanLayerTime,45
;   maxCoolingFanSpeed,100
;   increaseFanForBridging,0
;   bridgingFanSpeed,100
;   use5D,1
;   relativeEdistances,0
;   allowEaxisZeroing,1
;   independentExtruderAxes,0
;   includeM10123,0
;   stickySupport,1
;   detectArcs,0
;   arcReplaceG2G3,0
;   arcRadialCompensation,1
;   gcodeXoffset,0
;   gcodeYoffset,0
;   gcodeZoffset,0
;   overrideMachineDefinition,0
;   machineTypeOverride,0
;   strokeXoverride,250
;   strokeYoverride,250
;   strokeZoverride,250
;   originOffsetXoverride,0
;   originOffsetYoverride,0
;   originOffsetZoverride,0
;   homeXdirOverride,-1
;   homeYdirOverride,-1
;   homeZdirOverride,-1
;   flipXoverride,1
;   flipYoverride,-1
;   flipZoverride,1
;   startingGcode,G28 ; home all axes
;   layerChangeGcode,
;   toolChangeGcode,
;   endingGcode,M104 S0 ; turn off extruder,M140 S0 ; turn off bed,M84 ; disable motors,G28 ; home all axes
;   createX3G,0
;   celebration,0
;   celebrationSong,Random Song
;   createMB5G,0
;   postProcessing,
;   defaultSpeed,6000
;   outlineUnderspeed,0.5
;   solidInfillUnderspeed,0.8
;   supportUnderspeed,0.8
;   rapidXYspeed,10000
;   rapidZspeed,1000
;   minBridgingArea,50
;   bridgingExtrusionMultiplier,1
;   bridgingSpeedMultiplier,1
;   filamentDiameter,3
;   filamentPricePerKg,46
;   useMinPrintHeight,0
;   minPrintHeight,0
;   useMaxPrintHeight,0
;   maxPrintHeight,0
;   useDiaphragm,0
;   diaphragmLayerInterval,20
;   robustSlicing,1
;   mergeAllIntoSolid,0
;   onlyRetractWhenCrossingOutline,1
;   retractBetweenLayers,1
;   useRetractionMinTravel,0
;   retractionMinTravel,3
;   useRetractionOozeRate,0
;   retractionOozeRate,100
;   onlyWipeOutlines,1
;   toolChangeRetractionDistance,12
;   toolChangeExtraRestartDistance,-0.5
;   toolChangeRetractionSpeed,600
;   allowThinWallGapFill,1
;   thinWallAllowedOverlapPercentage,10
G90
M82
M106 S0
M140 S60
M190 S60
M104 S190 T0
M109 S190 T0
G28 ; home all axes
G92 E0
G1 E-1 F1800
; layer 1, Z = 0.27
T0
; tool H0.3 W0.48
G1 X116.64 Y119.185 F10000
G1 Z0.27 F1000
G1 E0 F540
G92 E0
G1 X119.185 Y116.64 E0.066 F1200
G1 X119.45 Y116.53 E0.0713
G1 X130.55 Y116.53 E0.2748
G1 X130.815 Y116.64 E0.28
G1 X133.36 Y119.185 E0.346
G1 X133.47 Y119.45 E0.3513
G1 X133.47 Y130.55 E0.5548
G1 X133.36 Y130.815 E0.5601
G1 X130.815 Y133.36 E0.6261
G1 X130.55 Y133.47 E0.6313
G1 X119.45 Y133.47 E0.8348
G1 X119.185 Y133.36 E0.8401
G1 X116.64 Y130.815 E0.9061
G1 X116.53 Y130.55 E0.9113
G1 X116.53 Y119.45 E1.1149
G1 X116.64 Y119.185 E1.1201
G1 X117.047 Y119.457 F10000
G92 E0
G1 X119.457 Y117.047 E0.0625 F1200
G1 X119.545 Y117.01 E0.0643
G1 X130.455 Y117.01 E0.2643
G1 X130.543 Y117.047 E0.266
G1 X132.953 Y119.457 E0.3285
G1 X132.99 Y119.545 E0.3303
G1 X132.99 Y130.455 E0.5303
G1 X132.953 Y130.543 E0.532
G1 X130.543 Y132.953 E0.5946
G1 X130.455 Y132.99 E0.5963
G1 X119.545 Y132.99 E0.7963
G1 X119.457 Y132.953 E0.7981
G1 X117.047 Y130.543 E0.8606
G1 X117.01 Y130.455 E0.8623
G1 X117.01 Y119.545 E1.0623
G1 X117.047 Y119.457 E1.0641
G92 E0
G1 E-1 F1800
G1 X122.45 Y122.45 F10000
G1 E0 F1800
G92 E0
G1 X123.876 Y122.45 E0.0261 F1000
G1 X123.196 Y122.989 E0.0421
G1 X122.966 Y123.221 E0.048
G1 X122.45 Y123.888 E0.0635
G1 X122.45 Y122.45 E0.0899
G1 X122.45 Y126.127 F10000
G92 E0
G1 X122.987 Y126.804 E0.0158 F1000
G1 X123.219 Y127.034 E0.0218
G1 X123.886 Y127.55 E0.0373
G1 X122.45 Y127.55 E0.0636
G1 X122.45 Y126.127 E0.0897
G92 E0
G1 E-1 F1800
G1 X126.109 Y122.45 F10000
G1 E0 F1800
G92 E0
G1 X127.55 Y122.45 E0.0264 F1000
G1 X127.55 Y123.878 E0.0526
G1 X127.011 Y123.198 E0.0685
G1 X126.779 Y122.969 E0.0745
G1 X126.109 Y122.45 E0.09
G92 E0
G1 E-1 F1800
G1 X126.119 Y127.55 F10000
G1 E0 F1800
G92 E0
G1 X126.793 Y127.022 E0.0157 F1000
G1 X127.031 Y126.781 E0.0219
G1 X127.55 Y126.111 E0.0374
G1 X127.55 Y127.55 E0.0638
G1 X126.119 Y127.55 E0.0901
G92 E0
G1 E-1 F1800
G1 X123.164 Y123.75 F10000
G1 E0 F1800
G92 E0
G1 X123.026 Y123.981 E0.0049 F800
G1 X122.918 Y124.226 E0.0098
G1 X122.839 Y124.482 E0.0148
G1 X122.793 Y124.744 E0.0196
G1 X122.777 Y125.003 E0.0244
G1 X122.796 Y125.281 E0.0295
G1 X122.846 Y125.545 E0.0344
G1 X122.927 Y125.801 E0.0393
G1 X123.038 Y126.045 E0.0443
G1 X123.178 Y126.273 E0.0492
G1 X123.345 Y126.483 E0.0541
G1 X123.536 Y126.672 E0.059
G1 X123.748 Y126.836 E0.0639
G1 X123.978 Y126.974 E0.0688
G1 X124.223 Y127.082 E0.0738
G1 X124.48 Y127.16 E0.0787
G1 X124.744 Y127.207 E0.0836
G1 X125.012 Y127.222 E0.0885
G1 X125.279 Y127.204 E0.0934
G1 X125.543 Y127.154 E0.0983
G1 X125.798 Y127.073 E0.1033
G1 X126.042 Y126.962 E0.1082
G1 X126.269 Y126.823 E0.1131
G1 X126.473 Y126.663 E0.1178
G1 X126.669 Y126.464 E0.1229
G1 X126.834 Y126.252 E0.1278
G1 X126.971 Y126.022 E0.1328
G1 X127.08 Y125.777 E0.1377
G1 X127.158 Y125.52 E0.1426
G1 X127.205 Y125.256 E0.1475
G1 X127.22 Y124.988 E0.1524
G1 X127.202 Y124.721 E0.1573
G1 X127.152 Y124.457 E0.1623
G1 X127.071 Y124.202 E0.1672
G1 X126.959 Y123.958 E0.1721
G1 X126.819 Y123.729 E0.177
G1 X126.653 Y123.519 E0.1819
G1 X126.462 Y123.33 E0.1868
G1 X126.25 Y123.166 E0.1918
G1 X126.019 Y123.029 E0.1967
G1 X125.776 Y122.921 E0.2016
G1 X125.53 Y122.844 E0.2063
G1 X125.265 Y122.796 E0.2112
G1 X124.986 Y122.78 E0.2163
G1 X124.718 Y122.798 E0.2213
G1 X124.455 Y122.848 E0.2262
G1 X124.199 Y122.929 E0.2311
G1 X123.957 Y123.04 E0.236
G1 X123.735 Y123.174 E0.2407
G1 X123.517 Y123.347 E0.2459
G1 X123.328 Y123.538 E0.2508
G1 X123.164 Y123.75 E0.2557
G1 X123.561 Y124.021 F10000
G92 E0
G1 X123.454 Y124.201 E0.0039 F600
G1 X123.368 Y124.394 E0.0077
G1 X123.307 Y124.595 E0.0116
G1 X123.27 Y124.801 E0.0154
G1 X123.258 Y125.002 E0.0191
G1 X123.273 Y125.221 E0.0231
G1 X123.312 Y125.427 E0.027
G1 X123.376 Y125.628 E0.0308
G1 X123.463 Y125.819 E0.0347
G1 X123.573 Y125.998 E0.0385
G1 X123.703 Y126.162 E0.0424
G1 X123.853 Y126.31 E0.0462
G1 X124.019 Y126.439 E0.0501
G1 X124.199 Y126.546 E0.0539
G1 X124.391 Y126.632 E0.0578
G1 X124.592 Y126.693 E0.0616
G1 X124.799 Y126.73 E0.0655
G1 X125.009 Y126.741 E0.0693
G1 X125.219 Y126.727 E0.0732
G1 X125.425 Y126.688 E0.077
G1 X125.625 Y126.624 E0.0809
G1 X125.816 Y126.537 E0.0848
G1 X125.995 Y126.428 E0.0886
G1 X126.153 Y126.303 E0.0923
G1 X126.308 Y126.147 E0.0963
G1 X126.436 Y125.981 E0.1002
G1 X126.544 Y125.801 E0.104
G1 X126.629 Y125.609 E0.1079
G1 X126.691 Y125.408 E0.1117
G1 X126.727 Y125.201 E0.1156
G1 X126.739 Y124.991 E0.1194
G1 X126.725 Y124.781 E0.1233
G1 X126.686 Y124.575 E0.1271
G1 X126.622 Y124.375 E0.131
G1 X126.535 Y124.184 E0.1348
G1 X126.425 Y124.005 E0.1387
G1 X126.294 Y123.84 E0.1425
G1 X126.145 Y123.692 E0.1464
G1 X125.979 Y123.564 E0.1502
G1 X125.799 Y123.456 E0.1541
G1 X125.607 Y123.371 E0.1579
G1 X125.415 Y123.311 E0.1616
G1 X125.208 Y123.273 E0.1655
G1 X124.989 Y123.261 E0.1695
G1 X124.779 Y123.275 E0.1734
G1 X124.573 Y123.314 E0.1772
G1 X124.372 Y123.378 E0.1811
G1 X124.182 Y123.465 E0.1849
G1 X124.01 Y123.569 E0.1886
G1 X123.838 Y123.705 E0.1926
G1 X123.69 Y123.855 E0.1965
G1 X123.561 Y124.021 E0.2003
G1 X121.97 Y121.97 F10000
G92 E0
G1 X128.03 Y121.97 E0.1111 F800
G1 X128.03 Y128.03 E0.2222
G1 X121.97 Y128.03 E0.3333
G1 X121.97 Y121.97 E0.4444
G1 X121.49 Y121.49 F10000
G92 E0
G1 X128.51 Y121.49 E0.1287 F600
G1 X128.51 Y128.51 E0.2574
G1 X121.49 Y128.51 E0.3861
G1 X121.49 Y121.49 E0.5148
G92 E0
G1 E-1 F1800
; layer 2, Z = 0.57
M106 S255
G1 X122.45 Y122.45 F10000
G1 Z0.57 F1000
G1 E0 F1800
G92 E0
G1 X123.882 Y122.45 E0.0262 F1000
G1 X123.207 Y122.979 E0.042
G1 X122.976 Y123.209 E0.0479
G1 X122.45 Y123.881 E0.0636
G1 X122.45 Y122.45 E0.0898
G1 X126.116 Y122.45 F10000
G92 E0
G1 X127.55 Y122.45 E0.0263 F1000
G1 X127.55 Y123.884 E0.0526
G1 X127.021 Y123.209 E0.0683
G1 X126.791 Y122.979 E0.0743
G1 X126.116 Y122.45 E0.09
G92 E0
G1 E-1 F1800
G1 X122.45 Y126.121 F10000
G1 E0 F1800
G92 E0
G1 X122.976 Y126.793 E0.0156 F1000
G1 X123.207 Y127.024 E0.0216
G1 X123.879 Y127.55 E0.0373
G1 X122.45 Y127.55 E0.0635
G1 X122.45 Y126.121 E0.0897
G92 E0
G1 E-1 F1800
G1 X127.55 Y126.118 F10000
G1 E0 F1800
G92 E0
G1 X127.55 Y127.55 E0.0262 F1000
G1 X126.119 Y127.55 E0.0525
G1 X126.791 Y127.024 E0.0681
G1 X127.021 Y126.793 E0.0741
G1 X127.55 Y126.118 E0.0898
G92 E0
G1 E-1 F1800
G1 X123.526 Y123.339 F10000
G1 E0 F1800
G92 E0
G1 X123.336 Y123.528 E0.0049 F800
G1 X123.171 Y123.739 E0.0098
G1 X123.032 Y123.969 E0.0148
G1 X122.922 Y124.213 E0.0197
G1 X122.842 Y124.47 E0.0246
G1 X122.794 Y124.733 E0.0295
G1 X122.777 Y125.001 E0.0344
G1 X122.794 Y125.269 E0.0393
G1 X122.842 Y125.533 E0.0443
G1 X122.922 Y125.789 E0.0492
G1 X123.032 Y126.033 E0.0541
G1 X123.171 Y126.263 E0.059
G1 X123.336 Y126.474 E0.0639
G1 X123.526 Y126.664 E0.0689
G1 X123.737 Y126.829 E0.0738
G1 X123.966 Y126.968 E0.0787
G1 X124.211 Y127.078 E0.0836
G1 X124.467 Y127.158 E0.0885
G1 X124.731 Y127.206 E0.0934
G1 X124.999 Y127.222 E0.0984
G1 X125.266 Y127.206 E0.1033
G1 X125.53 Y127.158 E0.1082
G1 X125.787 Y127.078 E0.1131
G1 X126.031 Y126.968 E0.118
G1 X126.261 Y126.829 E0.123
G1 X126.472 Y126.664 E0.1279
G1 X126.661 Y126.474 E0.1328
G1 X126.827 Y126.263 E0.1377
G1 X126.966 Y126.033 E0.1426
G1 X127.076 Y125.789 E0.1475
G1 X127.156 Y125.533 E0.1525
G1 X127.204 Y125.269 E0.1574
G1 X127.22 Y125.001 E0.1623
G1 X127.204 Y124.733 E0.1672
G1 X127.156 Y124.47 E0.1721
G1 X127.076 Y124.213 E0.177
G1 X126.966 Y123.969 E0.182
G1 X126.827 Y123.739 E0.1869
G1 X126.661 Y123.528 E0.1918
G1 X126.472 Y123.339 E0.1967
G1 X126.261 Y123.173 E0.2016
G1 X126.031 Y123.034 E0.2066
G1 X125.787 Y122.924 E0.2115
G1 X125.53 Y122.844 E0.2164
G1 X125.267 Y122.796 E0.2213
G1 X124.999 Y122.78 E0.2262
G1 X124.731 Y122.796 E0.2311
G1 X124.467 Y122.844 E0.2361
G1 X124.211 Y122.924 E0.241
G1 X123.966 Y123.034 E0.2459
G1 X123.737 Y123.173 E0.2508
G1 X123.526 Y123.339 E0.2557
G1 X123.845 Y123.698 F10000
G92 E0
G1 X123.696 Y123.847 E0.0039 F600
G1 X123.566 Y124.013 E0.0077
G1 X123.458 Y124.192 E0.0116
G1 X123.371 Y124.384 E0.0154
G1 X123.309 Y124.585 E0.0193
G1 X123.271 Y124.791 E0.0231
G1 X123.258 Y125.001 E0.027
G1 X123.271 Y125.211 E0.0308
G1 X123.309 Y125.418 E0.0347
G1 X123.371 Y125.618 E0.0385
G1 X123.458 Y125.81 E0.0424
G1 X123.566 Y125.99 E0.0462
G1 X123.696 Y126.155 E0.0501
G1 X123.845 Y126.304 E0.0539
G1 X124.01 Y126.434 E0.0578
G1 X124.19 Y126.542 E0.0617
G1 X124.382 Y126.629 E0.0655
G1 X124.582 Y126.691 E0.0694
G1 X124.789 Y126.729 E0.0732
G1 X124.999 Y126.742 E0.0771
G1 X125.209 Y126.729 E0.0809
G1 X125.415 Y126.691 E0.0848
G1 X125.616 Y126.629 E0.0886
G1 X125.808 Y126.542 E0.0925
G1 X125.987 Y126.434 E0.0963
G1 X126.153 Y126.304 E0.1002
G1 X126.302 Y126.155 E0.104
G1 X126.431 Y125.99 E0.1079
G1 X126.54 Y125.81 E0.1117
G1 X126.626 Y125.618 E0.1156
G1 X126.689 Y125.418 E0.1195
G1 X126.727 Y125.211 E0.1233
G1 X126.739 Y125.001 E0.1272
G1 X126.727 Y124.791 E0.131
G1 X126.689 Y124.585 E0.1349
G1 X126.626 Y124.384 E0.1387
G1 X126.54 Y124.192 E0.1426
G1 X126.431 Y124.013 E0.1464
G1 X126.302 Y123.847 E0.1503
G1 X126.153 Y123.698 E0.1541
G1 X125.987 Y123.569 E0.158
G1 X125.808 Y123.46 E0.1618
G1 X125.616 Y123.374 E0.1657
G1 X125.415 Y123.311 E0.1695
G1 X125.209 Y123.273 E0.1734
G1 X124.999 Y123.261 E0.1773
G1 X124.789 Y123.273 E0.1811
G1 X124.582 Y123.311 E0.185
G1 X124.382 Y123.374 E0.1888
G1 X124.19 Y123.46 E0.1927
G1 X124.01 Y123.569 E0.1965
G1 X123.845 Y123.698 E0.2004
G1 X121.97 Y121.97 F10000
G92 E0
G1 X128.03 Y121.97 E0.1111 F800
G1 X128.03 Y128.03 E0.2222
G1 X121.97 Y128.03 E0.3333
G1 X121.97 Y121.97 E0.4444
G1 X121.49 Y121.49 F10000
G92 E0
G1 X128.51 Y121.49 E0.1287 F600
G1 X128.51 Y128.51 E0.2574
G1 X121.49 Y128.51 E0.3861
G1 X121.49 Y121.49 E0.5148
G92 E0
G1 E-1 F1800
; layer 3, Z = 0.87
G1 X122.45 Y122.45 F10000
G1 Z0.87 F1000
G1 E0 F1800
G92 E0
G1 X123.882 Y122.45 E0.0262 F1000
G1 X123.207 Y122.979 E0.042
G1 X122.976 Y123.209 E0.0479
G1 X122.45 Y123.881 E0.0636
G1 X122.45 Y122.45 E0.0898
G1 X126.116 Y122.45 F10000
G92 E0
G1 X127.55 Y122.45 E0.0263 F1000
G1 X127.55 Y123.884 E0.0526
G1 X127.021 Y123.209 E0.0683
G1 X126.791 Y122.979 E0.0743
G1 X126.116 Y122.45 E0.09
G92 E0
G1 E-1 F1800
G1 X122.45 Y126.121 F10000
G1 E0 F1800
G92 E0
G1 X122.976 Y126.793 E0.0156 F1000
G1 X123.207 Y127.024 E0.0216
G1 X123.879 Y127.55 E0.0373
G1 X122.45 Y127.55 E0.0635
G1 X122.45 Y126.121 E0.0897
G92 E0
G1 E-1 F1800
G1 X127.55 Y126.118 F10000
G1 E0 F1800
G92 E0
G1 X127.55 Y127.55 E0.0262 F1000
G1 X126.119 Y127.55 E0.0525
G1 X126.791 Y127.024 E0.0681
G1 X127.021 Y126.793 E0.0741
G1 X127.55 Y126.118 E0.0898
G92 E0
G1 E-1 F1800
G1 X123.526 Y123.339 F10000
G1 E0 F1800
G92 E0
G1 X123.336 Y123.528 E0.0049 F800
G1 X123.171 Y123.739 E0.0098
G1 X123.032 Y123.969 E0.0148
G1 X122.922 Y124.213 E0.0197
G1 X122.842 Y124.47 E0.0246
G1 X122.794 Y124.733 E0.0295
G1 X122.777 Y125.001 E0.0344
G1 X122.794 Y125.269 E0.0393
G1 X122.842 Y125.533 E0.0443
G1 X122.922 Y125.789 E0.0492
G1 X123.032 Y126.033 E0.0541
G1 X123.171 Y126.263 E0.059
G1 X123.336 Y126.474 E0.0639
G1 X123.526 Y126.664 E0.0689
G1 X123.737 Y126.829 E0.0738
G1 X123.966 Y126.968 E0.0787
G1 X124.211 Y127.078 E0.0836
G1 X124.467 Y127.158 E0.0885
G1 X124.731 Y127.206 E0.0934
G1 X124.999 Y127.222 E0.0984
G1 X125.266 Y127.206 E0.1033
G1 X125.53 Y127.158 E0.1082
G1 X125.787 Y127.078 E0.1131
G1 X126.031 Y126.968 E0.118
G1 X126.261 Y126.829 E0.123
G1 X126.472 Y126.664 E0.1279
G1 X126.661 Y126.474 E0.1328
G1 X126.827 Y126.263 E0.1377
G1 X126.966 Y126.033 E0.1426
G1 X127.076 Y125.789 E0.1475
G1 X127.156 Y125.533 E0.1525
G1 X127.204 Y125.269 E0.1574
G1 X127.22 Y125.001 E0.1623
G1 X127.204 Y124.733 E0.1672
G1 X127.156 Y124.47 E0.1721
G1 X127.076 Y124.213 E0.177
G1 X126.966 Y123.969 E0.182
G1 X126.827 Y123.739 E0.1869
G1 X126.661 Y123.528 E0.1918
G1 X126.472 Y123.339 E0.1967
G1 X126.261 Y123.173 E0.2016
G1 X126.031 Y123.034 E0.2066
G1 X125.787 Y122.924 E0.2115
