; G-Code generated by Simplify3D(TM) Version 2.2.0
; Dec 28, 2014 at 2:01:51 PM
; Settings Summary
;   processName,PLA Fast
;   applyToModels,Top_Servo_Guide_One_Piece
;   profileLabel,-- Select Printer Profile --
;   printMaterial,PLA
;   printQuality,Fast
;   extruderName,Extruder 1
;   extruderToolheadNumber,0
;   extruderDiameter,0.4
;   extruderAutoWidth,1
;   extruderWidth,0.48
;   extrusionMultiplier,0.9
;   extruderUseRetract,1
;   extruderRetractionDistance,1
;   extruderExtraRestartDistance,0
;   extruderRetractionZLift,0
;   extruderRetractionSpeed,1800
;   extruderUseCoasting,0
;   extruderCoastingDistance,0.2
;   extruderUseWipe,0
;   extruderWipeDistance,5
;   primaryExtruder,0
;   layerHeight,0.3
;   topSolidLayers,3
;   bottomSolidLayers,3
;   perimeterOutlines,3
;   printPerimetersInsideOut,1
;   startPointOption,2
;   startPointOriginX,0
;   startPointOriginY,0
;   startPointOriginZ,300
;   sequentialIslands,0
;   spiralVaseMode,0
;   firstLayerHeightPercentage,90
;   firstLayerWidthPercentage,100
;   firstLayerUnderspeed,0.5
;   useRaft,0
;   raftExtruder,0
;   raftLayers,3
;   raftOffset,3
;   raftSeparationDistance,0.14
;   raftInfill,85
;   disableRaftBaseLayers,0
;   useSkirt,1
;   skirtExtruder,0
;   skirtLayers,1
;   skirtOutlines,4
;   skirtOffset,10
;   infillExtruder,0
;   externalInfillPattern,Rectilinear
;   infillPercentage,15
;   outlineOverlapPercentage,15
;   infillExtrusionWidthPercentage,100
;   minInfillLength,5
;   infillLayerInterval,1
;   randomInfillStartPoint,0
;   infillAngles,45,-45
;   generateSupport,1
;   supportExtruder,0
;   supportInfill,25
;   supportExtraInflation,0
;   denseSupportLayers,0
;   denseSupportInfill,70
;   supportLayerInterval,1
;   supportHorizontalPartOffset,0.3
;   supportUpperSeparationLayers,1
;   supportLowerSeparationLayers,1
;   supportGridSpacing,4
;   maxOverhangAngle,45
;   supportAngles,0
;   temperatureName,Extruder 1 Temperature,Heated Bed
;   temperatureNumber,0,0
;   temperatureSetpointCount,1,1
;   temperatureSetpointLayers,1,1
;   temperatureSetpointTemperatures,190,60
;   temperatureStabilizeAtStartup,1,1
;   temperatureHeatedBed,0,1
;   temperatureRelayBetweenLayers,0,0
;   temperatureRelayBetweenLoops,0,0
;   fanLayers,1,2
;   fanSpeeds,0,100
;   blipFanToFullPower,0
;   adjustSpeedForCooling,1
;   minSpeedLayerTime,15
;   minCoolingSpeedSlowdown,20
;   increaseFanForCooling,0
;   minFanLayerTime,45
;   maxCoolingFanSpeed,100
;   increaseFanForBridging,0
;   bridgingFanSpeed,100
;   use5D,1
;   relativeEdistances,0
;   allowEaxisZeroing,1
;   independentExtruderAxes,0
;   includeM10123,0
;   stickySupport,1
;   detectArcs,0
;   arcReplaceG2G3,0
;   arcRadialCompensation,1
;   gcodeXoffset,0
;   gcodeYoffset,0
;   gcodeZoffset,0
;   overrideMachineDefinition,0
;   machineTypeOverride,0
;   strokeXoverride,250
;   strokeYoverride,250
;   strokeZoverride,250
;   originOffsetXoverride,0
;   originOffsetYoverride,0
;   originOffsetZoverride,0
;   homeXdirOverride,-1
;   homeYdirOverride,-1
;   homeZdirOverride,-1
;   flipXoverride,1
;   flipYoverride,-1
;   flipZoverride,1
;   startingGcode,G28 ; home all axes
;   layerChangeGcode,
;   toolChangeGcode,
;   endingGcode,M104 S0 ; turn off extruder,M140 S0 ; turn off bed,M84 ; disable motors,G28 ; home all axes
;   createX3G,0
;   celebration,0
;   celebrationSong,Random Song
;   createMB5G,0
;   postProcessing,
;   defaultSpeed,6000
;   outlineUnderspeed,0.5
;   solidInfillUnderspeed,0.8
;   supportUnderspeed,0.8
;   rapidXYspeed,10000
;   rapidZspeed,1000
;   minBridgingArea,50
;   bridgingExtrusionMultiplier,1
;   bridgingSpeedMultiplier,1
;   filamentDiameter,3
;   filamentPricePerKg,46
;   useMinPrintHeight,0
;   minPrintHeight,0
;   useMaxPrintHeight,0
;   maxPrintHeight,0
;   useDiaphragm,0
;   diaphragmLayerInterval,20
;   robustSlicing,1
;   mergeAllIntoSolid,0
;   onlyRetractWhenCrossingOutline,1
;   retractBetweenLayers,1
;   useRetractionMinTravel,0
;   retractionMinTravel,3
;   useRetractionOozeRate,0
;   retractionOozeRate,100
;   onlyWipeOutlines,1
;   toolChangeRetractionDistance,12
;   toolChangeExtraRestartDistance,-0.5
;   toolChangeRetractionSpeed,600
;   allowThinWallGapFill,1
;   thinWallAllowedOverlapPercentage,10
G90
M82
M106 S0
M140 S60
M190 S60
M104 S190 T0
M109 S190 T0
G28 ; home all axes
G92 E0
G1 E-1 F1800
; layer 1, Z = 0.27
T0
; tool H0.3 W0.48
G1 X85.576 Y89.906 F10000
G1 Z0.27 F1000
G1 E0 F540
G92 E0
G1 X91.906 Y83.576 E0.1641 F3000
G1 X92.524 Y83.32 E0.1764
G1 X157.476 Y83.32 E1.3673
G1 X158.094 Y83.576 E1.3795
G1 X164.424 Y89.906 E1.5437
G1 X164.68 Y90.524 E1.5559
G1 X164.68 Y159.476 E2.8202
G1 X164.424 Y160.094 E2.8324
G1 X158.094 Y166.424 E2.9966
G1 X157.476 Y166.68 E3.0088
G1 X92.524 Y166.68 E4.1997
G1 X91.906 Y166.424 E4.2119
G1 X85.576 Y160.094 E4.3761
G1 X85.32 Y159.476 E4.3883
G1 X85.32 Y90.524 E5.6526
G1 X85.576 Y89.906 E5.6648
G1 X85.983 Y90.178 F10000
G92 E0
G1 X92.178 Y83.983 E0.1606 F3000
G1 X92.619 Y83.8 E0.1694
G1 X157.381 Y83.8 E1.3568
G1 X157.822 Y83.983 E1.3655
G1 X164.017 Y90.178 E1.5262
G1 X164.2 Y90.619 E1.5349
G1 X164.2 Y159.381 E2.7956
G1 X164.017 Y159.822 E2.8044
G1 X157.822 Y166.017 E2.965
G1 X157.381 Y166.2 E2.9738
G1 X92.619 Y166.2 E4.1612
G1 X92.178 Y166.017 E4.1699
G1 X85.983 Y159.822 E4.3306
G1 X85.8 Y159.381 E4.3393
G1 X85.8 Y90.619 E5.6
G1 X85.983 Y90.178 E5.6088
G1 X86.39 Y90.45 F10000
G92 E0
G1 X92.45 Y84.39 E0.1571 F3000
G1 X92.715 Y84.28 E0.1624
G1 X157.285 Y84.28 E1.3463
G1 X157.55 Y84.39 E1.3515
G1 X163.61 Y90.45 E1.5087
G1 X163.72 Y90.715 E1.5139
G1 X163.72 Y159.285 E2.7711
G1 X163.61 Y159.55 E2.7764
G1 X157.55 Y165.61 E2.9335
G1 X157.285 Y165.72 E2.9388
G1 X92.715 Y165.72 E4.1227
G1 X92.45 Y165.61 E4.1279
G1 X86.39 Y159.55 E4.2851
G1 X86.28 Y159.285 E4.2903
G1 X86.28 Y90.715 E5.5475
G1 X86.39 Y90.45 E5.5528
G1 X86.797 Y90.722 F10000
G92 E0
G1 X92.722 Y84.797 E0.1536 F3000
G1 X92.81 Y84.76 E0.1554
G1 X157.19 Y84.76 E1.3358
G1 X157.278 Y84.797 E1.3375
G1 X163.203 Y90.722 E1.4912
G1 X163.24 Y90.81 E1.4929
G1 X163.24 Y159.19 E2.7466
G1 X163.203 Y159.278 E2.7484
G1 X157.278 Y165.203 E2.902
G1 X157.19 Y165.24 E2.9038
G1 X92.81 Y165.24 E4.0842
G1 X92.722 Y165.203 E4.0859
G1 X86.797 Y159.278 E4.2395
G1 X86.76 Y159.19 E4.2413
G1 X86.76 Y90.81 E5.495
G1 X86.797 Y90.722 E5.4968
G92 E0
G1 E-1 F1800
G1 X146.985 Y100.347 F10000
G1 E0 F1800
G92 E0
G1 X146.985 Y121.787 E0.3931 F2000
G1 X151.425 Y121.787 E0.4745
G1 X151.425 Y100.347 E0.8676
G1 X146.985 Y100.347 E0.949
G1 X147.465 Y100.827 F10000
G92 E0
G1 X147.465 Y121.307 E0.3755 F1500
G1 X150.945 Y121.307 E0.4393
G1 X150.945 Y100.827 E0.8148
G1 X147.465 Y100.827 E0.8786
G1 X98.483 Y100.374 F10000
G92 E0
G1 X98.483 Y121.814 E0.3931 F2000
G1 X102.923 Y121.814 E0.4745
G1 X102.923 Y100.374 E0.8676
G1 X98.483 Y100.374 E0.949
G1 X98.963 Y100.854 F10000
G92 E0
G1 X98.963 Y121.334 E0.3755 F1500
G1 X102.443 Y121.334 E0.4393
G1 X102.443 Y100.854 E0.8148
G1 X98.963 Y100.854 E0.8786
G92 E0
G1 E-1 F1800
G1 X132.751 Y124.493 F10000
G1 E0 F1800
G92 E0
G1 X132.559 Y124.8 E0.0066 F2500
G1 X132.394 Y125.121 E0.0133
G1 X132.258 Y125.456 E0.0199
G1 X132.151 Y125.801 E0.0265
G1 X132.073 Y126.154 E0.0331
G1 X132.027 Y126.513 E0.0398
G1 X132.011 Y126.874 E0.0464
G1 X132.027 Y127.228 E0.0529
G1 X132.073 Y127.593 E0.0596
G1 X132.151 Y127.947 E0.0663
G1 X132.258 Y128.292 E0.0729
G1 X132.394 Y128.627 E0.0795
G1 X132.559 Y128.948 E0.0862
G1 X132.751 Y129.255 E0.0928
G1 X132.968 Y129.544 E0.0994
G1 X133.21 Y129.812 E0.106
G1 X133.474 Y130.06 E0.1127
G1 X133.758 Y130.283 E0.1193
G1 X134.06 Y130.482 E0.1259
G1 X134.378 Y130.653 E0.1326
G1 X134.71 Y130.797 E0.1392
G1 X135.053 Y130.912 E0.1458
G1 X135.404 Y130.997 E0.1524
G1 X135.761 Y131.051 E0.1591
G1 X136.122 Y131.074 E0.1657
G1 X136.483 Y131.066 E0.1723
G1 X136.843 Y131.028 E0.1789
G1 X137.197 Y130.958 E0.1856
G1 X137.545 Y130.858 E0.1922
G1 X137.882 Y130.729 E0.1988
G1 X138.208 Y130.571 E0.2055
G1 X138.518 Y130.386 E0.2121
G1 X138.811 Y130.175 E0.2187
G1 X139.086 Y129.939 E0.2253
G1 X139.339 Y129.681 E0.232
G1 X139.568 Y129.402 E0.2386
G1 X139.773 Y129.104 E0.2452
G1 X139.951 Y128.789 E0.2518
G1 X140.102 Y128.461 E0.2585
G1 X140.224 Y128.121 E0.2651
G1 X140.317 Y127.771 E0.2717
G1 X140.379 Y127.415 E0.2784
G1 X140.41 Y127.055 E0.285
G1 X140.41 Y126.693 E0.2916
G1 X140.379 Y126.333 E0.2982
G1 X140.317 Y125.977 E0.3049
G1 X140.224 Y125.627 E0.3115
G1 X140.102 Y125.287 E0.3181
G1 X139.951 Y124.959 E0.3248
G1 X139.773 Y124.644 E0.3314
G1 X139.568 Y124.347 E0.338
G1 X139.338 Y124.067 E0.3446
G1 X139.086 Y123.809 E0.3513
G1 X138.811 Y123.573 E0.3579
G1 X138.518 Y123.362 E0.3645
G1 X138.208 Y123.177 E0.3711
G1 X137.883 Y123.019 E0.3778
G1 X137.545 Y122.89 E0.3844
G1 X137.197 Y122.79 E0.391
G1 X136.843 Y122.72 E0.3977
G1 X136.483 Y122.682 E0.4043
G1 X136.122 Y122.674 E0.4109
G1 X135.761 Y122.697 E0.4175
G1 X135.404 Y122.751 E0.4242
G1 X135.052 Y122.836 E0.4308
G1 X134.71 Y122.951 E0.4374
G1 X134.378 Y123.095 E0.4441
G1 X134.06 Y123.266 E0.4507
G1 X133.758 Y123.465 E0.4573
G1 X133.474 Y123.688 E0.4639
G1 X133.21 Y123.936 E0.4706
G1 X132.968 Y124.204 E0.4772
G1 X132.751 Y124.493 E0.4838
G1 X133.147 Y124.766 F10000
G92 E0
G1 X132.977 Y125.037 E0.0059 F2000
G1 X132.831 Y125.322 E0.0117
G1 X132.71 Y125.618 E0.0176
G1 X132.615 Y125.924 E0.0235
G1 X132.547 Y126.237 E0.0293
G1 X132.505 Y126.554 E0.0352
G1 X132.492 Y126.874 E0.0411
G1 X132.505 Y127.187 E0.0468
G1 X132.547 Y127.511 E0.0528
G1 X132.615 Y127.824 E0.0587
G1 X132.71 Y128.13 E0.0646
G1 X132.831 Y128.426 E0.0704
G1 X132.977 Y128.711 E0.0763
G1 X133.147 Y128.983 E0.0822
G1 X133.339 Y129.238 E0.088
G1 X133.553 Y129.476 E0.0939
G1 X133.787 Y129.695 E0.0998
G1 X134.038 Y129.893 E0.1057
G1 X134.306 Y130.069 E0.1115
G1 X134.588 Y130.221 E0.1174
G1 X134.882 Y130.349 E0.1233
G1 X135.185 Y130.45 E0.1291
G1 X135.496 Y130.525 E0.135
G1 X135.813 Y130.573 E0.1409
G1 X136.132 Y130.594 E0.1467
G1 X136.452 Y130.587 E0.1526
G1 X136.771 Y130.553 E0.1585
G1 X137.085 Y130.491 E0.1644
G1 X137.393 Y130.403 E0.1702
G1 X137.692 Y130.288 E0.1761
G1 X137.979 Y130.148 E0.182
G1 X138.254 Y129.984 E0.1878
G1 X138.514 Y129.797 E0.1937
G1 X138.757 Y129.588 E0.1996
G1 X138.981 Y129.36 E0.2054
G1 X139.184 Y129.112 E0.2113
G1 X139.366 Y128.849 E0.2172
G1 X139.524 Y128.57 E0.223
G1 X139.657 Y128.279 E0.2289
G1 X139.765 Y127.978 E0.2348
G1 X139.847 Y127.668 E0.2407
G1 X139.902 Y127.353 E0.2465
G1 X139.93 Y127.034 E0.2524
G1 X139.93 Y126.714 E0.2583
G1 X139.902 Y126.395 E0.2641
G1 X139.847 Y126.08 E0.27
G1 X139.765 Y125.77 E0.2759
G1 X139.657 Y125.469 E0.2817
G1 X139.524 Y125.178 E0.2876
G1 X139.366 Y124.899 E0.2935
G1 X139.184 Y124.636 E0.2994
G1 X138.981 Y124.388 E0.3052
G1 X138.757 Y124.16 E0.3111
G1 X138.514 Y123.951 E0.317
G1 X138.254 Y123.764 E0.3228
G1 X137.979 Y123.6 E0.3287
G1 X137.692 Y123.46 E0.3346
G1 X137.392 Y123.345 E0.3404
G1 X137.085 Y123.257 E0.3463
G1 X136.771 Y123.195 E0.3522
G1 X136.452 Y123.161 E0.3581
G1 X136.132 Y123.154 E0.3639
G1 X135.813 Y123.175 E0.3698
G1 X135.496 Y123.223 E0.3757
G1 X135.185 Y123.298 E0.3815
G1 X134.881 Y123.4 E0.3874
G1 X134.588 Y123.527 E0.3933
G1 X134.306 Y123.679 E0.3991
G1 X134.038 Y123.855 E0.405
G1 X133.787 Y124.053 E0.4109
G1 X133.553 Y124.272 E0.4168
G1 X133.339 Y124.51 E0.4226
G1 X133.147 Y124.766 E0.4285
G1 X133.543 Y125.038 F10000
G92 E0
G1 X133.395 Y125.274 E0.0051 F1500
G1 X133.268 Y125.522 E0.0102
G1 X133.162 Y125.78 E0.0153
G1 X133.08 Y126.047 E0.0204
G1 X133.02 Y126.319 E0.0256
G1 X132.984 Y126.595 E0.0307
G1 X132.972 Y126.874 E0.0358
G1 X132.984 Y127.147 E0.0408
G1 X133.02 Y127.429 E0.046
G1 X133.08 Y127.701 E0.0511
G1 X133.162 Y127.968 E0.0562
G1 X133.268 Y128.226 E0.0613
G1 X133.395 Y128.474 E0.0665
G1 X133.543 Y128.71 E0.0716
G1 X133.71 Y128.933 E0.0767
G1 X133.897 Y129.14 E0.0818
G1 X134.1 Y129.331 E0.0869
G1 X134.319 Y129.504 E0.092
G1 X134.552 Y129.657 E0.0971
G1 X134.798 Y129.789 E0.1022
G1 X135.053 Y129.9 E0.1073
G1 X135.318 Y129.988 E0.1125
G1 X135.589 Y130.054 E0.1176
G1 X135.864 Y130.096 E0.1227
G1 X136.143 Y130.113 E0.1278
G1 X136.421 Y130.107 E0.1329
G1 X136.699 Y130.078 E0.138
G1 X136.972 Y130.024 E0.1431
G1 X137.24 Y129.947 E0.1482
G1 X137.5 Y129.847 E0.1534
G1 X137.751 Y129.725 E0.1585
G1 X137.991 Y129.583 E0.1636
G1 X138.217 Y129.42 E0.1687
G1 X138.428 Y129.238 E0.1738
G1 X138.623 Y129.039 E0.1789
G1 X138.801 Y128.823 E0.184
G1 X138.959 Y128.594 E0.1891
G1 X139.096 Y128.351 E0.1942
G1 X139.213 Y128.098 E0.1994
G1 X139.307 Y127.835 E0.2045
G1 X139.378 Y127.566 E0.2096
G1 X139.426 Y127.291 E0.2147
G1 X139.45 Y127.013 E0.2198
G1 X139.45 Y126.735 E0.2249
G1 X139.426 Y126.457 E0.23
G1 X139.378 Y126.182 E0.2351
G1 X139.307 Y125.913 E0.2403
G1 X139.213 Y125.65 E0.2454
G1 X139.096 Y125.397 E0.2505
G1 X138.959 Y125.154 E0.2556
G1 X138.801 Y124.925 E0.2607
G1 X138.623 Y124.709 E0.2658
G1 X138.428 Y124.51 E0.2709
G1 X138.217 Y124.328 E0.276
G1 X137.991 Y124.165 E0.2811
G1 X137.751 Y124.023 E0.2863
G1 X137.5 Y123.901 E0.2914
G1 X137.24 Y123.801 E0.2965
G1 X136.972 Y123.724 E0.3016
G1 X136.699 Y123.67 E0.3067
G1 X136.421 Y123.641 E0.3118
G1 X136.143 Y123.635 E0.3169
G1 X135.864 Y123.653 E0.322
G1 X135.589 Y123.694 E0.3272
G1 X135.318 Y123.76 E0.3323
G1 X135.053 Y123.848 E0.3374
G1 X134.798 Y123.959 E0.3425
G1 X134.552 Y124.091 E0.3476
G1 X134.319 Y124.244 E0.3527
G1 X134.1 Y124.417 E0.3578
G1 X133.897 Y124.608 E0.3629
G1 X133.71 Y124.815 E0.368
G1 X133.543 Y125.038 E0.3732
G92 E0
G1 E-1 F1800
G1 X111.758 Y123.465 F10000
G1 E0 F1800
G92 E0
G1 X111.474 Y123.688 E0.0066 F2500
G1 X111.21 Y123.936 E0.0133
G1 X110.968 Y124.204 E0.0199
G1 X110.751 Y124.493 E0.0265
G1 X110.559 Y124.8 E0.0331
G1 X110.394 Y125.121 E0.0398
G1 X110.258 Y125.456 E0.0464
G1 X110.151 Y125.801 E0.053
G1 X110.073 Y126.154 E0.0596
G1 X110.027 Y126.513 E0.0663
G1 X110.011 Y126.875 E0.0729
G1 X110.028 Y127.242 E0.0797
G1 X110.073 Y127.594 E0.0862
G1 X110.151 Y127.947 E0.0928
G1 X110.258 Y128.292 E0.0994
G1 X110.394 Y128.627 E0.106
G1 X110.559 Y128.948 E0.1127
G1 X110.751 Y129.255 E0.1193
G1 X110.968 Y129.544 E0.1259
G1 X111.21 Y129.812 E0.1326
G1 X111.474 Y130.06 E0.1392
G1 X111.758 Y130.283 E0.1458
G1 X112.06 Y130.482 E0.1524
G1 X112.378 Y130.653 E0.1591
G1 X112.71 Y130.797 E0.1657
G1 X113.053 Y130.912 E0.1723
G1 X113.404 Y130.997 E0.1789
G1 X113.761 Y131.051 E0.1856
G1 X114.122 Y131.074 E0.1922
G1 X114.483 Y131.066 E0.1988
G1 X114.843 Y131.028 E0.2055
G1 X115.197 Y130.958 E0.2121
G1 X115.545 Y130.858 E0.2187
G1 X115.882 Y130.729 E0.2253
G1 X116.208 Y130.571 E0.232
G1 X116.518 Y130.386 E0.2386
G1 X116.811 Y130.175 E0.2452
G1 X117.086 Y129.939 E0.2518
G1 X117.338 Y129.681 E0.2585
G1 X117.568 Y129.401 E0.2651
G1 X117.773 Y129.104 E0.2717
G1 X117.951 Y128.789 E0.2784
G1 X118.102 Y128.461 E0.285
G1 X118.224 Y128.121 E0.2916
G1 X118.317 Y127.771 E0.2982
G1 X118.379 Y127.415 E0.3049
G1 X118.41 Y127.055 E0.3115
G1 X118.41 Y126.693 E0.3181
G1 X118.379 Y126.333 E0.3248
G1 X118.317 Y125.977 E0.3314
G1 X118.224 Y125.627 E0.338
G1 X118.102 Y125.287 E0.3446
G1 X117.951 Y124.959 E0.3513
G1 X117.773 Y124.644 E0.3579
G1 X117.568 Y124.347 E0.3645
G1 X117.338 Y124.067 E0.3711
G1 X117.086 Y123.809 E0.3778
G1 X116.811 Y123.573 E0.3844
G1 X116.518 Y123.362 E0.391
G1 X116.208 Y123.177 E0.3977
G1 X115.883 Y123.019 E0.4043
G1 X115.545 Y122.89 E0.4109
G1 X115.197 Y122.79 E0.4175
G1 X114.843 Y122.72 E0.4242
G1 X114.483 Y122.682 E0.4308
G1 X114.122 Y122.674 E0.4374
G1 X113.761 Y122.697 E0.4441
G1 X113.404 Y122.751 E0.4507
G1 X113.052 Y122.836 E0.4573
G1 X112.71 Y122.951 E0.4639
G1 X112.378 Y123.095 E0.4706
G1 X112.06 Y123.266 E0.4772
G1 X111.758 Y123.465 E0.4838
G1 X112.038 Y123.855 F10000
G92 E0
G1 X111.787 Y124.053 E0.0059 F2000
G1 X111.553 Y124.272 E0.0117
G1 X111.339 Y124.51 E0.0176
G1 X111.147 Y124.766 E0.0235
G1 X110.977 Y125.037 E0.0293
G1 X110.831 Y125.322 E0.0352
G1 X110.71 Y125.618 E0.0411
G1 X110.615 Y125.924 E0.047
G1 X110.547 Y126.237 E0.0528
G1 X110.505 Y126.554 E0.0587
G1 X110.492 Y126.875 E0.0646
G1 X110.506 Y127.2 E0.0706
G1 X110.547 Y127.511 E0.0763
G1 X110.615 Y127.824 E0.0822
