; G-Code generated by Simplify3D(TM) Version 2.2.0
; Dec 28, 2014 at 12:46:55 AM
; Settings Summary
;   processName,PLA Fast
;   applyToModels,Top_Servo_Guide_One_Piece
;   profileLabel,-- Select Printer Profile --
;   printMaterial,PLA
;   printQuality,Fast
;   extruderName,Extruder 1
;   extruderToolheadNumber,0
;   extruderDiameter,0.4
;   extruderAutoWidth,1
;   extruderWidth,0.48
;   extrusionMultiplier,0.9
;   extruderUseRetract,1
;   extruderRetractionDistance,1
;   extruderExtraRestartDistance,0
;   extruderRetractionZLift,0
;   extruderRetractionSpeed,1800
;   extruderUseCoasting,0
;   extruderCoastingDistance,0.2
;   extruderUseWipe,0
;   extruderWipeDistance,5
;   primaryExtruder,0
;   layerHeight,0.3
;   topSolidLayers,3
;   bottomSolidLayers,3
;   perimeterOutlines,3
;   printPerimetersInsideOut,1
;   startPointOption,2
;   startPointOriginX,0
;   startPointOriginY,0
;   startPointOriginZ,300
;   sequentialIslands,0
;   spiralVaseMode,0
;   firstLayerHeightPercentage,90
;   firstLayerWidthPercentage,100
;   firstLayerUnderspeed,0.5
;   useRaft,0
;   raftExtruder,0
;   raftLayers,3
;   raftOffset,3
;   raftSeparationDistance,0.14
;   raftInfill,85
;   disableRaftBaseLayers,0
;   useSkirt,1
;   skirtExtruder,0
;   skirtLayers,1
;   skirtOutlines,4
;   skirtOffset,10
;   infillExtruder,0
;   externalInfillPattern,Rectilinear
;   infillPercentage,15
;   outlineOverlapPercentage,15
;   infillExtrusionWidthPercentage,100
;   minInfillLength,5
;   infillLayerInterval,1
;   randomInfillStartPoint,0
;   infillAngles,45,-45
;   generateSupport,1
;   supportExtruder,0
;   supportInfill,25
;   supportExtraInflation,0
;   denseSupportLayers,0
;   denseSupportInfill,70
;   supportLayerInterval,1
;   supportHorizontalPartOffset,0.3
;   supportUpperSeparationLayers,1
;   supportLowerSeparationLayers,1
;   supportGridSpacing,4
;   maxOverhangAngle,45
;   supportAngles,0
;   temperatureName,Extruder 1 Temperature,Heated Bed
;   temperatureNumber,0,0
;   temperatureSetpointCount,1,1
;   temperatureSetpointLayers,1,1
;   temperatureSetpointTemperatures,190,60
;   temperatureStabilizeAtStartup,1,1
;   temperatureHeatedBed,0,1
;   temperatureRelayBetweenLayers,0,0
;   temperatureRelayBetweenLoops,0,0
;   fanLayers,1,2
;   fanSpeeds,0,100
;   blipFanToFullPower,0
;   adjustSpeedForCooling,1
;   minSpeedLayerTime,15
;   minCoolingSpeedSlowdown,20
;   increaseFanForCooling,0
;   minFanLayerTime,45
;   maxCoolingFanSpeed,100
;   increaseFanForBridging,0
;   bridgingFanSpeed,100
;   use5D,1
;   relativeEdistances,0
;   allowEaxisZeroing,1
;   independentExtruderAxes,0
;   includeM10123,0
;   stickySupport,1
;   detectArcs,0
;   arcReplaceG2G3,0
;   arcRadialCompensation,1
;   gcodeXoffset,0
;   gcodeYoffset,0
;   gcodeZoffset,0
;   overrideMachineDefinition,0
;   machineTypeOverride,0
;   strokeXoverride,250
;   strokeYoverride,250
;   strokeZoverride,250
;   originOffsetXoverride,0
;   originOffsetYoverride,0
;   originOffsetZoverride,0
;   homeXdirOverride,-1
;   homeYdirOverride,-1
;   homeZdirOverride,-1
;   flipXoverride,1
;   flipYoverride,-1
;   flipZoverride,1
;   startingGcode,G28 ; home all axes
;   layerChangeGcode,
;   toolChangeGcode,
;   endingGcode,M104 S0 ; turn off extruder,M140 S0 ; turn off bed,M84 ; disable motors,G28 ; home all axes
;   createX3G,0
;   celebration,0
;   celebrationSong,Random Song
;   createMB5G,0
;   postProcessing,
;   defaultSpeed,6000
;   outlineUnderspeed,0.5
;   solidInfillUnderspeed,0.8
;   supportUnderspeed,0.8
;   rapidXYspeed,10000
;   rapidZspeed,1000
;   minBridgingArea,50
;   bridgingExtrusionMultiplier,1
;   bridgingSpeedMultiplier,1
;   filamentDiameter,3
;   filamentPricePerKg,46
;   useMinPrintHeight,0
;   minPrintHeight,0
;   useMaxPrintHeight,0
;   maxPrintHeight,0
;   useDiaphragm,0
;   diaphragmLayerInterval,20
;   robustSlicing,1
;   mergeAllIntoSolid,0
;   onlyRetractWhenCrossingOutline,1
;   retractBetweenLayers,1
;   useRetractionMinTravel,0
;   retractionMinTravel,3
;   useRetractionOozeRate,0
;   retractionOozeRate,100
;   onlyWipeOutlines,1
;   toolChangeRetractionDistance,12
;   toolChangeExtraRestartDistance,-0.5
;   toolChangeRetractionSpeed,600
;   allowThinWallGapFill,1
;   thinWallAllowedOverlapPercentage,10
G90
M82
M106 S0
M140 S60
M190 S60
M104 S190 T0
M109 S190 T0
G28 ; home all axes
G92 E0
G1 E-1 F1800
; layer 1, Z = 0.27
T0
; tool H0.3 W0.48
G1 X96.826 Y89.906 F10000
G1 Z0.27 F1000
G1 E0 F540
G92 E0
G1 X103.156 Y83.576 E0.1641 F3000
G1 X103.774 Y83.32 E0.1764
G1 X118.726 Y83.32 E0.4505
G1 X119.344 Y83.576 E0.4628
G1 X125.674 Y89.906 E0.6269
G1 X125.93 Y90.524 E0.6392
G1 X125.93 Y137.32 E1.4972
G1 X132.012 Y137.32 E1.6087
G1 X134.115 Y135.217 E1.6632
G1 X134.39 Y135.034 E1.6693
G1 X138.371 Y133.385 E1.7483
G1 X138.695 Y133.32 E1.7544
G1 X146.226 Y133.32 E1.8924
G1 X146.844 Y133.576 E1.9047
G1 X153.174 Y139.906 E2.0688
G1 X153.43 Y140.524 E2.0811
G1 X153.43 Y159.476 E2.4286
G1 X153.174 Y160.094 E2.4408
G1 X146.844 Y166.424 E2.605
G1 X146.226 Y166.68 E2.6172
G1 X103.774 Y166.68 E3.3956
G1 X103.156 Y166.424 E3.4078
G1 X96.826 Y160.094 E3.572
G1 X96.57 Y159.476 E3.5842
G1 X96.57 Y90.524 E4.8485
G1 X96.826 Y89.906 E4.8607
G1 X97.233 Y90.178 F10000
G92 E0
G1 X103.428 Y83.983 E0.1606 F3000
G1 X103.869 Y83.8 E0.1694
G1 X118.631 Y83.8 E0.44
G1 X119.072 Y83.983 E0.4488
G1 X125.267 Y90.178 E0.6094
G1 X125.45 Y90.619 E0.6182
G1 X125.45 Y137.8 E1.4832
G1 X132.211 Y137.8 E1.6072
G1 X134.421 Y135.59 E1.6645
G1 X134.617 Y135.459 E1.6688
G1 X138.511 Y133.846 E1.7461
G1 X138.743 Y133.8 E1.7504
G1 X146.131 Y133.8 E1.8859
G1 X146.572 Y133.983 E1.8946
G1 X152.767 Y140.178 E2.0553
G1 X152.95 Y140.619 E2.064
G1 X152.95 Y159.381 E2.408
G1 X152.767 Y159.822 E2.4168
G1 X146.572 Y166.017 E2.5774
G1 X146.131 Y166.2 E2.5862
G1 X103.869 Y166.2 E3.361
G1 X103.428 Y166.017 E3.3698
G1 X97.233 Y159.822 E3.5304
G1 X97.05 Y159.381 E3.5392
G1 X97.05 Y90.619 E4.7999
G1 X97.233 Y90.178 E4.8086
G1 X97.64 Y90.45 F10000
G92 E0
G1 X103.7 Y84.39 E0.1571 F3000
G1 X103.965 Y84.28 E0.1624
G1 X118.535 Y84.28 E0.4295
G1 X118.8 Y84.39 E0.4348
G1 X124.86 Y90.45 E0.5919
G1 X124.97 Y90.715 E0.5972
G1 X124.97 Y138.28 E1.4693
G1 X132.41 Y138.28 E1.6057
G1 X134.726 Y135.963 E1.6658
G1 X134.844 Y135.884 E1.6684
G1 X138.651 Y134.308 E1.7439
G1 X138.79 Y134.28 E1.7465
G1 X146.035 Y134.28 E1.8793
G1 X146.3 Y134.39 E1.8846
G1 X152.36 Y140.45 E2.0417
G1 X152.47 Y140.715 E2.047
G1 X152.47 Y159.285 E2.3875
G1 X152.36 Y159.55 E2.3927
G1 X146.3 Y165.61 E2.5499
G1 X146.035 Y165.72 E2.5551
G1 X103.965 Y165.72 E3.3265
G1 X103.7 Y165.61 E3.3317
G1 X97.64 Y159.55 E3.4889
G1 X97.53 Y159.285 E3.4941
G1 X97.53 Y90.715 E4.7513
G1 X97.64 Y90.45 E4.7566
G1 X98.047 Y90.722 F10000
G92 E0
G1 X103.972 Y84.797 E0.1536 F3000
G1 X104.06 Y84.76 E0.1554
G1 X118.44 Y84.76 E0.419
G1 X118.528 Y84.797 E0.4208
G1 X124.453 Y90.722 E0.5744
G1 X124.49 Y90.81 E0.5762
G1 X124.49 Y138.76 E1.4553
G1 X132.608 Y138.76 E1.6042
G1 X135.032 Y136.336 E1.667
G1 X135.072 Y136.31 E1.6679
G1 X138.791 Y134.769 E1.7417
G1 X138.837 Y134.76 E1.7426
G1 X145.94 Y134.76 E1.8728
G1 X146.028 Y134.797 E1.8745
G1 X151.953 Y140.722 E2.0282
G1 X151.99 Y140.81 E2.0299
G1 X151.99 Y159.19 E2.3669
G1 X151.953 Y159.278 E2.3687
G1 X146.028 Y165.203 E2.5223
G1 X145.94 Y165.24 E2.5241
G1 X104.06 Y165.24 E3.2919
G1 X103.972 Y165.203 E3.2937
G1 X98.047 Y159.278 E3.4473
G1 X98.01 Y159.19 E3.449
G1 X98.01 Y90.81 E4.7028
G1 X98.047 Y90.722 E4.7045
G92 E0
G1 E-1 F1800
G1 X109.45 Y96.2 F10000
G1 E0 F1800
G92 E0
G1 X113.05 Y96.2 E0.066 F2500
G1 X113.05 Y150.2 E1.0561
G1 X140.55 Y150.2 E1.5603
G1 X140.55 Y153.8 E1.6263
G1 X109.45 Y153.8 E2.1965
G1 X109.45 Y96.2 E3.2526
G1 X108.97 Y95.72 F10000
G92 E0
G1 X113.53 Y95.72 E0.0836 F2000
G1 X113.53 Y149.72 E1.0737
G1 X140.57 Y149.72 E1.5694
G1 X140.57 Y146.298 E1.6322
G1 X141.03 Y145.838 E1.6441
G1 X141.03 Y154.28 E1.7989
G1 X108.97 Y154.28 E2.3867
G1 X108.97 Y95.72 E3.4604
G1 X108.49 Y95.24 F10000
G92 E0
G1 X114.01 Y95.24 E0.1012 F1500
G1 X114.01 Y149.24 E1.0913
G1 X140.09 Y149.24 E1.5694
G1 X140.09 Y146.099 E1.627
G1 X140.949 Y145.24 E1.6493
G1 X141.51 Y145.24 E1.6596
G1 X141.51 Y154.76 E1.8341
G1 X108.49 Y154.76 E2.4395
G1 X108.49 Y95.24 E3.5308
G1 X109.858 Y96.811 F10000
G92 E0
G1 X110.061 Y96.608 E0.0053 F2400
G1 X110.74 Y96.608 E0.0177
G1 X109.858 Y97.49 E0.0406
G1 X109.858 Y98.169 E0.053
G1 X111.419 Y96.608 E0.0935
G1 X112.098 Y96.608 E0.106
G1 X109.858 Y98.848 E0.164
G1 X109.858 Y99.527 E0.1765
G1 X112.642 Y96.743 E0.2487
G1 X112.642 Y97.421 E0.2611
G1 X109.858 Y100.205 E0.3333
G1 X109.858 Y100.884 E0.3458
G1 X112.642 Y98.1 E0.4179
G1 X112.642 Y98.779 E0.4304
G1 X109.858 Y101.563 E0.5026
G1 X109.858 Y102.242 E0.515
G1 X112.642 Y99.458 E0.5872
G1 X112.642 Y100.137 E0.5996
G1 X109.858 Y102.921 E0.6718
G1 X109.858 Y103.6 E0.6843
G1 X112.642 Y100.816 E0.7565
G1 X112.642 Y101.494 E0.7689
G1 X109.858 Y104.278 E0.8411
G1 X109.858 Y104.957 E0.8535
G1 X112.642 Y102.173 E0.9257
G1 X112.642 Y102.852 E0.9382
G1 X109.858 Y105.636 E1.0104
G1 X109.858 Y106.315 E1.0228
G1 X112.642 Y103.531 E1.095
G1 X112.642 Y104.21 E1.1074
G1 X109.858 Y106.994 E1.1796
G1 X109.858 Y107.673 E1.1921
G1 X112.642 Y104.889 E1.2643
G1 X112.642 Y105.567 E1.2767
G1 X109.858 Y108.351 E1.3489
G1 X109.858 Y109.03 E1.3613
G1 X112.642 Y106.246 E1.4335
G1 X112.642 Y106.925 E1.446
G1 X109.858 Y109.709 E1.5182
G1 X109.858 Y110.388 E1.5306
G1 X112.642 Y107.604 E1.6028
G1 X112.642 Y108.283 E1.6152
G1 X109.858 Y111.067 E1.6874
G1 X109.858 Y111.745 E1.6999
G1 X112.642 Y108.961 E1.7721
G1 X112.642 Y109.64 E1.7845
G1 X109.858 Y112.424 E1.8567
G1 X109.858 Y113.103 E1.8691
G1 X112.642 Y110.319 E1.9413
G1 X112.642 Y110.998 E1.9538
G1 X109.858 Y113.782 E2.026
G1 X109.858 Y114.461 E2.0384
G1 X112.642 Y111.677 E2.1106
G1 X112.642 Y112.356 E2.123
G1 X109.858 Y115.14 E2.1952
G1 X109.858 Y115.818 E2.2077
G1 X112.642 Y113.034 E2.2799
G1 X112.642 Y113.713 E2.2923
G1 X109.858 Y116.497 E2.3645
G1 X109.858 Y117.176 E2.3769
G1 X112.642 Y114.392 E2.4491
G1 X112.642 Y115.071 E2.4616
G1 X109.858 Y117.855 E2.5338
G1 X109.858 Y118.534 E2.5462
G1 X112.642 Y115.75 E2.6184
G1 X112.642 Y116.429 E2.6308
G1 X109.858 Y119.213 E2.703
G1 X109.858 Y119.891 E2.7155
G1 X112.642 Y117.107 E2.7877
G1 X112.642 Y117.786 E2.8001
G1 X109.858 Y120.57 E2.8723
G1 X109.858 Y121.249 E2.8847
G1 X112.642 Y118.465 E2.9569
G1 X112.642 Y119.144 E2.9694
G1 X109.858 Y121.928 E3.0415
G1 X109.858 Y122.607 E3.054
G1 X112.642 Y119.823 E3.1262
G1 X112.642 Y120.501 E3.1386
G1 X109.858 Y123.285 E3.2108
G1 X109.858 Y123.964 E3.2233
G1 X112.642 Y121.18 E3.2954
G1 X112.642 Y121.859 E3.3079
G1 X109.858 Y124.643 E3.3801
G1 X109.858 Y125.322 E3.3925
G1 X112.642 Y122.538 E3.4647
G1 X112.642 Y123.217 E3.4772
G1 X109.858 Y126.001 E3.5493
G1 X109.858 Y126.68 E3.5618
G1 X112.642 Y123.896 E3.634
G1 X112.642 Y124.574 E3.6464
G1 X109.858 Y127.358 E3.7186
G1 X109.858 Y128.037 E3.7311
G1 X112.642 Y125.253 E3.8032
G1 X112.642 Y125.932 E3.8157
G1 X109.858 Y128.716 E3.8879
G1 X109.858 Y129.395 E3.9003
G1 X112.642 Y126.611 E3.9725
G1 X112.642 Y127.29 E3.985
G1 X109.858 Y130.074 E4.0571
G1 X109.858 Y130.753 E4.0696
G1 X112.642 Y127.969 E4.1418
G1 X112.642 Y128.647 E4.1542
G1 X109.858 Y131.431 E4.2264
G1 X109.858 Y132.11 E4.2389
G1 X112.642 Y129.326 E4.311
G1 X112.642 Y130.005 E4.3235
G1 X109.858 Y132.789 E4.3957
G1 X109.858 Y133.468 E4.4081
G1 X112.642 Y130.684 E4.4803
G1 X112.642 Y131.363 E4.4927
G1 X109.858 Y134.147 E4.5649
G1 X109.858 Y134.825 E4.5774
G1 X112.642 Y132.041 E4.6496
G1 X112.642 Y132.72 E4.662
G1 X109.858 Y135.504 E4.7342
G1 X109.858 Y136.183 E4.7466
G1 X112.642 Y133.399 E4.8188
G1 X112.642 Y134.078 E4.8313
G1 X109.858 Y136.862 E4.9035
G1 X109.858 Y137.541 E4.9159
G1 X112.642 Y134.757 E4.9881
G1 X112.642 Y135.436 E5.0005
G1 X109.858 Y138.22 E5.0727
G1 X109.858 Y138.898 E5.0852
G1 X112.642 Y136.114 E5.1574
G1 X112.642 Y136.793 E5.1698
G1 X109.858 Y139.577 E5.242
G1 X109.858 Y140.256 E5.2544
G1 X112.642 Y137.472 E5.3266
G1 X112.642 Y138.151 E5.3391
G1 X109.858 Y140.935 E5.4113
G1 X109.858 Y141.614 E5.4237
G1 X112.642 Y138.83 E5.4959
G1 X112.642 Y139.508 E5.5083
G1 X109.858 Y142.292 E5.5805
G1 X109.858 Y142.971 E5.593
G1 X112.642 Y140.187 E5.6652
G1 X112.642 Y140.866 E5.6776
G1 X109.858 Y143.65 E5.7498
G1 X109.858 Y144.329 E5.7622
G1 X112.642 Y141.545 E5.8344
G1 X112.642 Y142.224 E5.8469
G1 X109.858 Y145.008 E5.9191
G1 X109.858 Y145.687 E5.9315
G1 X112.642 Y142.903 E6.0037
G1 X112.642 Y143.581 E6.0161
G1 X109.858 Y146.365 E6.0883
G1 X109.858 Y147.044 E6.1008
G1 X112.642 Y144.26 E6.173
G1 X112.642 Y144.939 E6.1854
G1 X109.858 Y147.723 E6.2576
G1 X109.858 Y148.402 E6.27
G1 X112.642 Y145.618 E6.3422
G1 X112.642 Y146.297 E6.3547
G1 X109.858 Y149.081 E6.4269
G1 X109.858 Y149.76 E6.4393
G1 X112.642 Y146.976 E6.5115
G1 X112.642 Y147.654 E6.5239
G1 X109.858 Y150.438 E6.5961
G1 X109.858 Y151.117 E6.6086
G1 X112.642 Y148.333 E6.6808
G1 X112.642 Y149.012 E6.6932
G1 X109.858 Y151.796 E6.7654
G1 X109.858 Y152.475 E6.7778
G1 X112.642 Y149.691 E6.85
G1 X112.642 Y150.37 E6.8625
G1 X109.858 Y153.154 E6.9346
G1 X109.858 Y153.392 E6.939
G1 X110.298 Y153.392 E6.9471
G1 X113.082 Y150.608 E7.0193
G1 X113.761 Y150.608 E7.0317
G1 X110.977 Y153.392 E7.1039
G1 X111.656 Y153.392 E7.1164
G1 X114.44 Y150.608 E7.1885
G1 X115.119 Y150.608 E7.201
G1 X112.335 Y153.392 E7.2732
G1 X113.014 Y153.392 E7.2856
G1 X115.798 Y150.608 E7.3578
G1 X116.477 Y150.608 E7.3703
G1 X113.693 Y153.392 E7.4424
G1 X114.371 Y153.392 E7.4549
G1 X117.155 Y150.608 E7.5271
G1 X117.834 Y150.608 E7.5395
G1 X115.05 Y153.392 E7.6117
G1 X115.729 Y153.392 E7.6242
G1 X118.513 Y150.608 E7.6963
G1 X119.192 Y150.608 E7.7088
G1 X116.408 Y153.392 E7.781
G1 X117.087 Y153.392 E7.7934
G1 X119.871 Y150.608 E7.8656
G1 X120.55 Y150.608 E7.8781
G1 X117.766 Y153.392 E7.9502
G1 X118.444 Y153.392 E7.9627
G1 X121.228 Y150.608 E8.0349
G1 X121.907 Y150.608 E8.0473
G1 X119.123 Y153.392 E8.1195
G1 X119.802 Y153.392 E8.132
G1 X122.586 Y150.608 E8.2041
G1 X123.265 Y150.608 E8.2166
G1 X120.481 Y153.392 E8.2888
G1 X121.16 Y153.392 E8.3012
G1 X123.944 Y150.608 E8.3734
G1 X124.622 Y150.608 E8.3858
G1 X121.838 Y153.392 E8.458
G1 X122.517 Y153.392 E8.4705
G1 X125.301 Y150.608 E8.5427
G1 X125.98 Y150.608 E8.5551
G1 X123.196 Y153.392 E8.6273
G1 X123.875 Y153.392 E8.6397
G1 X126.659 Y150.608 E8.7119
G1 X127.338 Y150.608 E8.7244
G1 X124.554 Y153.392 E8.7966
G1 X125.233 Y153.392 E8.809
G1 X128.017 Y150.608 E8.8812
G1 X128.695 Y150.608 E8.8936
G1 X125.911 Y153.392 E8.9658
G1 X126.59 Y153.392 E8.9783
G1 X129.374 Y150.608 E9.0505
G1 X130.053 Y150.608 E9.0629
G1 X127.269 Y153.392 E9.1351
G1 X127.948 Y153.392 E9.1475
G1 X130.732 Y150.608 E9.2197
G1 X131.411 Y150.608 E9.2322
G1 X128.627 Y153.392 E9.3044
G1 X129.305 Y153.392 E9.3168
G1 X132.089 Y150.608 E9.389
G1 X132.768 Y150.608 E9.4014
G1 X129.984 Y153.392 E9.4736
G1 X130.663 Y153.392 E9.4861
G1 X133.447 Y150.608 E9.5583
G1 X134.126 Y150.608 E9.5707
G1 X131.342 Y153.392 E9.6429
G1 X132.021 Y153.392 E9.6553
G1 X134.805 Y150.608 E9.7275
G1 X135.484 Y150.608 E9.74
G1 X132.7 Y153.392 E9.8122
G1 X133.378 Y153.392 E9.8246
G1 X136.162 Y150.608 E9.8968
G1 X136.841 Y150.608 E9.9092
G1 X134.057 Y153.392 E9.9814
G1 X134.736 Y153.392 E9.9939
G1 X137.52 Y150.608 E10.0661
G1 X138.199 Y150.608 E10.0785
G1 X135.415 Y153.392 E10.1507
G1 X136.094 Y153.392 E10.1631
G1 X138.878 Y150.608 E10.2353
G1 X139.557 Y150.608 E10.2478
G1 X136.773 Y153.392 E10.32
G1 X137.451 Y153.392 E10.3324
G1 X140.142 Y150.701 E10.4022
G1 X140.142 Y151.38 E10.4146
G1 X138.13 Y153.392 E10.4668
G1 X138.809 Y153.392 E10.4792
G1 X140.142 Y152.059 E10.5138
G1 X140.142 Y152.738 E10.5262
G1 X139.488 Y153.392 E10.5432
G1 X140.142 Y153.392 E10.5552
G1 X140.142 Y152.738 E10.5672
G92 E0
G1 E-1 F1800
; layer 2, Z = 0.57
M106 S255
G1 X140.55 Y153.8 F10000
G1 Z0.57 F1000
G1 E0 F1800
G92 E0
G1 X109.45 Y153.8 E0.5702 F5000
G1 X109.45 Y96.2 E1.6263
G1 X113.05 Y96.2 E1.6923
G1 X113.05 Y150.2 E2.6824
G1 X140.55 Y150.2 E3.1866
G1 X140.55 Y153.8 E3.2526
G1 X141.03 Y154.28 F10000
G92 E0
G1 X108.97 Y154.28 E0.5878 F4000
G1 X108.97 Y95.72 E1.6615
